; generated by PrusaSlicer 2.5.2+win64 on 2024-05-14 at 18:19:59 UTC
; Postprocessed by [ArcWelder](https://github.com/FormerLurker/ArcWelderLib)
; Copyright(C) 2021 - Brad Hochgesang
; Version: 1.2.0, Branch: HEAD, BuildDate: 2021-11-21T20:25:43Z
; resolution=0.05mm
; path_tolerance=5.0%
; max_radius=9999.00mm
; default_xyz_precision=3
; default_e_precision=5
; extrusion_rate_variance_percent=5.0%


; 

; external perimeters extrusion width = 0.45mm
; perimeters extrusion width = 0.40mm
; infill extrusion width = 0.45mm
; solid infill extrusion width = 0.50mm
; top infill extrusion width = 0.45mm
; support material extrusion width = 0.42mm
; first layer extrusion width = 0.56mm

M201 X2500 Y2500 Z800 E2500 ; sets maximum accelerations, mm/sec^2
M203 X300 Y250 Z8 E80 ; sets maximum feedrates, mm / sec
M204 P2500 R2500 T2500 ; sets acceleration (P, T) and retract acceleration (R), mm/sec^2
M205 X15.00 Y10.00 Z2.00 E10.00 ; sets the jerk limits, mm/sec
M205 S0 T0 ; sets the minimum extruding and travel feed rate, mm/sec
M107
;TYPE:Custom
G90 ; use absolute coordinates
M83 ; extruder relative mode
M104 S215 ; set extruder temp
M140 S60 ; set bed temp
M190 S60 ; wait for bed temp
M109 S215 ; wait for extruder temp
G28                                        ; move X/Y/Z to min endstops
G1 Z0.28                                   ; lift nozzle a bit 
G92 E0 
G1 Y3 F1800                                    ; zero the extruded length 
G1 X60  E25 F500                       ; Extrude 25mm of filament in a 5cm line. 
G92 E0                                     ; zero the extruded length again 
G1 E-2 F500                                ; Retract a little 
G1 X70 F4000                              ; Quickly wipe away from the filament line
M117
G21 ; set units to millimeters
G90 ; use absolute coordinates
M82 ; use absolute distances for extrusion
G92 E0
M107
;LAYER_CHANGE
;Z:0.28
;HEIGHT:0.28
; BEFORE_LAYER_CHANGE 0 @ 0.28mm
G1 E-2 F4800
G92 E0
G1 Z.28 F7200
; AFTER_LAYER_CHANGE 0 @ 0.28mm
G1 X154.6 Y148.1
G1 E2 F4800
M204 S2000
;TYPE:External perimeter
;WIDTH:0.56
G1 F3000
G1 X75.4 Y148.1 E6.60904
G1 X75.4 Y81.9 E10.46154
G1 X154.6 Y81.9 E15.07058
G1 X154.6 Y148.04 E18.9196
M204 S2500
G1 X154.211 Y148.008 F7200
G1 X154.1 Y147.6
M204 S2000
;TYPE:Perimeter
G1 F3000
G1 X75.9 Y147.6 E23.47045
G1 X75.9 Y82.4 E27.26477
G1 X154.1 Y82.4 E31.81562
G1 X154.1 Y147.54 E35.60645
M204 S2500
G1 X153.6 Y147.1 F7200
M204 S2000
G1 F3000
G1 X76.4 Y147.1 E40.09912
G1 X76.4 Y82.9 E43.83526
G1 X153.6 Y82.9 E48.32793
G1 X153.6 Y147.04 E52.06057
M204 S2500
G1 E50.66057 F4800
;WIPE_START
G1 F5760
G1 X152.88 Y147.041 E50.09057
;WIPE_END
G1 E50.06057 F4800
G92 E0
G1 X142.644 Y115.393 F7200
G1 E2 F4800
M204 S2000
;TYPE:External perimeter
G1 F3000
G3 X121.755 Y135.900 I-20.891 J-0.388 E3.88718
G1 X108.245 Y135.9 E4.67339
G3 X108.245 Y94.100 I0.005 J-20.900 E8.49345
G1 X121.755 Y94.1 E9.27966
G3 X142.644 Y115.333 I-0.002 J20.894 E11.20906
M204 S2500
G1 X142.986 Y115.6 F7200
G1 X143.143 Y115.545
M204 S2000
;TYPE:Perimeter
G1 F3000
G3 X121.761 Y136.400 I-21.393 J-0.545 E13.13269
G1 X108.239 Y136.4 E13.91963
G3 X108.239 Y93.600 I0.010 J-21.400 E17.83038
G1 X121.761 Y93.6 E18.61732
G3 X143.144 Y115.485 I-0.010 J21.399 E20.60095
M204 S2500
G1 X143.642 Y115.57 F7200
M204 S2000
G1 F3000
G3 X121.767 Y136.900 I-21.891 J-0.568 E22.56851
G1 X108.233 Y136.9 E23.35617
G3 X108.233 Y93.100 I0.017 J-21.900 E27.35761
G1 X121.767 Y93.1 E28.14528
G3 X143.643 Y115.510 I-0.014 J21.896 E30.17567
M204 S2500
G1 E28.77567 F4800
;WIPE_START
G1 F5760
G1 X143.609 Y116.229 E28.20567
;WIPE_END
G1 E28.17567 F4800
G92 E0
G1 X152.39 Y83.1 F7200
G1 E2 F4800
M204 S2000
;TYPE:Solid infill
;WIDTH:0.56004
G1 F3000
G1 X153.175 Y83.885 E2.06467
G1 X153.175 Y84.592 E2.10582
G1 X151.908 Y83.325 E2.21016
G1 X151.2 Y83.325 E2.25131
G1 X153.175 Y85.3 E2.41385
G1 X153.175 Y86.007 E2.455
G1 X150.493 Y83.325 E2.67573
G1 X149.786 Y83.325 E2.71688
G1 X153.175 Y86.714 E2.99581
G1 X153.175 Y87.421 E3.03696
G1 X149.079 Y83.325 E3.37408
G1 X148.372 Y83.325 E3.41523
G1 X153.175 Y88.128 E3.81054
G1 X153.175 Y88.835 E3.85169
G1 X147.665 Y83.325 E4.3052
G1 X146.958 Y83.325 E4.34635
G1 X153.175 Y89.542 E4.85806
G1 X153.175 Y90.249 E4.8992
G1 X146.251 Y83.325 E5.4691
G1 X145.544 Y83.325 E5.51025
G1 X153.175 Y90.956 E6.13834
G1 X153.175 Y91.663 E6.17949
G1 X144.837 Y83.325 E6.86578
G1 X144.13 Y83.325 E6.90693
G1 X153.175 Y92.37 E7.65141
G1 X153.175 Y93.077 E7.69256
G1 X143.423 Y83.325 E8.49523
G1 X142.716 Y83.325 E8.53638
G1 X153.175 Y93.784 E9.39725
G1 X153.175 Y94.491 E9.4384
G1 X142.009 Y83.325 E10.35746
G1 X141.302 Y83.325 E10.39861
G1 X153.175 Y95.198 E11.37586
G1 X153.175 Y95.905 E11.41701
G1 X140.595 Y83.325 E12.45246
G1 X139.888 Y83.325 E12.49361
G1 X153.175 Y96.612 E13.58726
G1 X153.175 Y97.319 E13.62841
G1 X139.181 Y83.325 E14.78024
G1 X138.474 Y83.325 E14.82139
G1 X153.175 Y98.026 E16.03142
G1 X153.175 Y98.733 E16.07257
G1 X137.767 Y83.325 E17.3408
G1 X137.06 Y83.325 E17.38195
G1 X153.175 Y99.44 E18.70837
G1 X153.175 Y100.147 E18.74952
G1 X136.353 Y83.325 E20.13413
G1 X135.646 Y83.325 E20.17528
G1 X153.175 Y100.854 E21.61809
G1 X153.175 Y101.561 E21.65924
G1 X134.939 Y83.325 E23.16024
G1 X134.232 Y83.325 E23.20139
G1 X153.175 Y102.268 E24.76059
G1 X153.175 Y102.976 E24.80174
G1 X133.524 Y83.325 E26.41913
G1 X132.817 Y83.325 E26.46028
G1 X153.175 Y103.683 E28.13586
G1 X153.175 Y104.39 E28.17701
G1 X132.11 Y83.325 E29.91079
G1 X131.403 Y83.325 E29.95194
G1 X153.175 Y105.097 E31.74391
G1 X153.175 Y105.804 E31.78506
G1 X130.696 Y83.325 E33.63523
G1 X129.989 Y83.325 E33.67638
G1 X153.175 Y106.511 E35.58474
G1 X153.175 Y107.218 E35.62589
G1 X129.282 Y83.325 E37.59244
G1 X128.575 Y83.325 E37.63359
G1 X153.175 Y107.925 E39.65834
G1 X153.175 Y108.632 E39.69949
G1 X127.868 Y83.325 E41.78243
G1 X127.161 Y83.325 E41.82358
G1 X153.175 Y109.339 E43.96472
G1 X153.175 Y110.046 E44.00587
G1 X126.454 Y83.325 E46.2052
G1 X125.747 Y83.325 E46.24635
G1 X153.175 Y110.753 E48.50387
G1 X153.175 Y111.46 E48.54502
G1 X125.04 Y83.325 E50.86074
G1 X124.333 Y83.325 E50.90189
G1 X153.175 Y112.167 E53.27581
G1 X153.175 Y112.874 E53.31695
G1 X123.626 Y83.325 E55.74906
G1 X122.919 Y83.325 E55.79021
G1 X153.175 Y113.581 E58.28051
G1 X153.175 Y114.288 E58.32166
G1 X122.212 Y83.325 E60.87016
G1 X121.505 Y83.325 E60.91131
G1 X153.175 Y114.995 E63.518
G1 X153.175 Y115.702 E63.55915
G1 X140.729 Y103.256 E64.58356
G3 X141.650 Y104.884 I-14.916 J9.513 E64.69244
G1 X153.175 Y116.409 E65.64107
G1 X153.175 Y117.116 E65.68222
G1 X142.262 Y106.203 E66.58045
G3 X142.725 Y107.373 I-11.740 J5.322 E66.65368
G1 X153.175 Y117.823 E67.51384
G1 X153.175 Y118.53 E67.55499
G1 X143.081 Y108.437 E68.38578
G3 X143.360 Y109.422 I-9.289 J3.163 E68.44543
G1 X153.175 Y119.237 E69.25326
G1 X153.175 Y119.944 E69.29441
G1 X143.58 Y110.349 E70.0842
G1 X143.752 Y111.228 E70.13636
G1 X153.175 Y120.651 E70.91196
G1 X153.175 Y121.359 E70.95311
G1 X143.877 Y112.061 E71.71839
G1 X143.965 Y112.856 E71.76493
G1 X153.175 Y122.066 E72.52297
G1 X153.175 Y122.773 E72.56412
G1 X144.028 Y113.625 E73.31705
G1 X144.065 Y114.369 E73.36041
G1 X153.175 Y123.48 E74.11028
G1 X153.175 Y124.187 E74.15143
G1 X144.068 Y115.08 E74.90098
G1 X144.057 Y115.776 E74.9415
G1 X153.175 Y124.894 E75.69196
G1 X153.175 Y125.601 E75.73311
G1 X144.024 Y116.449 E76.48634
G1 X143.969 Y117.102 E76.52446
G1 X153.175 Y126.308 E77.28215
G1 X153.175 Y127.015 E77.3233
G1 X143.905 Y117.745 E78.0863
G1 X143.814 Y118.361 E78.12253
G1 X153.175 Y127.722 E78.89303
G1 X153.175 Y128.429 E78.93418
G1 X143.717 Y118.971 E79.71264
G1 X143.598 Y119.559 E79.74757
G1 X153.175 Y129.136 E80.53582
G1 X153.175 Y129.843 E80.57697
G1 X143.472 Y120.139 E81.37565
G1 X143.327 Y120.702 E81.40945
G1 X153.175 Y130.55 E82.22002
G1 X153.175 Y131.257 E82.26117
G1 X143.176 Y121.258 E83.08419
G1 X143.009 Y121.798 E83.1171
G1 X153.175 Y131.964 E83.95385
G1 X153.175 Y132.671 E83.995
G1 X142.833 Y122.329 E84.84622
G1 X142.644 Y122.847 E84.87833
G1 X153.175 Y133.378 E85.74508
G1 X153.175 Y134.085 E85.78623
G1 X142.447 Y123.357 E86.66921
G1 X142.238 Y123.855 E86.70062
G1 X153.175 Y134.792 E87.60086
G1 X153.175 Y135.499 E87.64201
G1 X142.021 Y124.345 E88.56007
G1 X141.791 Y124.822 E88.5909
G1 X153.175 Y136.206 E89.52787
G1 X153.175 Y136.913 E89.56902
G1 X141.557 Y125.295 E90.5253
G1 X141.308 Y125.753 E90.55564
G1 X153.175 Y137.62 E91.53243
G1 X153.175 Y138.327 E91.57358
G1 X141.056 Y126.208 E92.57105
G1 X140.788 Y126.647 E92.60099
G1 X153.175 Y139.034 E93.62053
G1 X153.175 Y139.742 E93.66168
G1 X140.52 Y127.086 E94.7033
G1 X140.234 Y127.508 E94.73293
G1 X153.175 Y140.449 E95.79805
G1 X153.175 Y141.156 E95.8392
G1 X139.948 Y127.928 E96.92791
G1 X139.648 Y128.335 E96.95734
G1 X153.175 Y141.863 E98.07076
G1 X153.175 Y142.57 E98.11191
G1 X139.343 Y128.737 E99.25042
G1 X139.028 Y129.13 E99.27969
G1 X153.175 Y143.277 E100.44408
G1 X153.175 Y143.984 E100.48523
G1 X138.706 Y129.514 E101.67618
G1 X138.377 Y129.893 E101.70535
G1 X153.175 Y144.691 E102.92332
G1 X153.175 Y145.398 E102.96447
G1 X138.037 Y130.26 E104.21045
G1 X137.695 Y130.624 E104.23956
G1 X153.175 Y146.105 E105.5137
G1 X153.175 Y146.675 E105.5469
G1 X153.039 Y146.675 E105.55485
G1 X137.337 Y130.974 E106.8472
G1 X136.979 Y131.323 E106.8763
G1 X152.332 Y146.675 E108.13992
G1 X151.625 Y146.675 E108.18107
G1 X136.606 Y131.656 E109.41723
G1 X136.23 Y131.988 E109.44638
G1 X150.917 Y146.675 E110.65526
G1 X150.21 Y146.675 E110.69641
G1 X135.843 Y132.308 E111.87896
G1 X135.449 Y132.621 E111.90824
G1 X149.503 Y146.675 E113.06498
G1 X148.796 Y146.675 E113.10613
G1 X135.048 Y132.927 E114.2377
G1 X134.637 Y133.223 E114.26718
G1 X148.089 Y146.675 E115.37441
G1 X147.382 Y146.675 E115.41556
G1 X134.221 Y133.514 E116.49882
G1 X133.791 Y133.791 E116.52858
G1 X146.675 Y146.675 E117.58901
G1 X145.968 Y146.675 E117.63016
G1 X133.361 Y134.068 E118.66785
G1 X132.912 Y134.326 E118.69797
G1 X145.261 Y146.675 E119.71436
G1 X144.554 Y146.675 E119.75551
G1 X132.464 Y134.585 E120.7506
G1 X131.998 Y134.826 E120.78113
G1 X143.847 Y146.675 E121.75637
G1 X143.14 Y146.675 E121.79752
G1 X131.531 Y135.066 E122.75304
G1 X131.048 Y135.29 E122.78403
G1 X142.433 Y146.675 E123.72112
G1 X141.726 Y146.675 E123.76227
G1 X130.56 Y135.51 E124.68127
G1 X130.059 Y135.715 E124.71283
G1 X141.019 Y146.675 E125.61494
G1 X140.312 Y146.675 E125.65609
G1 X129.551 Y135.914 E126.54181
G1 X129.029 Y136.099 E126.57405
G1 X139.605 Y146.675 E127.44455
G1 X138.898 Y146.675 E127.4857
G1 X128.499 Y136.277 E128.34157
G1 X127.955 Y136.439 E128.37464
G1 X138.191 Y146.675 E129.21714
G1 X137.484 Y146.675 E129.25829
G1 X127.403 Y136.594 E130.08801
G1 X126.834 Y136.732 E130.12211
G1 X136.777 Y146.675 E130.9405
G1 X136.07 Y146.675 E130.98165
G1 X126.258 Y136.863 E131.78923
G1 X125.661 Y136.973 E131.82457
G1 X135.363 Y146.675 E132.62312
G1 X134.656 Y146.675 E132.66427
G1 X125.057 Y137.076 E133.45434
G1 X124.43 Y137.156 E133.49113
G1 X133.949 Y146.675 E134.27461
G1 X133.242 Y146.675 E134.31576
G1 X123.794 Y137.228 E135.09335
G1 X123.136 Y137.277 E135.13174
G1 X132.534 Y146.675 E135.90528
G1 X131.827 Y146.675 E135.94643
G1 X122.46 Y137.308 E136.71745
G1 X121.77 Y137.325 E136.75761
G1 X131.12 Y146.675 E137.52722
G1 X130.413 Y146.675 E137.56837
G1 X121.063 Y137.325 E138.33798
G1 X120.356 Y137.325 E138.37913
G1 X129.706 Y146.675 E139.14874
G1 X128.999 Y146.675 E139.18989
G1 X119.649 Y137.325 E139.9595
G1 X118.942 Y137.325 E140.00065
G1 X128.292 Y146.675 E140.77027
G1 X127.585 Y146.675 E140.81142
G1 X118.235 Y137.325 E141.58103
G1 X117.528 Y137.325 E141.62218
G1 X126.878 Y146.675 E142.39179
G1 X126.171 Y146.675 E142.43294
G1 X116.821 Y137.325 E143.20255
G1 X116.114 Y137.325 E143.2437
G1 X125.464 Y146.675 E144.01331
G1 X124.757 Y146.675 E144.05446
G1 X115.407 Y137.325 E144.82407
G1 X114.699 Y137.325 E144.86522
G1 X124.05 Y146.675 E145.63483
G1 X123.343 Y146.675 E145.67598
G1 X113.992 Y137.325 E146.44559
G1 X113.285 Y137.325 E146.48674
G1 X122.636 Y146.675 E147.25635
G1 X121.929 Y146.675 E147.2975
G1 X112.578 Y137.325 E148.06711
G1 X111.871 Y137.325 E148.10826
G1 X121.222 Y146.675 E148.87787
G1 X120.515 Y146.675 E148.91902
G1 X111.164 Y137.325 E149.68863
G1 X110.457 Y137.325 E149.72978
G1 X119.808 Y146.675 E150.49939
G1 X119.101 Y146.675 E150.54054
G1 X109.75 Y137.325 E151.31016
G1 X109.043 Y137.325 E151.3513
G1 X118.394 Y146.675 E152.12092
G1 X117.687 Y146.675 E152.16207
G1 X108.336 Y137.325 E152.93168
G1 X107.614 Y137.309 E152.97373
G1 X116.98 Y146.675 E153.7446
G1 X116.273 Y146.675 E153.78575
G1 X106.875 Y137.278 E154.55921
G1 X106.111 Y137.221 E154.60382
G1 X115.566 Y146.675 E155.382
G1 X114.859 Y146.675 E155.42315
G1 X105.307 Y137.124 E156.20926
G1 X104.473 Y136.997 E156.2584
G1 X114.151 Y146.675 E157.05502
G1 X113.444 Y146.675 E157.09616
G1 X103.6 Y136.831 E157.90641
G1 X102.68 Y136.618 E157.96139
G1 X112.737 Y146.675 E158.7892
G1 X112.03 Y146.675 E158.83035
G1 X101.696 Y136.341 E159.68093
G1 X100.633 Y135.985 E159.74615
G1 X111.323 Y146.675 E160.626
G1 X110.616 Y146.675 E160.66715
G1 X99.456 Y135.515 E161.58573
G3 X98.122 Y134.888 I5.407 J-13.238 E161.67152
G1 X109.909 Y146.675 E162.64167
G1 X109.202 Y146.675 E162.68282
G1 X95.753 Y133.226 E163.78981
M204 S2500
G1 E162.38981 F4800
;WIPE_START
G1 F5760
G1 X96.262 Y133.735 E161.81981
;WIPE_END
G1 E161.78981 F4800
G92 E0
G1 X134.247 Y96.774 F7200
G1 E2 F4800
M204 S2000
G1 F3000
G1 X120.798 Y83.325 E3.10699
G1 X120.091 Y83.325 E3.14813
G1 X131.878 Y95.112 E4.11829
G2 X130.540 Y94.481 I-7.041 J13.197 E4.20439
G1 X119.384 Y83.325 E5.12263
G1 X118.677 Y83.325 E5.16378
G1 X129.367 Y94.015 E6.04364
G1 X128.304 Y93.659 E6.10885
G1 X117.97 Y83.325 E6.95944
G1 X117.263 Y83.325 E7.00059
G1 X127.32 Y93.382 E7.82839
G1 X126.402 Y93.171 E7.8832
G1 X116.556 Y83.325 E8.69365
G1 X115.849 Y83.325 E8.7348
G1 X125.527 Y93.003 E9.53141
G1 X124.693 Y92.876 E9.58055
G1 X115.141 Y83.325 E10.36667
G1 X114.434 Y83.325 E10.40782
G1 X123.889 Y92.779 E11.186
G1 X123.125 Y92.722 E11.2306
G1 X113.727 Y83.325 E12.00407
G1 X113.02 Y83.325 E12.04522
G1 X122.386 Y92.691 E12.81609
G1 X121.664 Y92.675 E12.85814
G1 X112.313 Y83.325 E13.62775
G1 X111.606 Y83.325 E13.6689
G1 X120.957 Y92.675 E14.43851
G1 X120.25 Y92.675 E14.47966
G1 X110.899 Y83.325 E15.24927
G1 X110.192 Y83.325 E15.29042
G1 X119.543 Y92.675 E16.06003
G1 X118.836 Y92.675 E16.10118
G1 X109.485 Y83.325 E16.87079
G1 X108.778 Y83.325 E16.91194
G1 X118.129 Y92.675 E17.68155
G1 X117.422 Y92.675 E17.7227
G1 X108.071 Y83.325 E18.49231
G1 X107.364 Y83.325 E18.53346
G1 X116.715 Y92.675 E19.30307
G1 X116.008 Y92.675 E19.34422
G1 X106.657 Y83.325 E20.11383
G1 X105.95 Y83.325 E20.15498
G1 X115.301 Y92.675 E20.9246
G1 X114.593 Y92.675 E20.96574
G1 X105.243 Y83.325 E21.73536
G1 X104.536 Y83.325 E21.77651
G1 X113.886 Y92.675 E22.54612
G1 X113.179 Y92.675 E22.58727
G1 X103.829 Y83.325 E23.35688
G1 X103.122 Y83.325 E23.39803
G1 X112.472 Y92.675 E24.16764
G1 X111.765 Y92.675 E24.20879
G1 X102.415 Y83.325 E24.9784
G1 X101.708 Y83.325 E25.01955
G1 X111.058 Y92.675 E25.78916
G1 X110.351 Y92.675 E25.83031
G1 X101.001 Y83.325 E26.59992
G1 X100.294 Y83.325 E26.64107
G1 X109.644 Y92.675 E27.41068
G1 X108.937 Y92.675 E27.45183
G1 X99.587 Y83.325 E28.22144
G1 X98.88 Y83.325 E28.26259
G1 X108.23 Y92.675 E29.0322
G1 X107.54 Y92.692 E29.07237
G1 X98.173 Y83.325 E29.84339
G1 X97.466 Y83.325 E29.88454
G1 X106.864 Y92.723 E30.65811
G1 X106.208 Y92.774 E30.69643
G1 X96.758 Y83.325 E31.47417
G1 X96.051 Y83.325 E31.51532
G1 X105.57 Y92.843 E32.29873
G1 X104.941 Y92.922 E32.33559
G1 X95.344 Y83.325 E33.12548
G1 X94.637 Y83.325 E33.16663
G1 X104.339 Y93.027 E33.96518
G1 X103.742 Y93.137 E34.00053
G1 X93.93 Y83.325 E34.80811
G1 X93.223 Y83.325 E34.84926
G1 X103.166 Y93.268 E35.66765
G1 X102.597 Y93.406 E35.70175
G1 X92.516 Y83.325 E36.53147
G1 X91.809 Y83.325 E36.57261
G1 X102.045 Y93.561 E37.41511
G1 X101.501 Y93.723 E37.44819
G1 X91.102 Y83.325 E38.30406
G1 X90.395 Y83.325 E38.34521
G1 X100.971 Y93.901 E39.21571
G1 X100.449 Y94.086 E39.24795
G1 X89.688 Y83.325 E40.13367
G1 X88.981 Y83.325 E40.17481
