; generated by PrusaSlicer 2.5.2+win64 on 2024-05-18 at 18:47:11 UTC
; Postprocessed by [ArcWelder](https://github.com/FormerLurker/ArcWelderLib)
; Copyright(C) 2021 - Brad Hochgesang
; Version: 1.2.0, Branch: HEAD, BuildDate: 2021-11-21T20:25:43Z
; resolution=0.05mm
; path_tolerance=5.0%
; max_radius=9999.00mm
; default_xyz_precision=3
; default_e_precision=5
; extrusion_rate_variance_percent=5.0%


; 

; external perimeters extrusion width = 0.45mm
; perimeters extrusion width = 0.40mm
; infill extrusion width = 0.45mm
; solid infill extrusion width = 0.50mm
; top infill extrusion width = 0.45mm
; support material extrusion width = 0.42mm
; first layer extrusion width = 0.56mm

M201 X2500 Y2500 Z800 E2500 ; sets maximum accelerations, mm/sec^2
M203 X300 Y250 Z8 E80 ; sets maximum feedrates, mm / sec
M204 P2500 R2500 T2500 ; sets acceleration (P, T) and retract acceleration (R), mm/sec^2
M205 X15.00 Y10.00 Z2.00 E10.00 ; sets the jerk limits, mm/sec
M205 S0 T0 ; sets the minimum extruding and travel feed rate, mm/sec
M107
;TYPE:Custom
G90 ; use absolute coordinates
M83 ; extruder relative mode
M104 S215 ; set extruder temp
M140 S60 ; set bed temp
M190 S60 ; wait for bed temp
M109 S215 ; wait for extruder temp
G28                                        ; move X/Y/Z to min endstops
G1 Z0.28                                   ; lift nozzle a bit 
G92 E0 
G1 Y3 F1800                                    ; zero the extruded length 
G1 X60  E25 F500                       ; Extrude 25mm of filament in a 5cm line. 
G92 E0                                     ; zero the extruded length again 
G1 E-2 F500                                ; Retract a little 
G1 X70 F4000                              ; Quickly wipe away from the filament line
M117
G21 ; set units to millimeters
G90 ; use absolute coordinates
M82 ; use absolute distances for extrusion
G92 E0
M107
;LAYER_CHANGE
;Z:0.28
;HEIGHT:0.28
; BEFORE_LAYER_CHANGE 0 @ 0.28mm
G1 E-2 F4800
G92 E0
G1 Z.28 F7200
; AFTER_LAYER_CHANGE 0 @ 0.28mm
G1 X106.025 Y117.043
G1 E2 F4800
M204 S2000
;TYPE:External perimeter
;WIDTH:0.56
G1 F2113
G1 X105.622 Y116.276 E2.05046
G1 X105.415 Y115.434 E2.10093
G1 X105.415 Y114.566 E2.15139
G1 X105.622 Y113.724 E2.20186
G1 X106.025 Y112.957 E2.25232
G1 X106.6 Y112.308 E2.30278
G1 X107.314 Y111.815 E2.35325
G1 X108.125 Y111.507 E2.40371
G1 X109.01 Y111.4 E2.4556
G1 X120.963 Y111.4 E3.15122
G1 X121.771 Y111.491 E3.19855
G1 X122.547 Y111.759 E3.24632
G1 X123.228 Y112.187 E3.29315
G1 X123.798 Y112.757 E3.34003
G1 X124.227 Y113.439 E3.38691
G1 X124.493 Y114.199 E3.4338
G1 X124.583 Y115 E3.48068
G1 X124.493 Y115.801 E3.52756
G1 X124.227 Y116.561 E3.57444
G1 X123.798 Y117.243 E3.62132
G1 X123.228 Y117.813 E3.6682
G1 X122.546 Y118.241 E3.71508
G1 X121.786 Y118.507 E3.76196
G1 X120.963 Y118.6 E3.81016
G1 X109.01 Y118.6 E4.50578
G1 X108.125 Y118.493 E4.55766
G1 X107.314 Y118.185 E4.60813
G1 X106.6 Y117.692 E4.65859
G1 X106.065 Y117.088 E4.70556
M204 S2500
G1 X106.197 Y116.682 F7200
G1 X106.44 Y116.757
M204 S2000
;TYPE:Perimeter
G1 F2113
G3 X108.245 Y111.996 I2.546 J-1.758 E5.05276
G1 X109.04 Y111.9 E5.09935
G1 X120.935 Y111.9 E5.79158
G3 X120.935 Y118.100 I0.026 J3.100 E6.36202
G1 X109.04 Y118.1 E7.05425
G1 X108.245 Y118.004 E7.10084
G3 X106.479 Y116.802 I0.707 J-2.937 E7.22755
M204 S2500
G1 E5.82755 F4800
;WIPE_START
G1 F5760
G1 X106.133 Y116.171 E5.25755
;WIPE_END
G1 E5.22755 F4800
G92 E0
G1 X109.424 Y116.85 F7200
G1 E2 F4800
M204 S2000
;TYPE:External perimeter
G1 F2113
G3 X109.811 Y116.714 I-0.434 J-1.852 E2.67025
G1 X109.481 Y116.83 E2.69061
M204 S2500
G1 X109.308 Y117.232 F7200
G1 X109.563 Y117.33
M204 S2000
;TYPE:Perimeter
G1 F2113
G3 X110.485 Y116.881 I-0.567 J-2.336 E3.50822
G3 X109.620 Y117.311 I-1.387 J-1.704 E3.56481
M204 S2500
G1 E2.16481 F4800
;WIPE_START
G1 F5760
G1 X108.982 Y117.406 E1.65399
G1 X108.907 Y117.397 E1.59481
;WIPE_END
G1 E1.56481 F4800
G92 E0
G1 X119.235 Y115.729 F7200
G1 E2 F4800
M204 S2000
;TYPE:External perimeter
G1 F2113
G3 X119.724 Y116.424 I1.759 J-0.718 E2.64424
G3 X119.263 Y115.783 I1.054 J-1.244 E2.69056
M204 S2500
G1 X118.839 Y115.674 F7200
G1 X118.761 Y115.903
M204 S2000
;TYPE:Perimeter
G1 F2113
G3 X119.390 Y116.801 I2.228 J-0.891 E3.50395
G3 X118.789 Y115.956 I1.413 J-1.641 E3.56475
M204 S2500
G1 X118.245 Y115.946 F7200
M204 S2000
G1 F2113
G1 X118.269 Y116.04 E3.5704
G2 X119.362 Y117.389 I2.536 J-0.937 E3.67316
G1 X119.296 Y117.6 E3.686
G1 X110.688 Y117.6 E4.18696
G1 X110.625 Y117.383 E4.2001
G1 X110.799 Y117.274 E4.21204
G2 X110.625 Y112.617 I-1.788 J-2.265 E4.52722
G1 X110.688 Y112.4 E4.54035
G1 X119.296 Y112.4 E5.04131
G1 X119.362 Y112.611 E5.05416
G1 X119.056 Y112.822 E5.07579
G2 X118.230 Y115.888 I1.903 J2.157 E5.27130
M204 S2500
G1 E3.8713 F4800
;WIPE_START
G1 F5760
G1 X118.269 Y116.04 E3.74687
G1 X118.53 Y116.538 E3.3013
;WIPE_END
G1 E3.2713 F4800
G92 E0
G1 X118.523 Y116.998 F7200
G1 E2 F4800
M204 S2000
;TYPE:Gap fill
;WIDTH:0.201648
G1 F2113
G1 X118.766 Y117.35 E2.00705
M204 S2500
G1 X119.565 Y117.576 F7200
M204 S2000
;WIDTH:0.477061
G1 F2113
G1 X119.933 Y117.644 E2.02518
;WIDTH:0.384486
G1 X120.3 Y117.711 E2.03929
;WIDTH:0.330148
G1 X120.624 Y117.733 E2.0495
;WIDTH:0.259703
G2 X120.915 Y112.250 I0.357 J-2.730 E2.25982
;WIDTH:0.338191
G1 X120.3 Y112.289 E2.27978
;WIDTH:0.430768
G1 X119.933 Y112.356 E2.2959
;WIDTH:0.523346
G1 X119.565 Y112.424 E2.31604
M204 S2500
G1 X118.763 Y112.65 F7200
M204 S2000
;WIDTH:0.204238
G1 F2113
G1 X118.517 Y113.008 E2.32334
M204 S2500
G1 E.92334 F4800
;WIPE_START
G1 F5760
G1 X118.64 Y112.829 E.75121
G1 X118.763 Y112.65 E.57907
;WIPE_END
G1 E.32334 F4800
G92 E0
G1 X117.387 Y112.6 F7200
G1 E2 F4800
M204 S2000
;TYPE:Solid infill
;WIDTH:0.58656
G1 F2113
G1 X118.119 Y113.332 E2.06343
G1 X117.864 Y113.822 E2.09727
G1 X116.867 Y112.825 E2.18367
G1 X116.123 Y112.825 E2.2293
G1 X117.716 Y114.418 E2.36738
G2 X117.672 Y115.118 I1.410 J0.440 E2.41062
G1 X115.378 Y112.825 E2.6094
G1 X114.634 Y112.825 E2.65503
G1 X117.824 Y116.016 E2.93158
G1 X117.869 Y116.193 E2.94277
G1 X118.154 Y116.736 E2.98038
G1 X117.945 Y116.88 E2.99596
G1 X113.889 Y112.825 E3.34748
G1 X113.145 Y112.825 E3.39311
G1 X117.495 Y117.175 E3.77018
G1 X116.751 Y117.175 E3.81581
G1 X112.4 Y112.825 E4.19288
G1 X111.936 Y112.825 E4.22135
G1 X111.948 Y112.84 E4.22256
G1 X111.794 Y112.963 E4.23463
G1 X116.006 Y117.175 E4.59972
G1 X115.262 Y117.175 E4.64535
G1 X112.181 Y114.095 E4.91234
G1 X112.238 Y114.258 E4.9229
G1 X112.319 Y114.977 E4.9673
G1 X114.517 Y117.175 E5.15779
G1 X113.772 Y117.175 E5.20342
G1 X112.248 Y115.651 E5.33552
G3 X112.071 Y116.219 I-1.316 J-0.099 E5.37207
G1 X113.028 Y117.175 E5.45498
G1 X112.283 Y117.175 E5.50061
G1 X111.66 Y116.552 E5.55463
M204 S2500
G1 X111.29 Y117.179 F7200
M204 S2000
;TYPE:Gap fill
;WIDTH:0.155254
G1 F2113
G1 X111.153 Y117.35 E5.55706
M204 S2500
G1 X110.34 Y117.297 F7200
M204 S2000
;WIDTH:0.473012
G1 F2113
G1 X110.193 Y117.619 E5.57411
G1 X109.907 Y117.668 E5.58805
;WIDTH:0.375799
G1 X109.621 Y117.717 E5.59872
;WIDTH:0.320517
G1 X109.326 Y117.735 E5.60767
;WIDTH:0.262679
G3 X109.061 Y112.251 I-0.324 J-2.733 E5.82068
;WIDTH:0.326346
G1 X109.618 Y112.283 E5.83798
;WIDTH:0.423981
G1 X109.906 Y112.332 E5.85033
;WIDTH:0.521615
G1 X110.193 Y112.381 E5.86599
G1 X110.207 Y112.409 E5.86768
;WIDTH:0.442218
G1 X110.34 Y112.703 E5.88205
M204 S2500
G1 X111.153 Y112.65 F7200
M204 S2000
;WIDTH:0.155254
G1 F2113
G1 X111.29 Y112.821 E5.88448
M204 S2500
;LAYER_CHANGE
;Z:0.48
;HEIGHT:0.2
; BEFORE_LAYER_CHANGE 1 @ 0.48mm
G1 E4.48448 F4800
;WIPE_START
G1 F5760
G1 X111.153 Y112.65 E4.31084
;WIPE_END
G1 E3.88448 F4800
G92 E0
G1 Z.48 F7200
; AFTER_LAYER_CHANGE 1 @ 0.48mm
M104 S190 ; set temperature
G1 X105.896 Y112.869
G1 E2 F4800
;TYPE:External perimeter
;WIDTH:0.45
G1 F2378
G1 X106.533 Y112.165 E2.03213
G1 X107.241 Y111.677 E2.06126
G1 X108.087 Y111.356 E2.09188
G1 X109 Y111.245 E2.12301
G1 X120.972 Y111.245 E2.52823
G3 X121.819 Y118.659 I-0.014 J3.757 E2.89853
G1 X120.972 Y118.755 E2.9274
G1 X109 Y118.755 E3.33262
G1 X108.087 Y118.644 E3.36375
G1 X107.241 Y118.323 E3.39438
G1 X106.497 Y117.809 E3.425
G1 X105.897 Y117.132 E3.45563
G1 X105.476 Y116.331 E3.48626
G1 X105.26 Y115.452 E3.51688
G1 X105.26 Y114.548 E3.54751
G1 X105.476 Y113.669 E3.57814
G1 X105.868 Y112.922 E3.60669
G1 X106.294 Y112.904 F7200
G1 X106.212 Y113.09
;TYPE:Perimeter
;WIDTH:0.4
G1 F2378
G1 X106.787 Y112.455 E3.63212
G1 X107.42 Y112.018 E3.65497
G1 X108.179 Y111.73 E3.67908
G1 X109.023 Y111.627 E3.70432
G1 X120.95 Y111.627 E4.05845
G3 X123.619 Y117.101 I-0.004 J3.390 E4.28346
G3 X120.950 Y118.373 I-2.667 J-2.161 E4.37408
G1 X109.023 Y118.373 E4.7282
G1 X108.179 Y118.27 E4.75345
G3 X106.184 Y113.143 I0.805 J-3.265 E4.94444
G1 X106.507 Y113.296 F7200
G1 F2378
G3 X109.045 Y111.984 I2.518 J1.760 E5.03249
G1 X120.93 Y111.984 E5.38537
G3 X123.697 Y116.306 I0.003 J3.045 E5.56708
G3 X120.930 Y118.016 I-2.744 J-1.346 E5.66876
G1 X109.045 Y118.016 E6.02164
G3 X107.587 Y117.664 I-0.013 J-3.141 E6.06649
G3 X106.479 Y113.349 I1.388 J-2.656 E6.21530
G1 E4.8153 F4800
;WIPE_START
G1 F5760
G1 X106.953 Y112.806 E4.2453
;WIPE_END
G1 E4.2153 F4800
G92 E0
G1 X109.374 Y116.703 F7200
G1 E2 F4800
;TYPE:External perimeter
;WIDTH:0.45
G1 F2378
G3 X109.743 Y116.574 I-0.388 J-1.703 E2.35735
G1 X109.431 Y116.683 E2.36856
G1 X109.258 Y117.078 F7200
G1 X109.424 Y117.082
;TYPE:Perimeter
;WIDTH:0.4
G1 F2378
G3 X109.910 Y116.920 I-0.424 J-2.082 E2.74999
G1 X109.482 Y117.07 E2.76346
G1 X109.47 Y117.436 F7200
G1 F2378
G3 X110.538 Y116.947 I-0.470 J-2.438 E3.19186
G3 X109.530 Y117.429 I-1.537 J-1.918 E3.22526
G1 E1.82526 F4800
;WIPE_START
G1 F5760
G3 X108.814 Y117.471 I-0.447 J-1.497 E1.25526
;WIPE_END
G1 E1.22526 F4800
G92 E0
G1 X119.371 Y115.655 F7200
G1 E2 F4800
;TYPE:External perimeter
;WIDTH:0.45
G1 F2378
G3 X119.827 Y116.307 I1.620 J-0.648 E2.34343
G3 X119.399 Y115.708 I1.001 J-1.168 E2.36856
G1 X118.975 Y115.597 F7200
G1 X118.992 Y115.738
;TYPE:Perimeter
;WIDTH:0.4
G1 F2378
G3 X119.572 Y116.596 I2.001 J-0.727 E2.73422
G3 X119.012 Y115.794 I1.350 J-1.539 E2.76347
G1 X118.648 Y115.833 F7200
G1 F2378
G3 X119.828 Y117.206 I2.344 J-0.821 E3.17210
G3 X118.663 Y115.891 I1.127 J-2.172 E3.22529
G1 E1.82529 F4800
;WIPE_START
G1 F5760
G1 X118.512 Y115.306 E1.3465
G1 X118.512 Y115.191 E1.25529
;WIPE_END
G1 E1.22529 F4800
G92 E0
G1 X119.431 Y117.103 F7200
G1 E2 F4800
;TYPE:Solid infill
;WIDTH:0.506476
G1 F2378
G1 X118.864 Y117.67 E2.03091
G1 X118.209 Y117.67 E2.05618
G1 X118.938 Y116.94 E2.09594
G1 X118.635 Y116.588 E2.11386
G1 X117.553 Y117.67 E2.17284
G1 X116.897 Y117.67 E2.1981
G1 X118.409 Y116.158 E2.28052
G3 X118.247 Y115.664 I0.960 J-0.588 E2.30065
G1 X116.242 Y117.67 E2.40998
G1 X115.586 Y117.67 E2.43524
G1 X118.166 Y115.09 E2.57588
G3 X118.239 Y114.361 I1.519 J-0.216 E2.60430
G1 X114.931 Y117.67 E2.78466
G1 X114.275 Y117.67 E2.80993
G1 X119.457 Y112.488 E3.09241
G1 X119.429 Y112.33 E3.09858
G1 X118.959 Y112.33 E3.11667
G1 X113.62 Y117.67 E3.40774
G1 X112.964 Y117.67 E3.43301
G1 X118.304 Y112.33 E3.72408
G1 X117.648 Y112.33 E3.74935
G1 X112.308 Y117.67 E4.04042
G1 X111.653 Y117.67 E4.06568
G1 X116.993 Y112.33 E4.35675
G1 X116.337 Y112.33 E4.38202
G1 X110.997 Y117.67 E4.67309
G1 X110.531 Y117.67 E4.69108
G1 X110.503 Y117.508 E4.69739
G1 X115.681 Y112.33 E4.97966
G1 X115.026 Y112.33 E5.00493
G1 X111.756 Y115.6 E5.18314
G1 X111.824 Y115 E5.2064
G1 X111.811 Y114.889 E5.21071
G1 X114.37 Y112.33 E5.35019
G1 X113.715 Y112.33 E5.37545
G1 X111.733 Y114.312 E5.48348
G1 X111.563 Y113.826 E5.50331
G1 X113.059 Y112.33 E5.58486
G1 X112.404 Y112.33 E5.61012
G1 X111.32 Y113.414 E5.66919
G2 X111.026 Y113.052 I-0.921 J0.448 E5.68727
G1 X111.748 Y112.33 E5.7266
G1 X111.092 Y112.33 E5.75187
G1 X110.536 Y112.886 E5.78218
G1 X110.172 Y112.377 F7200
;TYPE:Gap fill
;WIDTH:0.409745
G1 F2378
G1 X109.799 Y112.314 E5.79371
;WIDTH:0.32433
G2 X109.323 Y112.266 I-0.450 J2.082 E5.80492
;WIDTH:0.249054
G2 X107.172 Y112.939 I-0.324 J2.738 E5.84463
;WIDTH:0.192467
G2 X109.061 Y117.750 I1.817 J2.063 E5.92807
;WIDTH:0.247999
G1 X109.619 Y117.717 E5.93761
;WIDTH:0.325834
G1 X109.988 Y117.654 E5.9464
;WIDTH:0.409746
G1 X110.172 Y117.623 E5.95209
G1 E4.55209 F4800
;WIPE_START
G1 F5760
G3 X109.460 Y117.727 I-0.847 J-3.308 E3.98209
;WIPE_END
G1 E3.95209 F4800
G92 E0
G1 X119.79 Y117.618 F7200
G1 E2 F4800
;WIDTH:0.414793
G1 F2378
G1 X119.96 Y117.649 E2.00536
;WIDTH:0.334794
G1 X120.301 Y117.711 E2.01378
;WIDTH:0.252189
G1 X120.915 Y117.75 E2.02448
;WIDTH:0.20056
G2 X121.562 Y112.314 I0.071 J-2.748 E2.13076
;WIDTH:0.252186
G2 X120.623 Y112.267 I-0.619 J2.959 E2.14715
;WIDTH:0.334794
G2 X120.131 Y112.320 I-0.010 J2.220 E2.15919
;WIDTH:0.414794
G1 X119.79 Y112.382 E2.16991
M106 S255
;LAYER_CHANGE
;Z:0.68
;HEIGHT:0.2
; BEFORE_LAYER_CHANGE 2 @ 0.68mm
G1 E.76991 F4800
;WIPE_START
G1 F5760
G3 X120.501 Y112.275 I0.839 J3.161 E0.19991
;WIPE_END
G1 E.16991 F4800
G92 E0
G1 Z.68 F7200
; AFTER_LAYER_CHANGE 2 @ 0.68mm
G1 X105.897 Y112.868
G1 E2 F4800
;TYPE:External perimeter
;WIDTH:0.45
G1 F2365
G1 X106.497 Y112.191 E2.03063
G1 X107.241 Y111.677 E2.06125
G1 X108.087 Y111.356 E2.09188
G1 X109 Y111.245 E2.12301
G1 X120.972 Y111.245 E2.52823
G3 X120.972 Y118.755 I0.005 J3.755 E2.92747
G1 X109 Y118.755 E3.33269
G1 X108.087 Y118.644 E3.36382
G1 X107.241 Y118.323 E3.39444
G1 X106.497 Y117.809 E3.42507
G1 X105.897 Y117.132 E3.4557
G1 X105.476 Y116.331 E3.48632
G1 X105.26 Y115.452 E3.51695
G1 X105.26 Y114.548 E3.54758
G1 X105.476 Y113.669 E3.5782
G1 X105.869 Y112.921 E3.6068
G1 X106.295 Y112.9 F7200
G1 X106.213 Y113.087
;TYPE:Perimeter
;WIDTH:0.4
G1 F2365
G3 X108.179 Y111.730 I2.774 J1.916 E3.67913
G1 X109.023 Y111.627 E3.70437
G1 X120.95 Y111.627 E4.05849
G3 X120.950 Y118.373 I0.015 J3.373 E4.37419
G1 X109.023 Y118.373 E4.72831
G1 X108.179 Y118.27 E4.75356
G3 X106.185 Y113.140 I0.805 J-3.265 E4.94465
G1 X106.509 Y113.291 F7200
G1 F2365
G3 X108.265 Y112.079 I2.475 J1.708 E5.00926
G1 X109.045 Y111.984 E5.03257
G1 X120.93 Y111.984 E5.38546
G3 X120.930 Y118.016 I0.049 J3.016 E5.66891
G1 X109.045 Y118.016 E6.02179
G3 X107.587 Y117.664 I-0.013 J-3.141 E6.06664
G3 X106.481 Y113.344 I1.389 J-2.657 E6.21561
G1 E4.81561 F4800
;WIPE_START
G1 F5760
G1 X106.949 Y112.796 E4.24561
;WIPE_END
G1 E4.21561 F4800
G92 E0
G1 X109.374 Y116.703 F7200
G1 E2 F4800
;TYPE:External perimeter
;WIDTH:0.45
G1 F2365
G3 X109.743 Y116.574 I-0.388 J-1.703 E2.35738
G1 X109.431 Y116.683 E2.36859
G1 X109.258 Y117.078 F7200
G1 X109.424 Y117.082
;TYPE:Perimeter
;WIDTH:0.4
G1 F2365
G3 X109.910 Y116.920 I-0.424 J-2.082 E2.75004
G1 X109.482 Y117.07 E2.7635
G1 X109.47 Y117.436 F7200
G1 F2365
G3 X110.538 Y116.947 I-0.471 J-2.439 E3.19193
G3 X109.530 Y117.429 I-1.537 J-1.918 E3.22533
G1 E1.82533 F4800
;WIPE_START
G1 F5760
G3 X108.814 Y117.471 I-0.447 J-1.497 E1.25533
;WIPE_END
G1 E1.22533 F4800
G92 E0
G1 X119.369 Y115.652 F7200
G1 E2 F4800
;TYPE:External perimeter
;WIDTH:0.45
G1 F2365
G3 X119.548 Y115.992 I1.621 J-0.636 E2.35757
G1 X119.397 Y115.705 E2.36855
G1 X118.973 Y115.593 F7200
G1 X118.983 Y115.718
;TYPE:Perimeter
;WIDTH:0.4
G1 F2365
G3 X119.572 Y116.596 I2.008 J-0.710 E2.73357
G3 X119.002 Y115.774 I1.379 J-1.565 E2.76347
G1 X118.638 Y115.81 F7200
G1 F2365
G3 X119.828 Y117.206 I2.355 J-0.803 E3.17135
G3 X118.652 Y115.869 I1.147 J-2.195 E3.22529
G1 E1.82529 F4800
;WIPE_START
G1 F5760
G1 X118.512 Y115.3 E1.3619
G1 X118.512 Y115.166 E1.25529
;WIPE_END
G1 E1.22529 F4800
G92 E0
G1 X119.79 Y117.618 F7200
G1 E2 F4800
;TYPE:Gap fill
;WIDTH:0.414793
G1 F2365
G1 X120.131 Y117.68 E2.01072
;WIDTH:0.334793
G2 X120.623 Y117.733 I0.482 J-2.167 E2.02276
;WIDTH:0.252188
G1 X120.989 Y117.75 E2.02913
;WIDTH:0.201811
G2 X120.915 Y112.250 I-0.004 J-2.750 E2.14389
;WIDTH:0.252186
G1 X120.301 Y112.289 E2.15459
;WIDTH:0.334794
G1 X119.96 Y112.351 E2.16301
;WIDTH:0.414792
G1 X119.79 Y112.382 E2.16837
G1 X119.431 Y112.897 F7200
;TYPE:Solid infill
;WIDTH:0.506476
G1 F2365
G1 X118.864 Y112.33 E2.19928
G1 X118.209 Y112.33 E2.22455
G1 X118.938 Y113.06 E2.26431
G1 X118.635 Y113.412 E2.28223
G1 X117.553 Y112.33 E2.34121
G1 X116.897 Y112.33 E2.36647
G1 X118.409 Y113.842 E2.44889
