; generated by PrusaSlicer 2.5.2+win64 on 2024-05-13 at 16:03:11 UTC
; Postprocessed by [ArcWelder](https://github.com/FormerLurker/ArcWelderLib)
; Copyright(C) 2021 - Brad Hochgesang
; Version: 1.2.0, Branch: HEAD, BuildDate: 2021-11-21T20:25:43Z
; resolution=0.05mm
; path_tolerance=5.0%
; max_radius=9999.00mm
; default_xyz_precision=3
; default_e_precision=5
; extrusion_rate_variance_percent=5.0%


; 

; external perimeters extrusion width = 0.45mm
; perimeters extrusion width = 0.40mm
; infill extrusion width = 0.45mm
; solid infill extrusion width = 0.50mm
; top infill extrusion width = 0.45mm
; first layer extrusion width = 0.56mm

M201 X2500 Y2500 Z800 E2500 ; sets maximum accelerations, mm/sec^2
M203 X300 Y250 Z8 E80 ; sets maximum feedrates, mm / sec
M204 P2500 R2500 T2500 ; sets acceleration (P, T) and retract acceleration (R), mm/sec^2
M205 X15.00 Y10.00 Z2.00 E10.00 ; sets the jerk limits, mm/sec
M205 S0 T0 ; sets the minimum extruding and travel feed rate, mm/sec
M107
;TYPE:Custom
G90 ; use absolute coordinates
M83 ; extruder relative mode
M104 S215 ; set extruder temp
M140 S60 ; set bed temp
M190 S60 ; wait for bed temp
M109 S215 ; wait for extruder temp
G28                                        ; move X/Y/Z to min endstops
G1 Z0.28                                   ; lift nozzle a bit 
G92 E0 
G1 Y3 F1800                                    ; zero the extruded length 
G1 X60  E25 F500                       ; Extrude 25mm of filament in a 5cm line. 
G92 E0                                     ; zero the extruded length again 
G1 E-2 F500                                ; Retract a little 
G1 X70 F4000                              ; Quickly wipe away from the filament line
M117
G21 ; set units to millimeters
G90 ; use absolute coordinates
M82 ; use absolute distances for extrusion
G92 E0
M107
;LAYER_CHANGE
;Z:0.28
;HEIGHT:0.28
; BEFORE_LAYER_CHANGE 0 @ 0.28mm
G1 E-2 F4800
G92 E0
G1 Z.28 F7200
; AFTER_LAYER_CHANGE 0 @ 0.28mm
G1 X136.6 Y126.6
G1 E2 F4800
M204 S2000
;TYPE:External perimeter
;WIDTH:0.56
G1 F3000
G1 X93.4 Y126.6 E4.51402
G1 X93.4 Y103.4 E5.86414
G1 X136.6 Y103.4 E8.37816
G1 X136.6 Y126.54 E9.7248
M204 S2500
G1 X136.205 Y126.535 F7200
G1 X136.1 Y126.1
M204 S2000
;TYPE:Perimeter
G1 F3000
G1 X93.9 Y126.1 E12.18063
G1 X93.9 Y103.9 E13.47257
G1 X136.1 Y103.9 E15.92841
G1 X136.1 Y126.04 E17.21685
M204 S2500
G1 X135.6 Y125.6 F7200
M204 S2000
G1 F3000
G1 X94.4 Y125.6 E19.6145
G1 X94.4 Y104.4 E20.84826
G1 X135.6 Y104.4 E23.24591
G1 X135.6 Y125.54 E24.47617
M204 S2500
G1 E23.07617 F4800
;WIPE_START
G1 F5760
G1 X134.88 Y125.541 E22.50617
;WIPE_END
G1 E22.47617 F4800
G92 E0
G1 X134.386 Y104.6 F7200
G1 E2 F4800
M204 S2000
;TYPE:Solid infill
;WIDTH:0.561572
G1 F3000
G1 X135.175 Y105.389 E2.06513
G1 X135.175 Y106.098 E2.10653
G1 X133.902 Y104.825 E2.21165
G1 X133.193 Y104.825 E2.25305
G1 X135.175 Y106.807 E2.41671
G1 X135.175 Y107.516 E2.45811
G1 X132.484 Y104.825 E2.68033
G1 X131.774 Y104.825 E2.72173
G1 X135.175 Y108.226 E3.00249
G1 X135.175 Y108.935 E3.04389
G1 X131.065 Y104.825 E3.38321
G1 X130.356 Y104.825 E3.42461
G1 X135.175 Y109.644 E3.82248
G1 X135.175 Y110.353 E3.86388
G1 X129.647 Y104.825 E4.3203
G1 X128.938 Y104.825 E4.3617
G1 X135.175 Y111.062 E4.87667
G1 X135.175 Y111.772 E4.91807
G1 X128.228 Y104.825 E5.49159
G1 X127.519 Y104.825 E5.53299
G1 X135.175 Y112.481 E6.16506
G1 X135.175 Y113.19 E6.20646
G1 X126.81 Y104.825 E6.89708
G1 X126.101 Y104.825 E6.93849
G1 X135.175 Y113.899 E7.68766
G1 X135.175 Y114.608 E7.72906
G1 X125.392 Y104.825 E8.53678
G1 X124.682 Y104.825 E8.57819
G1 X135.175 Y115.318 E9.44446
G1 X135.175 Y116.027 E9.48586
G1 X123.973 Y104.825 E10.41069
G1 X123.264 Y104.825 E10.45209
G1 X135.175 Y116.736 E11.43547
G1 X135.175 Y117.445 E11.47687
G1 X122.555 Y104.825 E12.5188
G1 X121.846 Y104.825 E12.5602
G1 X135.175 Y118.154 E13.66068
G1 X135.175 Y118.864 E13.70208
G1 X121.136 Y104.825 E14.86111
G1 X120.427 Y104.825 E14.90251
G1 X135.175 Y119.573 E16.12009
G1 X135.175 Y120.282 E16.16149
G1 X119.718 Y104.825 E17.43763
G1 X119.009 Y104.825 E17.47903
G1 X135.175 Y120.991 E18.81371
G1 X135.175 Y121.7 E18.85511
G1 X118.3 Y104.825 E20.24835
G1 X117.59 Y104.825 E20.28975
G1 X135.175 Y122.41 E21.74153
G1 X135.175 Y123.119 E21.78293
G1 X116.881 Y104.825 E23.29327
G1 X116.172 Y104.825 E23.33467
G1 X135.175 Y123.828 E24.90356
G1 X135.175 Y124.537 E24.94496
G1 X115.463 Y104.825 E26.5724
G1 X114.754 Y104.825 E26.6138
G1 X135.104 Y125.175 E28.29392
G1 X134.395 Y125.175 E28.33532
G1 X114.044 Y104.825 E30.01543
G1 X113.335 Y104.825 E30.05683
G1 X133.686 Y125.175 E31.73695
G1 X132.977 Y125.175 E31.77835
G1 X112.626 Y104.825 E33.45847
G1 X111.917 Y104.825 E33.49987
G1 X132.267 Y125.175 E35.17998
G1 X131.558 Y125.175 E35.22138
G1 X111.208 Y104.825 E36.9015
G1 X110.498 Y104.825 E36.9429
G1 X130.849 Y125.175 E38.62302
G1 X130.14 Y125.175 E38.66442
G1 X109.789 Y104.825 E40.34453
G1 X109.08 Y104.825 E40.38593
G1 X129.43 Y125.175 E42.06605
G1 X128.721 Y125.175 E42.10745
G1 X108.371 Y104.825 E43.78757
G1 X107.662 Y104.825 E43.82897
G1 X128.012 Y125.175 E45.50908
G1 X127.303 Y125.175 E45.55048
G1 X106.952 Y104.825 E47.2306
G1 X106.243 Y104.825 E47.272
G1 X126.594 Y125.175 E48.95212
G1 X125.884 Y125.175 E48.99352
G1 X105.534 Y104.825 E50.67363
G1 X104.825 Y104.825 E50.71503
G1 X125.175 Y125.175 E52.39515
G1 X124.466 Y125.175 E52.43655
G1 X104.116 Y104.825 E54.11667
G1 X103.406 Y104.825 E54.15807
G1 X123.757 Y125.175 E55.83818
G1 X123.048 Y125.175 E55.87958
G1 X102.697 Y104.825 E57.5597
G1 X101.988 Y104.825 E57.6011
G1 X122.338 Y125.175 E59.28122
G1 X121.629 Y125.175 E59.32262
G1 X101.279 Y104.825 E61.00273
G1 X100.57 Y104.825 E61.04414
G1 X120.92 Y125.175 E62.72425
G1 X120.211 Y125.175 E62.76565
G1 X99.86 Y104.825 E64.44577
G1 X99.151 Y104.825 E64.48717
G1 X119.502 Y125.175 E66.16728
G1 X118.792 Y125.175 E66.20869
G1 X98.442 Y104.825 E67.8888
G1 X97.733 Y104.825 E67.9302
G1 X118.083 Y125.175 E69.61032
G1 X117.374 Y125.175 E69.65172
G1 X97.023 Y104.825 E71.33183
G1 X96.314 Y104.825 E71.37324
G1 X116.665 Y125.175 E73.05335
G1 X115.956 Y125.175 E73.09475
G1 X95.605 Y104.825 E74.77487
G1 X94.896 Y104.825 E74.81627
G1 X115.246 Y125.175 E76.49638
G1 X114.537 Y125.175 E76.53779
G1 X94.825 Y105.463 E78.16522
G1 X94.825 Y106.172 E78.20662
G1 X113.828 Y125.175 E79.77551
G1 X113.119 Y125.175 E79.81691
G1 X94.825 Y106.881 E81.32725
G1 X94.825 Y107.59 E81.36865
G1 X112.41 Y125.175 E82.82043
G1 X111.7 Y125.175 E82.86183
G1 X94.825 Y108.3 E84.25507
G1 X94.825 Y109.009 E84.29647
G1 X110.991 Y125.175 E85.63115
G1 X110.282 Y125.175 E85.67255
G1 X94.825 Y109.718 E86.94868
G1 X94.825 Y110.427 E86.99008
G1 X109.573 Y125.175 E88.20766
G1 X108.864 Y125.175 E88.24906
G1 X94.825 Y111.136 E89.40809
G1 X94.825 Y111.846 E89.44949
G1 X108.154 Y125.175 E90.54997
G1 X107.445 Y125.175 E90.59137
G1 X94.825 Y112.555 E91.6333
G1 X94.825 Y113.264 E91.6747
G1 X106.736 Y125.175 E92.65808
G1 X106.027 Y125.175 E92.69948
G1 X94.825 Y113.973 E93.6243
G1 X94.825 Y114.682 E93.66571
G1 X105.318 Y125.175 E94.53198
G1 X104.608 Y125.175 E94.57338
G1 X94.825 Y115.392 E95.3811
G1 X94.825 Y116.101 E95.4225
G1 X103.899 Y125.175 E96.17168
G1 X103.19 Y125.175 E96.21308
G1 X94.825 Y116.81 E96.9037
G1 X94.825 Y117.519 E96.9451
G1 X102.481 Y125.175 E97.57717
G1 X101.772 Y125.175 E97.61857
G1 X94.825 Y118.228 E98.19209
G1 X94.825 Y118.938 E98.23349
G1 X101.062 Y125.175 E98.74846
G1 X100.353 Y125.175 E98.78986
G1 X94.825 Y119.647 E99.24628
G1 X94.825 Y120.356 E99.28768
G1 X99.644 Y125.175 E99.68554
G1 X98.935 Y125.175 E99.72695
G1 X94.825 Y121.065 E100.06626
G1 X94.825 Y121.774 E100.10766
G1 X98.226 Y125.175 E100.38842
G1 X97.516 Y125.175 E100.42983
G1 X94.825 Y122.484 E100.65204
G1 X94.825 Y123.193 E100.69344
G1 X96.807 Y125.175 E100.8571
G1 X96.098 Y125.175 E100.8985
G1 X94.825 Y123.902 E101.00361
G1 X94.825 Y124.611 E101.04501
G1 X95.614 Y125.4 E101.11015
M204 S2500
;LAYER_CHANGE
;Z:0.48
;HEIGHT:0.2
; BEFORE_LAYER_CHANGE 1 @ 0.48mm
G1 E99.71015 F4800
;WIPE_START
G1 F5760
G1 X95.105 Y124.891 E99.14015
;WIPE_END
G1 E99.11015 F4800
G92 E0
G1 Z.48 F7200
; AFTER_LAYER_CHANGE 1 @ 0.48mm
M104 S190 ; set temperature
G1 X136.755 Y126.755
G1 E2 F4800
;TYPE:External perimeter
;WIDTH:0.45
G1 X93.245 Y126.755 E3.47276
G1 X93.245 Y103.245 E4.26855
G1 X136.755 Y103.245 E5.74131
G1 X136.755 Y126.695 E6.53506
G1 X136.36 Y126.689 F7200
G1 X136.373 Y126.373
;TYPE:Perimeter
;WIDTH:0.4
G1 F9000
G1 X93.627 Y126.373 E7.80424
G1 X93.627 Y103.627 E8.4796
G1 X136.373 Y103.627 E9.74878
G1 X136.373 Y126.313 E10.42235
G1 X136.016 Y126.016 F7200
G1 F9000
G1 X93.984 Y126.016 E11.67032
G1 X93.984 Y103.984 E12.32447
G1 X136.016 Y103.984 E13.57245
G1 X136.016 Y125.956 E14.22482
G1 E12.82482 F4800
;WIPE_START
G1 F5760
G1 X135.296 Y125.957 E12.25482
;WIPE_END
G1 E12.22482 F4800
G92 E0
G1 X135.876 Y124.948 F7200
G1 E2 F4800
;TYPE:Solid infill
;WIDTH:0.501771
G1 F9000
G1 X135.153 Y125.67 E2.03896
G1 X134.505 Y125.67 E2.06372
G1 X135.67 Y124.505 E2.12659
G1 X135.67 Y123.856 E2.15135
G1 X133.856 Y125.67 E2.24924
G1 X133.207 Y125.67 E2.274
G1 X135.67 Y123.207 E2.4069
G1 X135.67 Y122.558 E2.43166
G1 X132.558 Y125.67 E2.59958
G1 X131.909 Y125.67 E2.62433
G1 X135.67 Y121.909 E2.82726
G1 X135.67 Y121.26 E2.85202
G1 X131.26 Y125.67 E3.08997
G1 X130.611 Y125.67 E3.11472
G1 X135.67 Y120.611 E3.38768
G1 X135.67 Y119.962 E3.41244
G1 X129.962 Y125.67 E3.72041
G1 X129.313 Y125.67 E3.74517
G1 X135.67 Y119.313 E4.08815
G1 X135.67 Y118.664 E4.11291
G1 X128.664 Y125.67 E4.49091
G1 X128.015 Y125.67 E4.51567
G1 X135.67 Y118.015 E4.92868
G1 X135.67 Y117.367 E4.95344
G1 X127.367 Y125.67 E5.40146
G1 X126.718 Y125.67 E5.42622
G1 X135.67 Y116.718 E5.90926
G1 X135.67 Y116.069 E5.93402
G1 X126.069 Y125.67 E6.45207
G1 X125.42 Y125.67 E6.47683
G1 X135.67 Y115.42 E7.02989
G1 X135.67 Y114.771 E7.05465
G1 X124.771 Y125.67 E7.64273
G1 X124.122 Y125.67 E7.66749
G1 X135.67 Y114.122 E8.29058
G1 X135.67 Y113.473 E8.31534
G1 X123.473 Y125.67 E8.97345
G1 X122.824 Y125.67 E8.99821
G1 X135.67 Y112.824 E9.69133
G1 X135.67 Y112.175 E9.71609
G1 X122.175 Y125.67 E10.44422
G1 X121.526 Y125.67 E10.46898
G1 X135.67 Y111.526 E11.23213
G1 X135.67 Y110.877 E11.25689
G1 X120.877 Y125.67 E12.05505
G1 X120.228 Y125.67 E12.07981
G1 X135.67 Y110.228 E12.91298
G1 X135.67 Y109.58 E12.93774
G1 X119.58 Y125.67 E13.80593
G1 X118.931 Y125.67 E13.83069
G1 X135.67 Y108.931 E14.73389
G1 X135.67 Y108.282 E14.75865
G1 X118.282 Y125.67 E15.69687
G1 X117.633 Y125.67 E15.72162
G1 X135.67 Y107.633 E16.69485
G1 X135.67 Y106.984 E16.71961
G1 X116.984 Y125.67 E17.72786
G1 X116.335 Y125.67 E17.75261
G1 X135.67 Y106.335 E18.79587
G1 X135.67 Y105.686 E18.82063
G1 X115.686 Y125.67 E19.8989
G1 X115.037 Y125.67 E19.92366
G1 X135.67 Y105.037 E21.03694
G1 X135.67 Y104.388 E21.0617
G1 X114.388 Y125.67 E22.21
G1 X113.739 Y125.67 E22.23476
G1 X135.079 Y104.33 E23.38619
G1 X134.43 Y104.33 E23.41095
G1 X113.09 Y125.67 E24.56238
G1 X112.442 Y125.67 E24.58714
G1 X133.781 Y104.33 E25.73857
G1 X133.132 Y104.33 E25.76333
G1 X111.793 Y125.67 E26.91476
G1 X111.144 Y125.67 E26.93952
G1 X132.483 Y104.33 E28.09096
G1 X131.834 Y104.33 E28.11571
G1 X110.495 Y125.67 E29.26715
G1 X109.846 Y125.67 E29.2919
G1 X131.186 Y104.33 E30.44334
G1 X130.537 Y104.33 E30.4681
G1 X109.197 Y125.67 E31.61953
G1 X108.548 Y125.67 E31.64429
G1 X129.888 Y104.33 E32.79572
G1 X129.239 Y104.33 E32.82048
G1 X107.899 Y125.67 E33.97191
G1 X107.25 Y125.67 E33.99667
G1 X128.59 Y104.33 E35.1481
G1 X127.941 Y104.33 E35.17286
G1 X106.601 Y125.67 E36.32429
G1 X105.952 Y125.67 E36.34905
G1 X127.292 Y104.33 E37.50048
G1 X126.643 Y104.33 E37.52524
G1 X105.303 Y125.67 E38.67668
G1 X104.655 Y125.67 E38.70143
G1 X125.994 Y104.33 E39.85287
G1 X125.345 Y104.33 E39.87762
G1 X104.006 Y125.67 E41.02906
G1 X103.357 Y125.67 E41.05382
G1 X124.696 Y104.33 E42.20525
G1 X124.047 Y104.33 E42.23001
G1 X102.708 Y125.67 E43.38144
G1 X102.059 Y125.67 E43.4062
G1 X123.399 Y104.33 E44.55763
G1 X122.75 Y104.33 E44.58239
G1 X101.41 Y125.67 E45.73382
G1 X100.761 Y125.67 E45.75858
G1 X122.101 Y104.33 E46.91001
G1 X121.452 Y104.33 E46.93477
G1 X100.112 Y125.67 E48.0862
G1 X99.463 Y125.67 E48.11096
G1 X120.803 Y104.33 E49.2624
G1 X120.154 Y104.33 E49.28715
G1 X98.814 Y125.67 E50.43859
G1 X98.165 Y125.67 E50.46335
G1 X119.505 Y104.33 E51.61478
G1 X118.856 Y104.33 E51.63954
G1 X97.517 Y125.67 E52.79097
G1 X96.868 Y125.67 E52.81573
G1 X118.207 Y104.33 E53.96716
G1 X117.558 Y104.33 E53.99192
G1 X96.219 Y125.67 E55.14335
G1 X95.57 Y125.67 E55.16811
G1 X116.909 Y104.33 E56.31954
G1 X116.261 Y104.33 E56.3443
G1 X94.921 Y125.67 E57.49573
G1 X94.33 Y125.67 E57.51827
G1 X94.33 Y125.612 E57.52049
G1 X115.612 Y104.33 E58.66878
G1 X114.963 Y104.33 E58.69354
G1 X94.33 Y124.963 E59.80682
G1 X94.33 Y124.314 E59.83158
G1 X114.314 Y104.33 E60.90984
G1 X113.665 Y104.33 E60.9346
G1 X94.33 Y123.665 E61.97785
G1 X94.33 Y123.016 E62.00261
G1 X113.016 Y104.33 E63.01084
G1 X112.367 Y104.33 E63.0356
G1 X94.33 Y122.367 E64.00882
G1 X94.33 Y121.718 E64.03358
G1 X111.718 Y104.33 E64.97179
G1 X111.069 Y104.33 E64.99655
G1 X94.33 Y121.069 E65.89975
G1 X94.33 Y120.42 E65.9245
G1 X110.42 Y104.33 E66.79269
G1 X109.771 Y104.33 E66.81744
G1 X94.33 Y119.771 E67.65061
G1 X94.33 Y119.122 E67.67537
G1 X109.122 Y104.33 E68.47352
G1 X108.474 Y104.33 E68.49828
G1 X94.33 Y118.474 E69.26142
G1 X94.33 Y117.825 E69.28618
G1 X107.825 Y104.33 E70.01431
G1 X107.176 Y104.33 E70.03907
G1 X94.33 Y117.176 E70.73218
G1 X94.33 Y116.527 E70.75694
G1 X106.527 Y104.33 E71.41504
G1 X105.878 Y104.33 E71.4398
G1 X94.33 Y115.878 E72.06288
G1 X94.33 Y115.229 E72.08764
G1 X105.229 Y104.33 E72.67572
G1 X104.58 Y104.33 E72.70047
G1 X94.33 Y114.58 E73.25353
G1 X94.33 Y113.931 E73.27829
G1 X103.931 Y104.33 E73.79634
G1 X103.282 Y104.33 E73.82109
G1 X94.33 Y113.282 E74.30413
G1 X94.33 Y112.633 E74.32888
G1 X102.633 Y104.33 E74.7769
G1 X101.984 Y104.33 E74.80166
G1 X94.33 Y111.984 E75.21467
G1 X94.33 Y111.336 E75.23942
G1 X101.336 Y104.33 E75.61741
G1 X100.687 Y104.33 E75.64217
G1 X94.33 Y110.687 E75.98515
G1 X94.33 Y110.038 E76.00991
G1 X100.038 Y104.33 E76.31787
G1 X99.389 Y104.33 E76.34263
G1 X94.33 Y109.389 E76.61558
G1 X94.33 Y108.74 E76.64034
G1 X98.74 Y104.33 E76.87827
G1 X98.091 Y104.33 E76.90303
G1 X94.33 Y108.091 E77.10595
G1 X94.33 Y107.442 E77.13071
G1 X97.442 Y104.33 E77.29862
G1 X96.793 Y104.33 E77.32338
G1 X94.33 Y106.793 E77.45628
G1 X94.33 Y106.144 E77.48103
G1 X96.144 Y104.33 E77.57892
G1 X95.495 Y104.33 E77.60367
G1 X94.33 Y105.495 E77.66654
G1 X94.33 Y104.846 E77.6913
G1 X95.052 Y104.124 E77.73025
M106 S255
;LAYER_CHANGE
;Z:0.68
;HEIGHT:0.2
; BEFORE_LAYER_CHANGE 2 @ 0.68mm
G1 E76.33025 F4800
;WIPE_START
G1 F5760
G1 X94.543 Y104.634 E75.76025
;WIPE_END
G1 E75.73025 F4800
G92 E0
G1 Z.68 F7200
; AFTER_LAYER_CHANGE 2 @ 0.68mm
G1 X136.755 Y126.755
G1 E2 F4800
;TYPE:External perimeter
;WIDTH:0.45
G1 X93.245 Y126.755 E3.47276
G1 X93.245 Y103.245 E4.26855
G1 X136.755 Y103.245 E5.74131
G1 X136.755 Y126.695 E6.53506
G1 X136.36 Y126.689 F7200
G1 X136.373 Y126.373
;TYPE:Perimeter
;WIDTH:0.4
G1 F9000
G1 X93.627 Y126.373 E7.80424
G1 X93.627 Y103.627 E8.4796
G1 X136.373 Y103.627 E9.74878
G1 X136.373 Y126.313 E10.42235
G1 X136.016 Y126.016 F7200
G1 F9000
G1 X93.984 Y126.016 E11.67032
G1 X93.984 Y103.984 E12.32447
G1 X136.016 Y103.984 E13.57245
G1 X136.016 Y125.956 E14.22482
G1 E12.82482 F4800
;WIPE_START
G1 F5760
G1 X135.296 Y125.957 E12.25482
;WIPE_END
G1 E12.22482 F4800
G92 E0
G1 X134.948 Y104.124 F7200
G1 E2 F4800
;TYPE:Solid infill
;WIDTH:0.501771
G1 F9000
G1 X135.67 Y104.847 E2.03896
G1 X135.67 Y105.495 E2.06372
G1 X134.505 Y104.33 E2.12659
G1 X133.856 Y104.33 E2.15135
G1 X135.67 Y106.144 E2.24924
G1 X135.67 Y106.793 E2.274
G1 X133.207 Y104.33 E2.4069
G1 X132.558 Y104.33 E2.43166
G1 X135.67 Y107.442 E2.59958
G1 X135.67 Y108.091 E2.62433
G1 X131.909 Y104.33 E2.82726
G1 X131.26 Y104.33 E2.85202
G1 X135.67 Y108.74 E3.08997
G1 X135.67 Y109.389 E3.11472
G1 X130.611 Y104.33 E3.38768
G1 X129.962 Y104.33 E3.41244
G1 X135.67 Y110.038 E3.72041
G1 X135.67 Y110.687 E3.74517
G1 X129.313 Y104.33 E4.08815
