; generated by PrusaSlicer 2.5.2+win64 on 2024-05-21 at 17:54:04 UTC
; Postprocessed by [ArcWelder](https://github.com/FormerLurker/ArcWelderLib)
; Copyright(C) 2021 - Brad Hochgesang
; Version: 1.2.0, Branch: HEAD, BuildDate: 2021-11-21T20:25:43Z
; resolution=0.05mm
; path_tolerance=5.0%
; max_radius=9999.00mm
; default_xyz_precision=3
; default_e_precision=5
; extrusion_rate_variance_percent=5.0%


; 

; external perimeters extrusion width = 0.45mm
; perimeters extrusion width = 0.40mm
; infill extrusion width = 0.45mm
; solid infill extrusion width = 0.50mm
; top infill extrusion width = 0.45mm
; support material extrusion width = 0.42mm
; first layer extrusion width = 0.56mm

M201 X2500 Y2500 Z800 E2500 ; sets maximum accelerations, mm/sec^2
M203 X300 Y250 Z8 E80 ; sets maximum feedrates, mm / sec
M204 P2500 R2500 T2500 ; sets acceleration (P, T) and retract acceleration (R), mm/sec^2
M205 X15.00 Y10.00 Z2.00 E10.00 ; sets the jerk limits, mm/sec
M205 S0 T0 ; sets the minimum extruding and travel feed rate, mm/sec
M107
;TYPE:Custom
G90 ; use absolute coordinates
M83 ; extruder relative mode
M104 S215 ; set extruder temp
M140 S60 ; set bed temp
M190 S60 ; wait for bed temp
M109 S215 ; wait for extruder temp
G28                                        ; move X/Y/Z to min endstops
G1 Z0.28                                   ; lift nozzle a bit 
G92 E0 
G1 Y3 F1800                                    ; zero the extruded length 
G1 X60  E25 F500                       ; Extrude 25mm of filament in a 5cm line. 
G92 E0                                     ; zero the extruded length again 
G1 E-2 F500                                ; Retract a little 
G1 X70 F4000                              ; Quickly wipe away from the filament line
M117
G21 ; set units to millimeters
G90 ; use absolute coordinates
M82 ; use absolute distances for extrusion
G92 E0
M107
;LAYER_CHANGE
;Z:0.28
;HEIGHT:0.28
; BEFORE_LAYER_CHANGE 0 @ 0.28mm
G1 E-2 F4800
G92 E0
G1 Z.28 F7200
; AFTER_LAYER_CHANGE 0 @ 0.28mm
G1 X96.915 Y88.125
G1 E2 F4800
M204 S2000
;TYPE:Support material
;WIDTH:0.56
G1 F3000
G1 X96.915 Y88.379 E2.01476
G1 X97.18 Y88.379 E2.03015
G1 X99.792 Y90.886 E2.24087
G1 X99.792 Y91.256 E2.26241
G1 X100.178 Y91.256 E2.28486
G1 X102.669 Y93.647 E2.48579
G1 X102.669 Y94.133 E2.51411
G1 X103.177 Y94.133 E2.54363
G1 X105.547 Y96.407 E2.73476
G1 X105.547 Y97.01 E2.76986
G1 X106.175 Y97.01 E2.80644
G1 X108.424 Y99.168 E2.98778
G1 X108.424 Y99.887 E3.02966
G1 X109.174 Y99.887 E3.07331
G1 X114.178 Y104.689 E3.4769
G1 X114.178 Y105.642 E3.53234
G1 X115.171 Y105.642 E3.59012
G1 X117.055 Y107.45 E3.74208
G1 X117.055 Y110.363 E3.91166
G1 X116.787 Y110.232 E3.92905
G1 X116.322 Y110.057 E3.95791
G1 X115.843 Y109.93 E3.98679
G2 X110.446 Y117.213 I-1.039 J4.872 E4.64929
G1 X107.6 Y117.213 E4.81492
G1 X105.484 Y115.007 E4.99282
G1 X105.484 Y114.335 E5.03189
G1 X104.84 Y114.335 E5.06937
G1 X99.73 Y109.01 E5.49889
G1 X99.73 Y108.581 E5.52383
G1 X99.319 Y108.581 E5.54775
G1 X96.853 Y106.011 E5.75503
G1 X96.853 Y105.704 E5.7729
G1 X96.558 Y105.704 E5.79004
G1 X93.976 Y103.013 E6.00711
G1 X93.976 Y102.827 E6.01791
G1 X93.797 Y102.827 E6.02828
G1 X33.557 Y40.045 E11.09176
G1 X33.557 Y33.715 E11.46015
G1 X40.209 Y33.715 E11.84725
G1 X96.861 Y88.073 E16.41635
M204 S2500
G1 X116.568 Y109.908 F7200
M204 S2000
G1 F3000
G1 X116.568 Y107.606 E16.55035
G1 X116.012 Y107.073 E16.59515
G1 X116.012 Y109.509 E16.7369
G1 X115.457 Y109.411 E16.76972
G1 X115.457 Y106.54 E16.93681
G1 X114.99 Y106.091 E16.9745
G1 X114.901 Y106.091 E16.97963
G1 X114.901 Y109.372 E17.17055
G1 X114.346 Y109.402 E17.20292
G1 X114.346 Y106.091 E17.39559
G1 X113.791 Y106.091 E17.42791
G1 X113.791 Y109.473 E17.62468
G2 X113.235 Y109.609 I0.464 J3.102 E17.65800
G1 X113.235 Y104.408 E17.96067
G1 X112.68 Y103.875 E18.00547
G1 X112.68 Y109.81 E18.35084
G2 X112.124 Y110.083 I1.249 J3.246 E18.38689
G1 X112.124 Y103.342 E18.77915
G1 X111.569 Y102.809 E18.82395
G1 X111.569 Y110.44 E19.26806
G2 X111.013 Y110.920 I2.440 J3.388 E19.31082
G1 X111.013 Y102.276 E19.81389
G1 X110.458 Y101.743 E19.85869
G1 X110.458 Y111.547 E20.42921
G2 X109.902 Y112.465 I4.150 J3.141 E20.49174
G1 X109.902 Y101.21 E21.14671
G1 X109.347 Y100.677 E21.19151
G1 X109.347 Y116.763 E22.12761
G1 X108.791 Y116.763 E22.15993
G1 X108.791 Y100.337 E23.1158
G1 X108.236 Y100.337 E23.14813
G1 X108.236 Y116.763 E24.104
G1 X107.792 Y116.763 E24.12983
G1 X107.681 Y116.646 E24.13921
G1 X107.681 Y99.078 E25.16159
G1 X107.125 Y98.545 E25.20639
G1 X107.125 Y116.067 E26.22608
G1 X106.57 Y115.489 E26.27277
G1 X106.57 Y98.012 E27.2898
G1 X106.014 Y97.479 E27.3346
G1 X106.014 Y114.91 E28.34895
G1 X105.934 Y114.826 E28.35571
G1 X105.934 Y113.886 E28.41043
G1 X105.459 Y113.886 E28.43807
G1 X105.459 Y97.46 E29.39395
G1 X105.097 Y97.46 E29.41502
G1 X105.097 Y96.599 E29.46514
G1 X104.903 Y96.413 E29.48074
G1 X104.903 Y113.752 E30.48974
G1 X104.348 Y113.173 E30.53643
G1 X104.348 Y95.88 E31.54277
G1 X103.792 Y95.347 E31.58757
G1 X103.792 Y112.594 E32.59123
G1 X103.237 Y112.015 E32.63792
G1 X103.237 Y94.814 E33.63891
G1 X102.996 Y94.583 E33.65836
G1 X102.681 Y94.583 E33.67665
G1 X102.681 Y111.436 E34.65742
G1 X102.126 Y110.857 E34.70411
G1 X102.126 Y93.749 E35.69975
G1 X101.571 Y93.216 E35.74455
G1 X101.571 Y110.278 E36.73752
G1 X101.015 Y109.7 E36.78421
G1 X101.015 Y92.683 E37.77451
G1 X100.46 Y92.15 E37.81931
G1 X100.46 Y109.121 E38.80694
G1 X100.18 Y108.829 E38.83047
G1 X100.18 Y108.131 E38.87106
G1 X99.904 Y108.131 E38.88709
G1 X99.904 Y91.706 E39.84296
G1 X99.349 Y91.706 E39.87529
G1 X99.349 Y107.963 E40.82135
G1 X98.793 Y107.384 E40.86804
G1 X98.793 Y90.551 E41.84765
G1 X98.238 Y90.018 E41.89245
G1 X98.238 Y106.805 E42.86939
G1 X97.682 Y106.226 E42.91608
G1 X97.682 Y89.485 E43.89034
G1 X97.127 Y88.952 E43.93514
G1 X97.127 Y105.254 E44.88386
G1 X96.75 Y105.254 E44.90581
G1 X96.571 Y105.068 E44.9208
G1 X96.571 Y88.829 E45.86585
G1 X96.465 Y88.829 E45.87202
G1 X96.465 Y88.317 E45.90181
G1 X96.016 Y87.886 E45.93806
G1 X96.016 Y104.49 E46.9043
G1 X95.46 Y103.911 E46.95099
G1 X95.46 Y87.353 E47.91457
G1 X94.905 Y86.82 E47.95936
G1 X94.905 Y103.332 E48.92026
G1 X94.425 Y102.832 E48.96058
G1 X94.425 Y102.377 E48.98703
G1 X94.35 Y102.377 E48.99145
G1 X94.35 Y86.287 E49.92782
G1 X93.794 Y85.754 E49.97262
G1 X93.794 Y102.174 E50.92818
G1 X93.239 Y101.595 E50.97486
G1 X93.239 Y85.221 E51.92775
G1 X92.683 Y84.688 E51.97255
G1 X92.683 Y101.016 E52.92276
G1 X92.128 Y100.437 E52.96945
G1 X92.128 Y84.155 E53.91698
G1 X91.572 Y83.622 E53.96178
G1 X91.572 Y99.858 E54.90665
G1 X91.017 Y99.279 E54.95334
G1 X91.017 Y83.089 E55.89553
G1 X90.461 Y82.556 E55.94033
G1 X90.461 Y98.701 E56.87985
G1 X89.906 Y98.122 E56.92654
G1 X89.906 Y82.023 E57.86338
G1 X89.35 Y81.49 E57.90818
G1 X89.35 Y97.543 E58.84236
G1 X88.795 Y96.964 E58.88905
G1 X88.795 Y80.957 E59.82055
G1 X88.24 Y80.424 E59.86535
G1 X88.24 Y96.385 E60.79418
G1 X87.684 Y95.806 E60.84086
G1 X87.684 Y79.891 E61.76702
G1 X87.129 Y79.358 E61.81182
G1 X87.129 Y95.227 E62.7353
G1 X86.573 Y94.648 E62.78199
G1 X86.573 Y78.825 E63.7028
G1 X86.018 Y78.292 E63.7476
G1 X86.018 Y94.069 E64.66574
G1 X85.462 Y93.491 E64.71243
G1 X85.462 Y77.759 E65.6279
G1 X84.907 Y77.227 E65.67269
G1 X84.907 Y92.912 E66.58549
G1 X84.351 Y92.333 E66.63218
G1 X84.351 Y76.694 E67.5423
G1 X83.796 Y76.161 E67.58709
G1 X83.796 Y91.754 E68.49454
G1 X83.24 Y91.175 E68.54123
G1 X83.24 Y75.628 E69.44601
G1 X82.685 Y75.095 E69.49081
G1 X82.685 Y90.596 E70.39291
G1 X82.13 Y90.017 E70.4396
G1 X82.13 Y74.562 E71.33903
G1 X81.574 Y74.029 E71.38383
G1 X81.574 Y89.438 E72.28058
G1 X81.019 Y88.859 E72.32727
G1 X81.019 Y73.496 E73.22136
G1 X80.463 Y72.963 E73.26616
G1 X80.463 Y88.28 E74.15757
G1 X79.908 Y87.702 E74.20426
G1 X79.908 Y72.43 E75.093
G1 X79.352 Y71.897 E75.13779
G1 X79.352 Y87.123 E76.02386
G1 X78.797 Y86.544 E76.07055
G1 X78.797 Y71.364 E76.95394
G1 X78.241 Y70.831 E76.99874
G1 X78.241 Y85.965 E77.87946
G1 X77.686 Y85.386 E77.92615
G1 X77.686 Y70.298 E78.8042
G1 X77.13 Y69.765 E78.849
G1 X77.13 Y84.807 E79.72438
G1 X76.575 Y84.228 E79.77106
G1 X76.575 Y69.232 E80.64377
G1 X76.019 Y68.699 E80.68857
G1 X76.019 Y83.649 E81.5586
G1 X75.464 Y83.07 E81.60529
G1 X75.464 Y68.166 E82.47264
G1 X74.909 Y67.633 E82.51744
G1 X74.909 Y82.492 E83.38213
G1 X74.353 Y81.913 E83.42882
G1 X74.353 Y67.1 E84.29083
G1 X73.798 Y66.567 E84.33563
G1 X73.798 Y81.334 E85.19497
G1 X73.242 Y80.755 E85.24166
G1 X73.242 Y66.034 E86.09833
G1 X72.687 Y65.501 E86.14312
G1 X72.687 Y80.176 E86.99712
G1 X72.131 Y79.597 E87.04381
G1 X72.131 Y64.968 E87.89513
G1 X71.576 Y64.435 E87.93993
G1 X71.576 Y79.018 E88.78858
G1 X71.02 Y78.439 E88.83527
G1 X71.02 Y63.902 E89.68124
G1 X70.465 Y63.369 E89.72604
G1 X70.465 Y77.86 E90.56935
G1 X69.909 Y77.281 E90.61604
G1 X69.909 Y62.836 E91.45667
G1 X69.354 Y62.303 E91.50147
G1 X69.354 Y76.703 E92.33943
G1 X68.799 Y76.124 E92.38611
G1 X68.799 Y61.77 E93.2214
G1 X68.243 Y61.237 E93.2662
G1 X68.243 Y75.545 E94.09881
G1 X67.688 Y74.966 E94.1455
G1 X67.688 Y60.704 E94.97544
G1 X67.132 Y60.172 E95.02024
G1 X67.132 Y74.387 E95.84751
G1 X66.577 Y73.808 E95.8942
G1 X66.577 Y59.639 E96.71879
G1 X66.021 Y59.106 E96.76359
G1 X66.021 Y73.229 E97.58552
G1 X65.466 Y72.65 E97.6322
G1 X65.466 Y58.573 E98.45145
G1 X64.91 Y58.04 E98.49625
G1 X64.91 Y72.071 E99.31283
G1 X64.355 Y71.493 E99.35952
G1 X64.355 Y57.507 E100.17342
G1 X63.799 Y56.974 E100.21822
G1 X63.799 Y70.914 E101.02946
G1 X63.244 Y70.335 E101.07614
G1 X63.244 Y56.441 E101.8847
G1 X62.689 Y55.908 E101.9295
G1 X62.689 Y69.756 E102.73539
G1 X62.133 Y69.177 E102.78208
G1 X62.133 Y55.375 E103.58529
G1 X61.578 Y54.842 E103.63009
G1 X61.578 Y68.598 E104.43063
G1 X61.022 Y68.019 E104.47732
G1 X61.022 Y54.309 E105.27519
G1 X60.467 Y53.776 E105.31999
G1 X60.467 Y67.44 E106.11519
G1 X59.911 Y66.861 E106.16188
G1 X59.911 Y53.243 E106.9544
G1 X59.356 Y52.71 E106.9992
G1 X59.356 Y66.282 E107.78905
G1 X58.8 Y65.704 E107.83574
G1 X58.8 Y52.177 E108.62292
G1 X58.245 Y51.644 E108.66771
G1 X58.245 Y65.125 E109.45222
G1 X57.689 Y64.546 E109.49891
G1 X57.689 Y51.111 E110.28074
G1 X57.134 Y50.578 E110.32554
G1 X57.134 Y63.967 E111.1047
G1 X56.578 Y63.388 E111.15139
G1 X56.578 Y50.045 E111.92788
G1 X56.023 Y49.512 E111.97268
G1 X56.023 Y62.809 E112.74649
G1 X55.468 Y62.23 E112.79318
G1 X55.468 Y48.979 E113.56432
G1 X54.912 Y48.446 E113.60912
G1 X54.912 Y61.651 E114.37759
G1 X54.357 Y61.072 E114.42428
G1 X54.357 Y47.913 E115.19008
G1 X53.801 Y47.38 E115.23488
G1 X53.801 Y60.494 E115.998
G1 X53.246 Y59.915 E116.04469
G1 X53.246 Y46.847 E116.80514
G1 X52.69 Y46.314 E116.84994
G1 X52.69 Y59.336 E117.60772
G1 X52.135 Y58.757 E117.65441
G1 X52.135 Y45.781 E118.40952
G1 X51.579 Y45.248 E118.45431
G1 X51.579 Y58.178 E119.20675
G1 X51.024 Y57.599 E119.25344
G1 X51.024 Y44.715 E120.0032
G1 X50.468 Y44.182 E120.048
G1 X50.468 Y57.02 E120.79509
G1 X49.913 Y56.441 E120.84177
G1 X49.913 Y43.65 E121.58619
G1 X49.358 Y43.117 E121.63099
G1 X49.358 Y55.862 E122.37273
G1 X48.802 Y55.283 E122.41942
G1 X48.802 Y42.584 E123.15849
G1 X48.247 Y42.051 E123.20329
G1 X48.247 Y54.705 E123.93969
G1 X47.691 Y54.126 E123.98638
G1 X47.691 Y41.518 E124.7201
G1 X47.136 Y40.985 E124.7649
G1 X47.136 Y53.547 E125.49595
G1 X46.58 Y52.968 E125.54264
G1 X46.58 Y40.452 E126.27102
G1 X46.025 Y39.919 E126.31582
G1 X46.025 Y52.389 E127.04153
G1 X45.469 Y51.81 E127.08822
G1 X45.469 Y39.386 E127.81125
G1 X44.914 Y38.853 E127.85605
G1 X44.914 Y51.231 E128.57641
G1 X44.358 Y50.652 E128.6231
G1 X44.358 Y38.32 E129.34079
G1 X43.803 Y37.787 E129.38559
G1 X43.803 Y50.073 E130.10061
G1 X43.248 Y49.495 E130.1473
G1 X43.248 Y37.254 E130.85964
G1 X42.692 Y36.721 E130.90444
G1 X42.692 Y48.916 E131.61411
G1 X42.137 Y48.337 E131.6608
G1 X42.137 Y36.188 E132.3678
G1 X41.581 Y35.655 E132.4126
G1 X41.581 Y47.758 E133.11692
G1 X41.026 Y47.179 E133.16361
G1 X41.026 Y35.122 E133.86527
G1 X40.47 Y34.589 E133.91006
G1 X40.47 Y46.6 E134.60904
G1 X39.915 Y46.021 E134.65573
G1 X39.915 Y34.164 E135.34573
G1 X39.359 Y34.164 E135.37806
G1 X39.359 Y45.442 E136.03437
G1 X38.804 Y44.863 E136.08106
G1 X38.804 Y34.164 E136.70368
G1 X38.248 Y34.164 E136.73601
G1 X38.248 Y44.284 E137.32494
G1 X37.693 Y43.706 E137.37163
G1 X37.693 Y34.164 E137.92688
G1 X37.138 Y34.164 E137.9592
G1 X37.138 Y43.127 E138.48076
G1 X36.582 Y42.548 E138.52745
G1 X36.582 Y34.164 E139.01532
G1 X36.027 Y34.164 E139.04764
G1 X36.027 Y41.969 E139.50183
G1 X35.471 Y41.39 E139.54851
G1 X35.471 Y34.164 E139.96901
G1 X34.916 Y34.164 E140.00133
G1 X34.916 Y40.811 E140.38813
G1 X34.36 Y40.232 E140.43482
G1 X34.36 Y33.939 E140.80103
M204 S2500
G1 E139.40103 F4800
;WIPE_START
G1 F5760
G1 X34.36 Y34.659 E138.83103
;WIPE_END
G1 E138.80103 F4800
G92 E0
G1 X114.945 Y113.955 F7200
G1 E2 F4800
M204 S2000
G1 F3000
G3 X114.651 Y113.957 I-0.141 J0.851 E2.29776
G1 X114.87 Y113.95 E2.3105
M204 S2500
G1 X114.901 Y115.432 F7200
M204 S2000
G1 F3000
G1 X114.901 Y114.178 E2.38352
M204 S2500
G1 E.98352 F4800
;WIPE_START
G1 F5760
G1 X114.901 Y114.898 E.41352
;WIPE_END
G1 E.38352 F4800
G92 E0
G1 X131.44 Y121.252 F7200
G1 E2 F4800
M204 S2000
G1 F3000
G1 X131.44 Y122.904 E2.09611
G1 X133.161 Y122.904 E2.19627
G1 X134.317 Y124.013 E2.2895
G1 X134.317 Y125.781 E2.39239
G1 X136.16 Y125.781 E2.49962
G1 X137.194 Y126.774 E2.58305
G1 X137.194 Y128.658 E2.69272
G1 X139.158 Y128.658 E2.80701
G1 X140.072 Y129.534 E2.88065
G1 X140.072 Y131.535 E2.9971
G1 X142.157 Y131.535 E3.11846
G1 X151.58 Y140.577 E3.87843
G1 X151.58 Y143.044 E4.02199
G1 X154.151 Y143.044 E4.17161
G1 X154.457 Y143.337 E4.19629
G1 X154.457 Y145.921 E4.34663
G1 X157.149 Y145.921 E4.50332
G1 X160.211 Y148.858 E4.75025
G1 X160.211 Y151.675 E4.91415
G1 X163.088 Y151.675 E5.08158
G1 X163.088 Y154.552 E5.24901
G1 X166.145 Y154.552 E5.42689
G1 X168.842 Y157.14 E5.64445
G1 X168.842 Y160.306 E5.82868
G1 X171.719 Y160.306 E5.99612
G1 X171.719 Y163.183 E6.16355
G1 X174.596 Y163.183 E6.33098
G1 X174.596 Y166.06 E6.49841
G1 X178.139 Y166.06 E6.70455
G1 X180.351 Y168.183 E6.88295
G1 X180.351 Y171.814 E7.09429
G1 X184.136 Y171.814 E7.31456
G1 X186.105 Y173.704 E7.47338
G1 X186.105 Y177.172 E7.67519
G1 X184.684 Y178.592 E7.79212
G2 X178.592 Y184.684 I-1.306 J4.786 E8.39938
G1 X177.014 Y186.262 E8.52927
G1 X174.534 Y186.262 E8.6736
G1 X174.534 Y183.385 E8.84104
G1 X171.657 Y183.385 E9.00847
G1 X171.657 Y180.508 E9.1759
G1 X168.333 Y180.508 E9.36929
G1 X165.903 Y177.975 E9.57362
G1 X165.903 Y174.754 E9.76105
G1 X163.025 Y174.754 E9.92848
G1 X163.025 Y171.877 E10.09591
G1 X160.148 Y171.877 E10.26334
G1 X160.148 Y169 E10.43077
G1 X157.291 Y169 E10.59705
G1 X157.271 Y168.979 E10.59872
G1 X157.271 Y166.123 E10.76495
G1 X154.531 Y166.123 E10.92445
G1 X154.394 Y165.981 E10.9359
G1 X154.394 Y163.246 E11.09507
G1 X151.77 Y163.246 E11.24779
G1 X151.517 Y162.982 E11.26904
G1 X151.517 Y160.369 E11.42114
G1 X149.009 Y160.369 E11.56708
G1 X145.763 Y156.985 E11.83995
G1 X145.763 Y154.615 E11.97792
G1 X143.488 Y154.615 E12.1103
G1 X142.886 Y153.987 E12.16092
G1 X142.886 Y151.738 E12.29183
G1 X140.728 Y151.738 E12.41744
G1 X140.009 Y150.988 E12.47785
G1 X140.009 Y148.86 E12.60169
G1 X137.967 Y148.86 E12.72051
G1 X131.378 Y141.993 E13.27438
G1 X131.378 Y140.229 E13.37703
G1 X129.685 Y140.229 E13.47552
G1 X128.5 Y138.995 E13.57509
G1 X128.5 Y137.352 E13.67067
G1 X126.925 Y137.352 E13.76239
G1 X125.623 Y135.996 E13.87175
G1 X125.623 Y134.475 E13.96027
G1 X124.164 Y134.475 E14.0452
G1 X122.746 Y132.998 E14.16436
G1 X122.746 Y131.598 E14.24581
G1 X121.403 Y131.598 E14.32397
G1 X114.115 Y124.002 E14.93658
G1 X114.115 Y119.739 E15.18469
G2 X119.757 Y114.273 I0.699 J-4.923 E15.71162
G1 X124.166 Y114.273 E15.96822
G1 X131.386 Y121.201 E16.55053
M204 S2500
G1 E15.15053 F4800
;WIPE_START
G1 F5760
G1 X130.867 Y120.702 E14.58053
;WIPE_END
G1 E14.55053 F4800
G92 E0
G1 X185.445 Y177.514 F7200
G1 E2 F4800
M204 S2000
G1 F3000
G1 X185.445 Y173.694 E2.2223
G1 X184.889 Y173.161 E2.2671
G1 X184.889 Y177.751 E2.53423
G1 X184.547 Y178.093 E2.56237
G1 X184.334 Y178.042 E2.57514
G1 X184.334 Y172.628 E2.89023
G1 X183.955 Y172.264 E2.92079
