; generated by PrusaSlicer 2.5.2+win64 on 2024-05-21 at 17:52:22 UTC
; Postprocessed by [ArcWelder](https://github.com/FormerLurker/ArcWelderLib)
; Copyright(C) 2021 - Brad Hochgesang
; Version: 1.2.0, Branch: HEAD, BuildDate: 2021-11-21T20:25:43Z
; resolution=0.05mm
; path_tolerance=5.0%
; max_radius=9999.00mm
; default_xyz_precision=3
; default_e_precision=5
; extrusion_rate_variance_percent=5.0%


; 

; external perimeters extrusion width = 0.45mm
; perimeters extrusion width = 0.40mm
; infill extrusion width = 0.45mm
; solid infill extrusion width = 0.50mm
; top infill extrusion width = 0.45mm
; support material extrusion width = 0.42mm
; first layer extrusion width = 0.56mm

M201 X2500 Y2500 Z800 E2500 ; sets maximum accelerations, mm/sec^2
M203 X300 Y250 Z8 E80 ; sets maximum feedrates, mm / sec
M204 P2500 R2500 T2500 ; sets acceleration (P, T) and retract acceleration (R), mm/sec^2
M205 X15.00 Y10.00 Z2.00 E10.00 ; sets the jerk limits, mm/sec
M205 S0 T0 ; sets the minimum extruding and travel feed rate, mm/sec
M107
;TYPE:Custom
G90 ; use absolute coordinates
M83 ; extruder relative mode
M104 S215 ; set extruder temp
M140 S60 ; set bed temp
M190 S60 ; wait for bed temp
M109 S215 ; wait for extruder temp
G28                                        ; move X/Y/Z to min endstops
G1 Z0.28                                   ; lift nozzle a bit 
G92 E0 
G1 Y3 F1800                                    ; zero the extruded length 
G1 X60  E25 F500                       ; Extrude 25mm of filament in a 5cm line. 
G92 E0                                     ; zero the extruded length again 
G1 E-2 F500                                ; Retract a little 
G1 X70 F4000                              ; Quickly wipe away from the filament line
M117
G21 ; set units to millimeters
G90 ; use absolute coordinates
M82 ; use absolute distances for extrusion
G92 E0
M107
;LAYER_CHANGE
;Z:0.28
;HEIGHT:0.28
; BEFORE_LAYER_CHANGE 0 @ 0.28mm
G1 E-2 F4800
G92 E0
G1 Z.28 F7200
; AFTER_LAYER_CHANGE 0 @ 0.28mm
G1 X59.672 Y52.389
G1 E2 F4800
M204 S2000
;TYPE:Support material
;WIDTH:0.56
G1 F3000
G1 X59.672 Y53.695 E2.076
G1 X61.033 Y53.695 E2.1552
G1 X74.058 Y66.192 E3.20563
G1 X74.058 Y68.081 E3.31552
G1 X76.025 Y68.081 E3.43005
G1 X102.828 Y93.798 E5.59173
G1 X102.828 Y93.974 E5.60198
G1 X103.012 Y93.974 E5.61265
G1 X105.705 Y96.559 E5.8299
G1 X105.705 Y96.852 E5.84692
G1 X106.01 Y96.852 E5.86466
G1 X108.582 Y99.32 E6.07211
G1 X108.582 Y99.729 E6.09592
G1 X109.009 Y99.729 E6.12072
G1 X111.46 Y102.08 E6.31838
G1 X111.46 Y102.606 E6.34897
G1 X112.007 Y102.606 E6.38084
G1 X114.337 Y104.841 E6.56871
G1 X114.337 Y105.483 E6.60607
G1 X115.006 Y105.483 E6.645
G1 X117.214 Y107.601 E6.82308
G1 X117.214 Y110.442 E6.98839
G2 X110.358 Y117.054 I-2.409 J4.363 E7.72573
G1 X107.449 Y117.054 E7.89504
G1 X105.643 Y115.172 E8.04683
G1 X105.643 Y114.177 E8.10474
G1 X104.688 Y114.177 E8.1603
G1 X102.766 Y112.173 E8.32188
G1 X102.766 Y111.3 E8.37272
G1 X101.927 Y111.3 E8.4215
G1 X99.888 Y109.175 E8.59287
G1 X99.888 Y108.423 E8.63665
G1 X99.167 Y108.423 E8.67865
G1 X97.011 Y106.176 E8.85981
G1 X97.011 Y105.546 E8.89652
G1 X96.406 Y105.546 E8.93175
G1 X94.134 Y103.178 E9.1227
G1 X94.134 Y102.668 E9.15235
G1 X93.646 Y102.668 E9.18079
G1 X91.257 Y100.179 E9.38154
G1 X91.257 Y99.791 E9.40412
G1 X90.885 Y99.791 E9.42579
G1 X88.38 Y97.181 E9.63632
G1 X88.38 Y96.914 E9.65184
G1 X88.124 Y96.914 E9.66673
G1 X68.241 Y76.192 E11.33804
G1 X68.241 Y73.898 E11.47154
G1 X66.04 Y73.898 E11.59962
G1 X33.716 Y40.21 E14.31659
G1 X33.716 Y33.556 E14.70382
G1 X40.044 Y33.556 E15.07208
G1 X59.618 Y52.338 E16.65077
M204 S2500
G1 E15.25077 F4800
;WIPE_START
G1 F5760
G1 X59.098 Y51.839 E14.68077
;WIPE_END
G1 E14.65077 F4800
G92 E0
G1 X116.727 Y109.968 F7200
G1 E2 F4800
M204 S2000
G1 F3000
G1 X116.727 Y107.758 E2.12864
G1 X116.171 Y107.225 E2.17344
G1 X116.171 Y109.551 E2.3088
G2 X115.616 Y109.437 I-0.898 J2.962 E2.34183
G1 X115.616 Y106.692 E2.50159
G1 X115.06 Y106.159 E2.54638
G1 X115.06 Y109.382 E2.73395
G2 X114.505 Y109.392 I-0.233 J2.463 E2.76633
G1 X114.505 Y105.933 E2.96765
G1 X113.949 Y105.933 E2.99997
G1 X113.949 Y109.442 E3.20421
G1 X113.394 Y109.562 E3.23728
G1 X113.394 Y104.56 E3.52837
G1 X112.838 Y104.027 E3.57317
G1 X112.838 Y109.745 E3.90594
G2 X112.283 Y109.999 I1.127 J3.195 E3.94151
G1 X112.283 Y103.494 E4.32004
G1 X111.826 Y103.056 E4.35688
G1 X111.728 Y103.056 E4.36263
G1 X111.728 Y110.333 E4.78612
G2 X111.172 Y110.765 I2.043 J3.203 E4.82710
G1 X111.172 Y103.056 E5.27572
G1 X111.01 Y103.056 E5.28518
G1 X111.01 Y102.272 E5.33078
G1 X110.617 Y101.895 E5.36247
G1 X110.617 Y111.353 E5.91286
G2 X110.061 Y112.165 I3.191 J2.781 E5.97020
G1 X110.061 Y101.362 E6.59885
G1 X109.506 Y100.829 E6.64365
G1 X109.506 Y116.604 E7.56167
G1 X108.95 Y116.604 E7.59399
G1 X108.95 Y100.296 E8.54303
G1 X108.828 Y100.179 E8.55291
G1 X108.395 Y100.179 E8.5781
G1 X108.395 Y116.604 E9.53398
G1 X107.839 Y116.604 E9.5663
G1 X107.839 Y99.23 E10.57737
G1 X107.284 Y98.697 E10.62217
G1 X107.284 Y116.232 E11.64263
G1 X106.728 Y115.654 E11.68932
G1 X106.728 Y98.164 E12.70711
G1 X106.173 Y97.631 E12.75191
G1 X106.173 Y115.075 E13.76702
G1 X106.093 Y114.991 E13.77378
G1 X106.093 Y113.727 E13.84734
G1 X105.618 Y113.727 E13.87498
G1 X105.618 Y97.301 E14.83086
G1 X105.255 Y97.301 E14.85193
G1 X105.255 Y96.751 E14.88397
G1 X105.062 Y96.565 E14.89957
G1 X105.062 Y113.727 E15.89828
G1 X104.88 Y113.727 E15.90889
G1 X104.507 Y113.338 E15.94026
G1 X104.507 Y96.032 E16.94736
G1 X103.951 Y95.499 E16.99216
G1 X103.951 Y112.759 E17.99658
G1 X103.396 Y112.18 E18.04327
G1 X103.396 Y94.966 E19.04503
G1 X102.84 Y94.433 E19.08982
G1 X102.84 Y110.85 E20.04517
G1 X102.285 Y110.85 E20.0775
G1 X102.285 Y93.9 E21.06386
G1 X101.729 Y93.367 E21.10866
G1 X101.729 Y110.443 E22.1024
G1 X101.174 Y109.865 E22.14909
G1 X101.174 Y92.835 E23.14015
G1 X100.618 Y92.302 E23.18495
G1 X100.618 Y109.286 E24.17334
G1 X100.338 Y108.994 E24.19687
G1 X100.338 Y107.973 E24.2563
G1 X100.063 Y107.973 E24.27233
G1 X100.063 Y91.769 E25.21533
G1 X99.507 Y91.236 E25.26013
G1 X99.507 Y107.973 E26.23414
G1 X99.359 Y107.973 E26.24281
G1 X98.952 Y107.549 E26.27698
G1 X98.952 Y90.703 E27.25735
G1 X98.397 Y90.17 E27.30215
G1 X98.397 Y106.97 E28.27985
G1 X97.841 Y106.391 E28.32654
G1 X97.841 Y89.637 E29.30157
G1 X97.286 Y89.104 E29.34636
G1 X97.286 Y105.096 E30.27701
G1 X96.73 Y105.096 E30.30933
G1 X96.73 Y88.571 E31.271
G1 X96.175 Y88.038 E31.3158
G1 X96.175 Y104.655 E32.2828
G1 X95.619 Y104.076 E32.32949
G1 X95.619 Y87.505 E33.29383
G1 X95.064 Y86.972 E33.33863
G1 X95.064 Y103.497 E34.30029
G1 X94.584 Y102.997 E34.3406
G1 X94.584 Y102.219 E34.3859
G1 X94.508 Y102.219 E34.39032
G1 X94.508 Y86.439 E35.30861
G1 X93.953 Y85.906 E35.35341
G1 X93.953 Y102.219 E36.30272
G1 X93.837 Y102.219 E36.30945
G1 X93.397 Y101.76 E36.34642
G1 X93.397 Y85.373 E37.30007
G1 X92.842 Y84.84 E37.34487
G1 X92.842 Y101.181 E38.29584
G1 X92.287 Y100.602 E38.34253
G1 X92.287 Y84.307 E39.29083
G1 X91.731 Y83.774 E39.33563
G1 X91.731 Y100.023 E40.28126
G1 X91.707 Y99.998 E40.28327
G1 X91.707 Y99.341 E40.3215
G1 X91.176 Y99.341 E40.35243
G1 X91.176 Y83.241 E41.28939
G1 X90.62 Y82.708 E41.33419
G1 X90.62 Y98.866 E42.27448
G1 X90.065 Y98.287 E42.32116
G1 X90.065 Y82.175 E43.25877
G1 X89.509 Y81.642 E43.30357
G1 X89.509 Y97.708 E44.23851
G1 X88.954 Y97.129 E44.2852
G1 X88.954 Y81.109 E45.21746
G1 X88.398 Y80.576 E45.26226
G1 X88.398 Y96.464 E46.18687
G1 X88.316 Y96.464 E46.19165
G1 X87.843 Y95.971 E46.23144
G1 X87.843 Y80.043 E47.15836
G1 X87.287 Y79.51 E47.20315
G1 X87.287 Y95.392 E48.1274
G1 X86.732 Y94.813 E48.17409
G1 X86.732 Y78.977 E49.09566
G1 X86.177 Y78.444 E49.14046
G1 X86.177 Y94.234 E50.05936
G1 X85.621 Y93.656 E50.10605
G1 X85.621 Y77.911 E51.02228
G1 X85.066 Y77.378 E51.06708
G1 X85.066 Y93.077 E51.98064
G1 X84.51 Y92.498 E52.02732
G1 X84.51 Y76.845 E52.93821
G1 X83.955 Y76.313 E52.98301
G1 X83.955 Y91.919 E53.89122
G1 X83.399 Y91.34 E53.93791
G1 X83.399 Y75.78 E54.84345
G1 X82.844 Y75.247 E54.88824
G1 X82.844 Y90.761 E55.79111
G1 X82.288 Y90.182 E55.8378
G1 X82.288 Y74.714 E56.73799
G1 X81.733 Y74.181 E56.78279
G1 X81.733 Y89.603 E57.68031
G1 X81.177 Y89.024 E57.727
G1 X81.177 Y73.648 E58.62185
G1 X80.622 Y73.115 E58.66664
G1 X80.622 Y88.446 E59.55882
G1 X80.066 Y87.867 E59.60551
G1 X80.066 Y72.582 E60.49501
G1 X79.511 Y72.049 E60.53981
G1 X79.511 Y87.288 E61.42664
G1 X78.956 Y86.709 E61.47333
G1 X78.956 Y71.516 E62.35749
G1 X78.4 Y70.983 E62.40228
G1 X78.4 Y86.13 E63.28377
G1 X77.845 Y85.551 E63.33046
G1 X77.845 Y70.45 E64.20927
G1 X77.289 Y69.917 E64.25407
G1 X77.289 Y84.972 E65.13021
G1 X76.734 Y84.393 E65.1769
G1 X76.734 Y69.384 E66.05036
G1 X76.178 Y68.851 E66.09516
G1 X76.178 Y83.814 E66.96595
G1 X75.623 Y83.235 E67.01264
G1 X75.623 Y68.531 E67.86838
G1 X75.067 Y68.531 E67.90071
G1 X75.067 Y82.657 E68.72276
G1 X74.512 Y82.078 E68.76945
G1 X74.512 Y68.531 E69.55782
G1 X73.956 Y68.531 E69.59014
G1 X73.956 Y81.499 E70.34482
G1 X73.401 Y80.92 E70.3915
G1 X73.401 Y66.186 E71.24894
G1 X72.846 Y65.653 E71.29373
G1 X72.846 Y80.341 E72.14849
G1 X72.29 Y79.762 E72.19518
G1 X72.29 Y65.12 E73.04727
G1 X71.735 Y64.587 E73.09206
G1 X71.735 Y79.183 E73.94148
G1 X71.179 Y78.604 E73.98817
G1 X71.179 Y64.054 E74.83491
G1 X70.624 Y63.521 E74.8797
G1 X70.624 Y78.025 E75.72377
G1 X70.068 Y77.447 E75.77046
G1 X70.068 Y62.988 E76.61185
G1 X69.513 Y62.455 E76.65665
G1 X69.513 Y76.868 E77.49538
G1 X68.957 Y76.289 E77.54206
G1 X68.957 Y61.922 E78.37811
G1 X68.402 Y61.389 E78.42291
G1 X68.402 Y73.448 E79.12465
G1 X67.846 Y73.448 E79.15697
G1 X67.846 Y60.856 E79.88972
G1 X67.291 Y60.323 E79.93452
G1 X67.291 Y73.448 E80.69829
G1 X66.736 Y73.448 E80.73061
G1 X66.736 Y59.79 E81.5254
G1 X66.18 Y59.258 E81.5702
G1 X66.18 Y73.394 E82.39288
G1 X65.625 Y72.815 E82.43957
G1 X65.625 Y58.725 E83.25959
G1 X65.069 Y58.192 E83.30438
G1 X65.069 Y72.236 E84.12172
G1 X64.514 Y71.658 E84.16841
G1 X64.514 Y57.659 E84.98308
G1 X63.958 Y57.126 E85.02788
G1 X63.958 Y71.079 E85.83988
G1 X63.403 Y70.5 E85.88656
G1 X63.403 Y56.593 E86.69589
G1 X62.847 Y56.06 E86.74069
G1 X62.847 Y69.921 E87.54734
G1 X62.292 Y69.342 E87.59402
G1 X62.292 Y55.527 E88.398
G1 X61.736 Y54.994 E88.4428
G1 X61.736 Y68.763 E89.2441
G1 X61.181 Y68.184 E89.29079
G1 X61.181 Y54.461 E90.08943
G1 X60.852 Y54.145 E90.11594
G1 X60.626 Y54.145 E90.12913
G1 X60.626 Y67.605 E90.91244
G1 X60.07 Y67.026 E90.95913
G1 X60.07 Y54.145 E91.70874
G1 X59.515 Y54.145 E91.74107
G1 X59.515 Y66.448 E92.45699
G1 X58.959 Y65.869 E92.50368
G1 X58.959 Y52.329 E93.29162
G1 X58.404 Y51.796 E93.33642
G1 X58.404 Y65.29 E94.12169
G1 X57.848 Y64.711 E94.16838
G1 X57.848 Y51.263 E94.95098
G1 X57.293 Y50.73 E94.99577
G1 X57.293 Y64.132 E95.7757
G1 X56.737 Y63.553 E95.82239
G1 X56.737 Y50.197 E96.59964
G1 X56.182 Y49.664 E96.64444
G1 X56.182 Y62.974 E97.41901
G1 X55.626 Y62.395 E97.4657
G1 X55.626 Y49.131 E98.23761
G1 X55.071 Y48.598 E98.28241
G1 X55.071 Y61.816 E99.05164
G1 X54.515 Y61.237 E99.09833
G1 X54.515 Y48.065 E99.86489
G1 X53.96 Y47.532 E99.90969
G1 X53.96 Y60.659 E100.67358
G1 X53.405 Y60.08 E100.72026
G1 X53.405 Y46.999 E101.48148
G1 X52.849 Y46.466 E101.52628
G1 X52.849 Y59.501 E102.28482
G1 X52.294 Y58.922 E102.33151
G1 X52.294 Y45.933 E103.08738
G1 X51.738 Y45.4 E103.13218
G1 X51.738 Y58.343 E103.88537
G1 X51.183 Y57.764 E103.93206
G1 X51.183 Y44.867 E104.68259
G1 X50.627 Y44.334 E104.72739
G1 X50.627 Y57.185 E105.47524
G1 X50.072 Y56.606 E105.52193
G1 X50.072 Y43.801 E106.26711
G1 X49.516 Y43.268 E106.3119
G1 X49.516 Y56.027 E107.05441
G1 X48.961 Y55.449 E107.1011
G1 X48.961 Y42.735 E107.84093
G1 X48.405 Y42.203 E107.88573
G1 X48.405 Y54.87 E108.62289
G1 X47.85 Y54.291 E108.66958
G1 X47.85 Y41.67 E109.40407
G1 X47.295 Y41.137 E109.44887
G1 X47.295 Y53.712 E110.18068
G1 X46.739 Y53.133 E110.22737
G1 X46.739 Y40.604 E110.95652
G1 X46.184 Y40.071 E111.00131
G1 X46.184 Y52.554 E111.72779
G1 X45.628 Y51.975 E111.77447
G1 X45.628 Y39.538 E112.49827
G1 X45.073 Y39.005 E112.54307
G1 X45.073 Y51.396 E113.2642
G1 X44.517 Y50.817 E113.31088
G1 X44.517 Y38.472 E114.02934
G1 X43.962 Y37.939 E114.07414
G1 X43.962 Y50.238 E114.78992
G1 X43.406 Y49.66 E114.8366
G1 X43.406 Y37.406 E115.54971
G1 X42.851 Y36.873 E115.59451
G1 X42.851 Y49.081 E116.30494
G1 X42.295 Y48.502 E116.35163
G1 X42.295 Y36.34 E117.0594
G1 X41.74 Y35.807 E117.10419
G1 X41.74 Y47.923 E117.80928
G1 X41.185 Y47.344 E117.85597
G1 X41.185 Y35.274 E118.55839
G1 X40.629 Y34.741 E118.60319
G1 X40.629 Y46.765 E119.30293
G1 X40.074 Y46.186 E119.34962
G1 X40.074 Y34.208 E120.04669
G1 X39.863 Y34.006 E120.06369
G1 X39.518 Y34.006 E120.08375
G1 X39.518 Y45.607 E120.7589
G1 X38.963 Y45.028 E120.80559
G1 X38.963 Y34.006 E121.44705
G1 X38.407 Y34.006 E121.47938
G1 X38.407 Y44.45 E122.08715
G1 X37.852 Y43.871 E122.13384
G1 X37.852 Y34.006 E122.70793
G1 X37.296 Y34.006 E122.74025
G1 X37.296 Y43.292 E123.28065
G1 X36.741 Y42.713 E123.32734
G1 X36.741 Y34.006 E123.83405
G1 X36.185 Y34.006 E123.86637
G1 X36.185 Y42.134 E124.33939
G1 X35.63 Y41.555 E124.38608
G1 X35.63 Y34.006 E124.82542
G1 X35.074 Y34.006 E124.85774
G1 X35.074 Y40.976 E125.26338
G1 X34.519 Y40.397 E125.31007
G1 X34.519 Y33.781 E125.69512
M204 S2500
G1 E124.29512 F4800
;WIPE_START
G1 F5760
G1 X34.519 Y34.501 E123.72512
;WIPE_END
G1 E123.69512 F4800
G92 E0
G1 X125.845 Y115.883 F7200
G1 E2 F4800
M204 S2000
G1 F3000
G1 X125.845 Y116.991 E2.06447
G1 X127 Y116.991 E2.13167
G1 X128.722 Y118.644 E2.27059
G1 X128.722 Y119.868 E2.34184
G1 X129.998 Y119.868 E2.4161
G1 X131.599 Y121.404 E2.54522
G1 X131.599 Y122.745 E2.62326
G1 X132.997 Y122.745 E2.70458
G1 X134.476 Y124.165 E2.82391
G1 X134.476 Y125.622 E2.90873
G1 X135.995 Y125.622 E2.99712
G1 X137.353 Y126.926 E3.10666
G1 X137.353 Y128.499 E3.19825
G1 X138.994 Y128.499 E3.2937
G1 X140.23 Y129.686 E3.39345
G1 X140.23 Y131.377 E3.49182
G1 X141.992 Y131.377 E3.59434
G1 X143.107 Y132.447 E3.6843
G1 X143.107 Y134.254 E3.78945
G1 X144.99 Y134.254 E3.89903
G1 X145.984 Y135.207 E3.9792
G1 X145.984 Y137.131 E4.09113
G1 X147.989 Y137.131 E4.20778
G1 X148.862 Y137.968 E4.27816
G1 X148.862 Y140.008 E4.39686
G1 X150.987 Y140.008 E4.52057
G1 X151.739 Y140.729 E4.58116
G1 X151.739 Y142.885 E4.70665
G1 X153.986 Y142.885 E4.83742
G1 X154.616 Y143.489 E4.88822
G1 X154.616 Y145.762 E5.02048
G1 X156.984 Y145.762 E5.15833
G1 X160.37 Y149.01 E5.43137
G1 X160.37 Y151.516 E5.57719
G1 X162.981 Y151.516 E5.72916
G1 X163.247 Y151.771 E5.75059
G1 X163.247 Y154.393 E5.90319
G1 X165.98 Y154.393 E6.06222
G1 X166.124 Y154.532 E6.07386
G1 X166.124 Y157.27 E6.23323
G1 X168.978 Y157.27 E6.39934
G1 X169.001 Y157.292 E6.40118
G1 X169.001 Y160.147 E6.56733
G1 X171.878 Y160.147 E6.73477
G1 X171.878 Y163.024 E6.9022
G1 X174.755 Y163.024 E7.06963
G1 X174.755 Y165.901 E7.23706
G1 X177.974 Y165.901 E7.42436
G1 X180.509 Y168.335 E7.62887
G1 X180.509 Y171.656 E7.82214
G1 X183.387 Y171.656 E7.98957
G1 X183.387 Y174.533 E8.157
G1 X186.264 Y174.533 E8.32443
G1 X186.264 Y177.013 E8.46876
G1 X184.684 Y178.592 E8.59874
G2 X178.592 Y184.684 I-1.306 J4.786 E9.20601
G1 X177.173 Y186.104 E9.32285
G1 X173.703 Y186.104 E9.52477
G1 X171.815 Y184.137 E9.68342
G1 X171.815 Y180.35 E9.90381
G1 X168.182 Y180.35 E10.11528
G1 X166.061 Y178.14 E10.2935
G1 X166.061 Y174.595 E10.49977
G1 X163.184 Y174.595 E10.6672
G1 X163.184 Y171.718 E10.83463
G1 X160.307 Y171.718 E11.00206
G1 X160.307 Y168.841 E11.16949
G1 X157.43 Y168.841 E11.33692
G1 X157.43 Y165.964 E11.50435
G1 X154.379 Y165.964 E11.68193
G1 X151.676 Y163.147 E11.90911
G1 X151.676 Y160.21 E12.08005
G1 X148.857 Y160.21 E12.24407
G1 X145.922 Y157.15 E12.49083
G1 X145.922 Y154.456 E12.64764
G1 X143.336 Y154.456 E12.7981
G1 X143.045 Y154.152 E12.82261
G1 X143.045 Y151.579 E12.97236
G1 X140.576 Y151.579 E13.11604
G1 X137.291 Y148.155 E13.39217
G1 X137.291 Y145.825 E13.52779
G1 X135.054 Y145.825 E13.65791
G1 X131.536 Y142.158 E13.95363
G1 X131.536 Y140.07 E14.07511
G1 X129.533 Y140.07 E14.19168
G1 X128.659 Y139.16 E14.26515
G1 X128.659 Y137.193 E14.37957
G1 X126.773 Y137.193 E14.48936
G1 X125.782 Y136.161 E14.57261
