; generated by PrusaSlicer 2.5.2+win64 on 2024-05-13 at 08:58:42 UTC
; Postprocessed by [ArcWelder](https://github.com/FormerLurker/ArcWelderLib)
; Copyright(C) 2021 - Brad Hochgesang
; Version: 1.2.0, Branch: HEAD, BuildDate: 2021-11-21T20:25:43Z
; resolution=0.05mm
; path_tolerance=5.0%
; max_radius=9999.00mm
; default_xyz_precision=3
; default_e_precision=5
; extrusion_rate_variance_percent=5.0%


; 

; external perimeters extrusion width = 0.45mm
; perimeters extrusion width = 0.40mm
; infill extrusion width = 0.45mm
; solid infill extrusion width = 0.50mm
; top infill extrusion width = 0.45mm
; support material extrusion width = 0.42mm
; first layer extrusion width = 0.56mm

M201 X2500 Y2500 Z800 E2500 ; sets maximum accelerations, mm/sec^2
M203 X300 Y250 Z8 E80 ; sets maximum feedrates, mm / sec
M204 P2500 R2500 T2500 ; sets acceleration (P, T) and retract acceleration (R), mm/sec^2
M205 X15.00 Y10.00 Z2.00 E10.00 ; sets the jerk limits, mm/sec
M205 S0 T0 ; sets the minimum extruding and travel feed rate, mm/sec
M107
;TYPE:Custom
G90 ; use absolute coordinates
M83 ; extruder relative mode
M104 S215 ; set extruder temp
M140 S60 ; set bed temp
M190 S60 ; wait for bed temp
M109 S215 ; wait for extruder temp
G28                                        ; move X/Y/Z to min endstops
G1 Z0.28                                   ; lift nozzle a bit 
G92 E0 
G1 Y3 F1800                                    ; zero the extruded length 
G1 X60  E25 F500                       ; Extrude 25mm of filament in a 5cm line. 
G92 E0                                     ; zero the extruded length again 
G1 E-2 F500                                ; Retract a little 
G1 X70 F4000                              ; Quickly wipe away from the filament line
M117
G21 ; set units to millimeters
G90 ; use absolute coordinates
M82 ; use absolute distances for extrusion
G92 E0
M107
;LAYER_CHANGE
;Z:0.28
;HEIGHT:0.28
; BEFORE_LAYER_CHANGE 0 @ 0.28mm
G1 E-2 F4800
G92 E0
G1 Z.28 F7200
; AFTER_LAYER_CHANGE 0 @ 0.28mm
G1 X101.293 Y113.516
G1 E2 F4800
M204 S2000
;TYPE:Support material
;WIDTH:0.56
G1 F3000
G1 X101.577 Y113.602 E2.01726
G1 X101.839 Y113.742 E2.03453
G1 X102.068 Y113.93 E2.05179
G1 X102.256 Y114.159 E2.06905
G1 X102.396 Y114.421 E2.08632
G1 X102.482 Y114.705 E2.10358
G1 X102.511 Y115 E2.12084
G1 X102.482 Y115.295 E2.1381
G1 X102.396 Y115.579 E2.15537
G1 X102.256 Y115.841 E2.17263
G1 X102.068 Y116.07 E2.18989
G1 X101.839 Y116.258 E2.20716
G1 X101.577 Y116.398 E2.22442
G1 X101.293 Y116.484 E2.24169
G1 X101 Y116.513 E2.25881
G1 X100.7 Y116.483 E2.27637
G1 X100.406 Y116.392 E2.29425
G1 X100.214 Y116.294 E2.30682
G1 X99.969 Y116.108 E2.3247
G1 X99.77 Y115.882 E2.34223
G1 X99.62 Y115.621 E2.35976
G1 X99.524 Y115.336 E2.37728
G1 X99.486 Y115.037 E2.39482
G1 X99.509 Y114.738 E2.41223
G1 X99.59 Y114.448 E2.42977
G1 X99.728 Y114.18 E2.44729
G1 X99.915 Y113.944 E2.46483
G1 X100.146 Y113.751 E2.48235
G1 X100.41 Y113.607 E2.49988
G1 X100.698 Y113.518 E2.51741
G1 X100.998 Y113.487 E2.53496
G1 X101.218 Y113.509 E2.54784
M204 S2500
G1 X101.669 Y116.094 F7200
M204 S2000
G1 F3000
G1 X101.669 Y114.185 E2.65891
G1 X101.587 Y114.118 E2.66505
G1 X101.404 Y114.02 E2.67715
G1 X101.205 Y113.96 E2.68926
G1 X101.114 Y113.951 E2.6946
G1 X101.114 Y116.049 E2.81673
G1 X101 Y116.06 E2.82335
G1 X100.789 Y116.039 E2.8357
G1 X100.558 Y115.965 E2.84983
G1 X100.558 Y114.038 E2.96193
G1 X100.401 Y114.124 E2.97236
G1 X100.239 Y114.26 E2.98465
G1 X100.107 Y114.425 E2.99694
G1 X100.011 Y114.613 E3.00923
G1 X100.003 Y115.806 E3.07865
M204 S2500
G1 E1.67865 F4800
;WIPE_START
G1 F5760
G1 X100.008 Y115.086 E1.10865
;WIPE_END
G1 E1.07865 F4800
G92 E0
G1 X115.031 Y105.515 F7200
G1 E2 F4800
M204 S2000
G1 F3000
G1 X100.98 Y105.515 E2.81771
G1 X100.042 Y105.563 E2.8724
G2 X100.993 Y124.485 I0.957 J9.437 E4.54973
G1 X115.031 Y124.485 E5.3667
G1 X115.031 Y129.417 E5.65371
G1 X94.829 Y129.417 E6.82938
G1 X94.829 Y126.54 E6.99681
G1 X89.075 Y126.54 E7.33167
G1 X89.075 Y103.46 E8.67477
G1 X94.829 Y103.46 E9.00964
G1 X94.829 Y100.583 E9.17707
G1 X115.031 Y100.583 E10.35274
G1 X115.031 Y105.44 E10.63538
M204 S2500
G1 E9.23538 F4800
;WIPE_START
G1 F5760
G1 X115.031 Y104.72 E8.66538
;WIPE_END
G1 E8.63538 F4800
G92 E0
G1 X114.445 Y129.192 F7200
G1 E2 F4800
M204 S2000
G1 F3000
G1 X114.445 Y124.935 E2.24773
G1 X113.889 Y124.935 E2.28005
G1 X113.889 Y128.967 E2.51469
G1 X113.334 Y128.967 E2.54702
G1 X113.334 Y124.935 E2.78165
G1 X112.778 Y124.935 E2.81398
G1 X112.778 Y128.967 E3.04862
G1 X112.223 Y128.967 E3.08094
G1 X112.223 Y124.935 E3.31558
G1 X111.667 Y124.935 E3.3479
G1 X111.667 Y128.967 E3.58254
G1 X111.112 Y128.967 E3.61487
G1 X111.112 Y124.935 E3.8495
G1 X110.556 Y124.935 E3.88183
G1 X110.556 Y128.967 E4.11647
G1 X110.001 Y128.967 E4.14879
G1 X110.001 Y124.935 E4.38343
G1 X109.445 Y124.935 E4.41575
G1 X109.445 Y128.967 E4.65039
G1 X108.89 Y128.967 E4.68272
G1 X108.89 Y124.935 E4.91735
G1 X108.335 Y124.935 E4.94968
G1 X108.335 Y128.967 E5.18432
G1 X107.779 Y128.967 E5.21664
G1 X107.779 Y124.935 E5.45128
G1 X107.224 Y124.935 E5.4836
G1 X107.224 Y128.967 E5.71824
G1 X106.668 Y128.967 E5.75057
G1 X106.668 Y124.935 E5.9852
G1 X106.113 Y124.935 E6.01753
G1 X106.113 Y128.967 E6.25217
G1 X105.557 Y128.967 E6.28449
G1 X105.557 Y124.935 E6.51913
G1 X105.002 Y124.935 E6.55145
G1 X105.002 Y128.967 E6.78609
G1 X104.446 Y128.967 E6.81841
G1 X104.446 Y124.935 E7.05305
G1 X103.891 Y124.935 E7.08538
G1 X103.891 Y128.967 E7.32001
G1 X103.335 Y128.967 E7.35234
G1 X103.335 Y124.935 E7.58698
G1 X102.78 Y124.935 E7.6193
G1 X102.78 Y128.967 E7.85394
G1 X102.224 Y128.967 E7.88626
G1 X102.224 Y124.935 E8.1209
G1 X101.669 Y124.935 E8.15323
G1 X101.669 Y128.967 E8.38786
G1 X101.114 Y128.967 E8.42019
G1 X101.114 Y124.935 E8.65483
G1 X100.558 Y124.914 E8.68717
G1 X100.558 Y128.967 E8.92302
G1 X100.003 Y128.967 E8.95535
G1 X100.003 Y124.885 E9.1929
G1 X99.447 Y124.802 E9.22558
G1 X99.447 Y128.967 E9.46796
G1 X98.892 Y128.967 E9.50028
G1 X98.892 Y124.704 E9.74836
G1 X98.336 Y124.562 E9.78172
G1 X98.336 Y128.967 E10.03803
G1 X97.781 Y128.967 E10.07035
G1 X97.781 Y124.389 E10.33674
G1 X97.225 Y124.187 E10.37113
G1 X97.225 Y128.967 E10.64928
G1 X96.67 Y128.967 E10.68161
G1 X96.67 Y123.93 E10.97473
G1 X96.114 Y123.649 E11.01096
G1 X96.114 Y128.967 E11.32044
G1 X95.559 Y128.967 E11.35277
G1 X95.559 Y123.31 E11.68197
G1 X95.004 Y122.908 E11.72186
G1 X95.004 Y126.09 E11.907
G1 X94.448 Y126.09 E11.93933
G1 X94.448 Y122.466 E12.15024
G3 X93.893 Y121.927 I3.578 J-4.240 E12.19527
G1 X93.893 Y126.09 E12.4375
G1 X93.337 Y126.09 E12.46983
G1 X93.337 Y121.309 E12.74803
G3 X92.782 Y120.579 I4.966 J-4.352 E12.80143
G1 X92.782 Y126.09 E13.1221
G1 X92.226 Y126.09 E13.15443
G1 X92.226 Y119.642 E13.52967
G3 X91.671 Y118.396 I6.234 J-3.523 E13.60913
G1 X91.671 Y126.09 E14.05686
G1 X91.115 Y126.09 E14.08919
G1 X91.115 Y103.91 E15.37992
G1 X91.671 Y103.91 E15.41225
G1 X91.671 Y111.604 E15.85997
G3 X92.226 Y110.347 I6.217 J1.994 E15.94002
G1 X92.226 Y103.91 E16.31459
G1 X92.782 Y103.91 E16.34691
G1 X92.782 Y109.429 E16.66807
G3 X93.337 Y108.684 I4.385 J2.687 E16.72218
G1 X93.337 Y103.91 E16.99998
G1 X93.893 Y103.91 E17.0323
G1 X93.893 Y108.057 E17.27361
G1 X94.448 Y107.54 E17.31775
G1 X94.448 Y103.91 E17.52901
G1 X95.004 Y103.91 E17.56133
G1 X95.004 Y107.092 E17.74648
G3 X95.559 Y106.694 I2.501 J2.901 E17.78627
G1 X95.559 Y101.033 E18.11571
G1 X96.114 Y101.033 E18.14803
G1 X96.114 Y106.355 E18.45772
G1 X96.67 Y106.07 E18.49404
G1 X96.67 Y101.033 E18.78716
G1 X97.225 Y101.033 E18.81949
G1 X97.225 Y105.813 E19.09763
G1 X97.781 Y105.611 E19.13203
G1 X97.781 Y101.033 E19.39842
G1 X98.336 Y101.033 E19.43074
G1 X98.336 Y105.438 E19.68705
G1 X98.892 Y105.296 E19.72041
G1 X98.892 Y101.033 E19.96849
G1 X99.447 Y101.033 E20.00081
G1 X99.447 Y105.198 E20.24319
G1 X100.003 Y105.115 E20.27587
G1 X100.003 Y101.033 E20.51342
G1 X100.558 Y101.033 E20.54574
G1 X100.558 Y105.086 E20.78159
G1 X101.114 Y105.065 E20.81394
G1 X101.114 Y101.033 E21.04858
G1 X101.669 Y101.033 E21.0809
G1 X101.669 Y105.065 E21.31554
G1 X102.224 Y105.065 E21.34786
G1 X102.224 Y101.033 E21.5825
G1 X102.78 Y101.033 E21.61483
G1 X102.78 Y105.065 E21.84946
G1 X103.335 Y105.065 E21.88179
G1 X103.335 Y101.033 E22.11643
G1 X103.891 Y101.033 E22.14875
G1 X103.891 Y105.065 E22.38339
G1 X104.446 Y105.065 E22.41571
G1 X104.446 Y101.033 E22.65035
G1 X105.002 Y101.033 E22.68267
G1 X105.002 Y105.065 E22.91731
G1 X105.557 Y105.065 E22.94964
G1 X105.557 Y101.033 E23.18427
G1 X106.113 Y101.033 E23.2166
G1 X106.113 Y105.065 E23.45124
G1 X106.668 Y105.065 E23.48356
G1 X106.668 Y101.033 E23.7182
G1 X107.224 Y101.033 E23.75052
G1 X107.224 Y105.065 E23.98516
G1 X107.779 Y105.065 E24.01749
G1 X107.779 Y101.033 E24.25212
G1 X108.335 Y101.033 E24.28445
G1 X108.335 Y105.065 E24.51908
G1 X108.89 Y105.065 E24.55141
G1 X108.89 Y101.033 E24.78605
G1 X109.445 Y101.033 E24.81837
G1 X109.445 Y105.065 E25.05301
G1 X110.001 Y105.065 E25.08533
G1 X110.001 Y101.033 E25.31997
G1 X110.556 Y101.033 E25.3523
G1 X110.556 Y105.065 E25.58693
G1 X111.112 Y105.065 E25.61926
G1 X111.112 Y101.033 E25.85389
G1 X111.667 Y101.033 E25.88622
G1 X111.667 Y105.065 E26.12086
G1 X112.223 Y105.065 E26.15318
G1 X112.223 Y101.033 E26.38782
G1 X112.778 Y101.033 E26.42014
G1 X112.778 Y105.065 E26.65478
G1 X113.334 Y105.065 E26.68711
G1 X113.334 Y101.033 E26.92174
G1 X113.889 Y101.033 E26.95407
G1 X113.889 Y105.065 E27.18871
G1 X114.445 Y105.065 E27.22103
G1 X114.445 Y100.808 E27.46876
M204 S2500
G1 E26.06876 F4800
;WIPE_START
G1 F5760
G1 X114.445 Y101.528 E25.49876
;WIPE_END
G1 E25.46876 F4800
G92 E0
G1 X90.56 Y126.315 F7200
G1 E2 F4800
M204 S2000
G1 F3000
G1 X90.56 Y103.91 E3.30383
G1 X90.004 Y103.91 E3.33615
G1 X90.004 Y126.315 E4.63998
M204 S2500
G1 E3.23998 F4800
;WIPE_START
G1 F5760
G1 X90.004 Y125.595 E2.66998
;WIPE_END
G1 E2.63998 F4800
G92 E0
G1 X118.599 Y111.6 F7200
G1 E2 F4800
M204 S2000
;TYPE:External perimeter
G1 F3000
G1 X118.599 Y118.4 E2.39573
G1 X130.165 Y118.4 E3.06881
G1 X130.165 Y123.6 E3.37142
G1 X101.009 Y123.6 E5.06816
G3 X101.009 Y106.400 I-0.010 J-8.600 E6.64090
G1 X130.165 Y106.4 E8.33763
G1 X130.165 Y111.6 E8.64025
G1 X118.659 Y111.6 E9.30984
M204 S2500
G1 X118.203 Y111.656 F7200
G1 X118.099 Y111.1
M204 S2000
;TYPE:Perimeter
G1 F3000
G1 X118.099 Y118.9 E9.76375
G1 X129.665 Y118.9 E10.43683
G1 X129.665 Y123.1 E10.68126
G1 X101.021 Y123.1 E12.34818
G3 X101.021 Y106.900 I-0.022 J-8.100 E13.83092
G1 X129.665 Y106.9 E15.49784
G1 X129.665 Y111.1 E15.74227
G1 X118.159 Y111.1 E16.41186
M204 S2500
G1 X117.599 Y110.6 F7200
M204 S2000
G1 F3000
G1 X117.599 Y119.4 E16.92395
G1 X129.165 Y119.4 E17.59704
G1 X129.165 Y122.6 E17.78328
G1 X101.034 Y122.6 E19.42038
G3 X101.034 Y107.400 I-0.035 J-7.600 E20.81312
G1 X129.165 Y107.4 E22.45021
G1 X129.165 Y110.6 E22.63646
G1 X117.659 Y110.6 E23.30605
M204 S2500
G1 E21.90605 F4800
;WIPE_START
G1 F5760
G1 X117.654 Y111.32 E21.33605
;WIPE_END
G1 E21.30605 F4800
G92 E0
G1 X103.399 Y115.014 F7200
G1 E2 F4800
M204 S2000
;TYPE:External perimeter
G1 F3000
G3 X103.354 Y114.531 I-2.401 J-0.020 E2.84864
G1 X103.396 Y114.954 E2.87336
M204 S2500
G1 X103.745 Y115.214 F7200
G1 X103.899 Y114.96
M204 S2000
;TYPE:Perimeter
G1 F3000
G3 X103.682 Y113.888 I-2.903 J0.030 E3.86962
G3 X103.893 Y114.900 I-2.446 J1.038 E3.93005
M204 S2500
G1 X104.397 Y115.083 F7200
M204 S2000
G1 F3000
G3 X103.831 Y113.107 I-3.398 J-0.096 E5.05220
G3 X104.403 Y115.023 I-2.793 J1.877 E5.17015
M204 S2500
G1 E3.77015 F4800
;WIPE_START
G1 F5760
G1 X104.34 Y115.665 E3.2595
G1 X104.318 Y115.737 E3.20015
;WIPE_END
G1 E3.17015 F4800
G92 E0
G1 X128.965 Y108.626 F7200
G1 E2 F4800
M204 S2000
;TYPE:Solid infill
;WIDTH:0.567302
G1 F3000
G1 X128.164 Y107.825 E2.06689
G1 X127.446 Y107.825 E2.10925
G1 X128.74 Y109.118 E2.21725
G1 X128.74 Y109.835 E2.2596
G1 X126.729 Y107.825 E2.4275
G1 X126.012 Y107.825 E2.46986
G1 X128.362 Y110.175 E2.66613
G1 X127.645 Y110.175 E2.70848
G1 X125.295 Y107.825 E2.90476
G1 X124.577 Y107.825 E2.94711
G1 X126.928 Y110.175 E3.14339
G1 X126.21 Y110.175 E3.18574
G1 X123.86 Y107.825 E3.38201
G1 X123.143 Y107.825 E3.42437
G1 X125.493 Y110.175 E3.62064
G1 X124.776 Y110.175 E3.66299
G1 X122.425 Y107.825 E3.85927
G1 X121.708 Y107.825 E3.90162
G1 X124.059 Y110.175 E4.0979
G1 X123.341 Y110.175 E4.14025
G1 X120.991 Y107.825 E4.33652
G1 X120.273 Y107.825 E4.37888
G1 X122.624 Y110.175 E4.57515
G1 X121.907 Y110.175 E4.6175
G1 X119.556 Y107.825 E4.81378
G1 X118.839 Y107.825 E4.85613
G1 X121.189 Y110.175 E5.05241
G1 X120.472 Y110.175 E5.09476
G1 X118.121 Y107.825 E5.29103
G1 X117.404 Y107.825 E5.33339
G1 X119.755 Y110.175 E5.52966
G1 X119.037 Y110.175 E5.57201
G1 X116.687 Y107.825 E5.76829
G1 X115.97 Y107.825 E5.81064
G1 X118.32 Y110.175 E6.00692
G1 X117.603 Y110.175 E6.04927
G1 X115.252 Y107.825 E6.24554
G1 X114.535 Y107.825 E6.2879
G1 X117.174 Y110.464 E6.50825
G1 X117.174 Y111.181 E6.55061
G1 X113.818 Y107.825 E6.83086
G1 X113.1 Y107.825 E6.87321
G1 X117.174 Y111.898 E7.21337
G1 X117.174 Y112.616 E7.25572
G1 X112.383 Y107.825 E7.65577
G1 X111.666 Y107.825 E7.69812
G1 X117.174 Y113.333 E8.15806
G1 X117.174 Y114.05 E8.20042
G1 X110.948 Y107.825 E8.72026
G1 X110.231 Y107.825 E8.76261
G1 X117.174 Y114.768 E9.34235
G1 X117.174 Y115.485 E9.3847
G1 X109.514 Y107.825 E10.02434
G1 X108.796 Y107.825 E10.06669
G1 X117.174 Y116.202 E10.76622
G1 X117.174 Y116.919 E10.80857
G1 X108.079 Y107.825 E11.568
G1 X107.362 Y107.825 E11.61036
G1 X117.174 Y117.637 E12.42968
G1 X117.174 Y118.354 E12.47203
G1 X106.645 Y107.825 E13.35125
G1 X105.927 Y107.825 E13.39361
G1 X117.399 Y119.296 E14.35151
M204 S2500
G1 E12.95151 F4800
;WIPE_START
G1 F5760
G1 X116.89 Y118.787 E12.38151
;WIPE_END
G1 E12.35151 F4800
G92 E0
G1 X128.462 Y119.6 F7200
G1 E2 F4800
M204 S2000
G1 F3000
G1 X128.74 Y119.878 E2.02321
G1 X128.74 Y120.595 E2.06557
G1 X127.97 Y119.825 E2.12989
G1 X127.252 Y119.825 E2.17225
G1 X128.74 Y121.312 E2.29647
G1 X128.74 Y122.03 E2.33882
G1 X126.535 Y119.825 E2.52294
G1 X125.818 Y119.825 E2.56529
G1 X128.168 Y122.175 E2.76157
G1 X127.451 Y122.175 E2.80392
G1 X125.1 Y119.825 E3.0002
G1 X124.383 Y119.825 E3.04255
G1 X126.734 Y122.175 E3.23882
G1 X126.016 Y122.175 E3.28118
G1 X123.666 Y119.825 E3.47745
G1 X122.948 Y119.825 E3.5198
G1 X125.299 Y122.175 E3.71608
G1 X124.582 Y122.175 E3.75843
G1 X122.231 Y119.825 E3.95471
G1 X121.514 Y119.825 E3.99706
G1 X123.864 Y122.175 E4.19333
G1 X123.147 Y122.175 E4.23569
G1 X120.796 Y119.825 E4.43196
G1 X120.079 Y119.825 E4.47431
G1 X122.43 Y122.175 E4.67059
G1 X121.712 Y122.175 E4.71294
G1 X119.362 Y119.825 E4.90922
G1 X118.645 Y119.825 E4.95157
G1 X120.995 Y122.175 E5.14784
G1 X120.278 Y122.175 E5.1902
G1 X117.702 Y119.6 E5.40525
M204 S2500
G1 E4.00525 F4800
;WIPE_START
G1 F5760
G1 X118.211 Y120.109 E3.43526
;WIPE_END
G1 E3.40525 F4800
G92 E0
G1 X119.785 Y122.4 F7200
G1 E2 F4800
M204 S2000
G1 F3000
G1 X105.21 Y107.825 E3.21708
G1 X104.493 Y107.825 E3.25944
G1 X118.843 Y122.175 E4.45774
G1 X118.126 Y122.175 E4.50009
G1 X103.775 Y107.825 E5.69839
G1 X103.058 Y107.825 E5.74074
G1 X117.409 Y122.175 E6.93904
G1 X116.691 Y122.175 E6.9814
G1 X102.341 Y107.825 E8.17969
G1 X101.623 Y107.825 E8.22205
G1 X115.974 Y122.175 E9.42035
G1 X115.257 Y122.175 E9.4627
G1 X100.913 Y107.831 E10.66045
G1 X100.234 Y107.87 E10.70057
G1 X114.539 Y122.175 E11.89508
G1 X113.822 Y122.175 E11.93743
G1 X99.611 Y107.964 E13.12409
G1 X99.036 Y108.107 E13.15904
G1 X102.354 Y111.424 E13.43603
G1 X102.464 Y111.458 E13.44285
G3 X104.574 Y113.645 I-1.389 J3.452 E13.62734
G1 X113.105 Y122.175 E14.33965
G1 X112.387 Y122.175 E14.382
G1 X104.791 Y114.579 E15.01635
G3 X104.802 Y115.307 I-1.842 J0.392 E15.05957
G1 X111.67 Y122.175 E15.63308
G1 X110.953 Y122.175 E15.67543
G1 X104.704 Y115.927 E16.1972
G1 X104.536 Y116.476 E16.2311
G1 X110.235 Y122.175 E16.70703
G1 X109.518 Y122.175 E16.74938
G1 X104.286 Y116.943 E17.18628
G3 X103.992 Y117.366 I-1.184 J-0.509 E17.21686
G1 X108.801 Y122.175 E17.61841
G1 X108.084 Y122.175 E17.66076
G1 X103.66 Y117.752 E18.03016
G1 X103.266 Y118.075 E18.06025
G1 X107.366 Y122.175 E18.40265
G1 X106.649 Y122.175 E18.44501
