; generated by PrusaSlicer 2.5.2+win64 on 2024-05-14 at 20:38:16 UTC
; Postprocessed by [ArcWelder](https://github.com/FormerLurker/ArcWelderLib)
; Copyright(C) 2021 - Brad Hochgesang
; Version: 1.2.0, Branch: HEAD, BuildDate: 2021-11-21T20:25:43Z
; resolution=0.05mm
; path_tolerance=5.0%
; max_radius=9999.00mm
; default_xyz_precision=3
; default_e_precision=5
; extrusion_rate_variance_percent=5.0%


; 

; external perimeters extrusion width = 0.45mm
; perimeters extrusion width = 0.40mm
; infill extrusion width = 0.45mm
; solid infill extrusion width = 0.50mm
; top infill extrusion width = 0.45mm
; support material extrusion width = 0.42mm
; first layer extrusion width = 0.56mm

M201 X2500 Y2500 Z800 E2500 ; sets maximum accelerations, mm/sec^2
M203 X300 Y250 Z8 E80 ; sets maximum feedrates, mm / sec
M204 P2500 R2500 T2500 ; sets acceleration (P, T) and retract acceleration (R), mm/sec^2
M205 X15.00 Y10.00 Z2.00 E10.00 ; sets the jerk limits, mm/sec
M205 S0 T0 ; sets the minimum extruding and travel feed rate, mm/sec
M107
;TYPE:Custom
G90 ; use absolute coordinates
M83 ; extruder relative mode
M104 S215 ; set extruder temp
M140 S60 ; set bed temp
M190 S60 ; wait for bed temp
M109 S215 ; wait for extruder temp
G28                                        ; move X/Y/Z to min endstops
G1 Z0.28                                   ; lift nozzle a bit 
G92 E0 
G1 Y3 F1800                                    ; zero the extruded length 
G1 X60  E25 F500                       ; Extrude 25mm of filament in a 5cm line. 
G92 E0                                     ; zero the extruded length again 
G1 E-2 F500                                ; Retract a little 
G1 X70 F4000                              ; Quickly wipe away from the filament line
M117
G21 ; set units to millimeters
G90 ; use absolute coordinates
M82 ; use absolute distances for extrusion
G92 E0
M107
;LAYER_CHANGE
;Z:0.28
;HEIGHT:0.28
; BEFORE_LAYER_CHANGE 0 @ 0.28mm
G1 E-2 F4800
G92 E0
G1 Z.28 F7200
; AFTER_LAYER_CHANGE 0 @ 0.28mm
G1 X160.6 Y154.6
G1 E2 F4800
M204 S2000
;TYPE:External perimeter
;WIDTH:0.56
G1 F3000
G1 X69.4 Y154.6 E7.30738
G1 X69.4 Y75.4 E11.91642
G1 X160.6 Y75.4 E17.22379
G1 X160.6 Y154.54 E21.82934
M204 S2500
G1 X160.211 Y154.506 F7200
G1 X160.1 Y154.1
M204 S2000
;TYPE:Perimeter
G1 F3000
G1 X69.9 Y154.1 E27.07854
G1 X69.9 Y75.9 E31.62939
G1 X160.1 Y75.9 E36.87858
G1 X160.1 Y154.04 E41.42595
M204 S2500
G1 X159.6 Y153.6 F7200
M204 S2000
G1 F3000
G1 X70.4 Y153.6 E46.61695
G1 X70.4 Y76.4 E51.10962
G1 X159.6 Y76.4 E56.30063
G1 X159.6 Y153.54 E60.78981
M204 S2500
G1 E59.38981 F4800
;WIPE_START
G1 F5760
G1 X158.88 Y153.541 E58.81981
;WIPE_END
G1 E58.78981 F4800
G92 E0
G1 X151.4 Y143.4 F7200
G1 E2 F4800
M204 S2000
;TYPE:External perimeter
G1 F3000
G1 X78.6 Y143.4 E6.23659
G1 X78.6 Y117.6 E7.73802
G1 X151.4 Y117.6 E11.97461
G1 X151.4 Y143.34 E13.47255
M204 S2500
G1 X151.559 Y143.767 F7200
G1 X151.9 Y143.9
M204 S2000
;TYPE:Perimeter
G1 F3000
G1 X78.1 Y143.9 E17.76733
G1 X78.1 Y117.1 E19.32694
G1 X151.9 Y117.1 E23.62171
G1 X151.9 Y143.84 E25.17784
M204 S2500
G1 X152.4 Y144.4 F7200
M204 S2000
G1 F3000
G1 X77.6 Y144.4 E29.5308
G1 X77.6 Y116.6 E31.1486
G1 X152.4 Y116.6 E35.50156
G1 X152.4 Y144.34 E37.11586
M204 S2500
G1 E35.71586 F4800
;WIPE_START
G1 F5760
G1 X151.68 Y144.34 E35.14586
;WIPE_END
G1 E35.11586 F4800
G92 E0
G1 X131.4 Y97.4 F7200
G1 E2 F4800
M204 S2000
;TYPE:External perimeter
G1 F3000
G1 X123.6 Y97.4 E2.45392
G1 X123.6 Y89.6 E2.90784
G1 X131.4 Y89.6 E3.36176
G1 X131.4 Y97.34 E3.81219
M204 S2500
G1 X131.504 Y97.786 F7200
G1 X131.9 Y97.9
M204 S2000
;TYPE:Perimeter
G1 F3000
G1 X123.1 Y97.9 E4.3243
G1 X123.1 Y89.1 E4.8364
G1 X131.9 Y89.1 E5.34851
G1 X131.9 Y97.84 E5.85712
M204 S2500
G1 E4.45712 F4800
;WIPE_START
G1 F5760
G1 X131.18 Y97.845 E3.88712
;WIPE_END
G1 E3.85712 F4800
G92 E0
G1 X121.4 Y90.4 F7200
G1 E2 F4800
M204 S2000
;TYPE:External perimeter
G1 F3000
G1 X113.6 Y90.4 E2.45392
G1 X113.6 Y82.6 E2.90784
G1 X121.4 Y82.6 E3.36176
G1 X121.4 Y90.34 E3.81219
M204 S2500
G1 X121.504 Y90.786 F7200
G1 X121.9 Y90.9
M204 S2000
;TYPE:Perimeter
G1 F3000
G1 X113.1 Y90.9 E4.3243
G1 X113.1 Y82.1 E4.8364
G1 X121.9 Y82.1 E5.34851
G1 X121.9 Y90.84 E5.85712
M204 S2500
G1 E4.45712 F4800
;WIPE_START
G1 F5760
G1 X121.18 Y90.845 E3.88712
;WIPE_END
G1 E3.85712 F4800
G92 E0
G1 X111.4 Y97.4 F7200
G1 E2 F4800
M204 S2000
;TYPE:External perimeter
G1 F3000
G1 X103.6 Y97.4 E2.45392
G1 X103.6 Y89.6 E2.90784
G1 X111.4 Y89.6 E3.36176
G1 X111.4 Y97.34 E3.81219
M204 S2500
G1 X111.504 Y97.786 F7200
G1 X111.9 Y97.9
M204 S2000
;TYPE:Perimeter
G1 F3000
G1 X103.1 Y97.9 E4.3243
G1 X103.1 Y89.1 E4.8364
G1 X111.9 Y89.1 E5.34851
G1 X111.9 Y97.84 E5.85712
M204 S2500
G1 E4.45712 F4800
;WIPE_START
G1 F5760
G1 X111.18 Y97.845 E3.88712
;WIPE_END
G1 E3.85712 F4800
G92 E0
G1 X121.4 Y105.4 F7200
G1 E2 F4800
M204 S2000
;TYPE:External perimeter
G1 F3000
G1 X113.6 Y105.4 E2.45392
G1 X113.6 Y97.6 E2.90784
G1 X121.4 Y97.6 E3.36176
G1 X121.4 Y105.34 E3.81219
M204 S2500
G1 X121.504 Y105.786 F7200
G1 X121.9 Y105.9
M204 S2000
;TYPE:Perimeter
G1 F3000
G1 X113.1 Y105.9 E4.3243
G1 X113.1 Y97.1 E4.8364
G1 X121.9 Y97.1 E5.34851
G1 X121.9 Y105.84 E5.85712
M204 S2500
G1 E4.45712 F4800
;WIPE_START
G1 F5760
G1 X121.18 Y105.845 E3.88712
;WIPE_END
G1 E3.85712 F4800
G92 E0
G1 X123.459 Y88.6 F7200
G1 E2 F4800
M204 S2000
G1 F3000
G1 X132.4 Y88.6 E2.52032
G1 X132.4 Y98.4 E3.09061
G1 X122.4 Y98.4 E3.67256
G1 X122.4 Y106.4 E4.13812
G1 X112.6 Y106.4 E4.70841
G1 X112.6 Y98.4 E5.17397
G1 X102.6 Y98.4 E5.75592
G1 X102.6 Y88.6 E6.3262
G1 X112.6 Y88.6 E6.90815
G1 X112.6 Y81.6 E7.31552
G1 X122.4 Y81.6 E7.88581
G1 X122.4 Y88.6 E8.29317
G1 X123.399 Y88.6 E8.35131
M204 S2500
G1 E6.95131 F4800
;WIPE_START
G1 F5760
G1 X124.119 Y88.6 E6.38131
;WIPE_END
G1 E6.35131 F4800
G92 E0
G1 X122.4 Y91.4 F7200
G1 E2 F4800
M204 S2000
G1 F3000
G1 X122.6 Y91.4 E2.01166
G1 X122.6 Y96.6 E2.31429
G1 X112.4 Y96.6 E2.9079
G1 X112.4 Y91.4 E3.21054
G1 X122.34 Y91.4 E3.789
M204 S2500
G1 X122.5 Y91.15 F7200
M204 S2000
;TYPE:Gap fill
;WIDTH:0.760356
G1 F3000
G1 X122.5 Y88.85 E3.97646
M204 S2500
G1 E2.57646 F4800
;WIPE_START
G1 F5760
G1 X122.5 Y89.57 E2.00646
;WIPE_END
G1 E1.97646 F4800
G92 E0
G1 X121.348 Y91.6 F7200
G1 E2 F4800
M204 S2000
;TYPE:Solid infill
;WIDTH:0.579844
G1 F3000
G1 X122.175 Y92.427 E2.07082
G1 X122.175 Y93.162 E2.1153
G1 X120.838 Y91.825 E2.22977
G1 X120.102 Y91.825 E2.27424
G1 X122.175 Y93.898 E2.4516
G1 X122.175 Y94.633 E2.49608
G1 X119.367 Y91.825 E2.73634
G1 X118.632 Y91.825 E2.78081
G1 X122.175 Y95.368 E3.08397
G1 X122.175 Y96.103 E3.12844
G1 X117.897 Y91.825 E3.49449
G1 X117.162 Y91.825 E3.53896
G1 X121.513 Y96.175 E3.91123
G1 X120.778 Y96.175 E3.9557
G1 X116.427 Y91.825 E4.32796
G1 X115.692 Y91.825 E4.37244
G1 X120.043 Y96.175 E4.7447
G1 X119.308 Y96.175 E4.78917
G1 X114.957 Y91.825 E5.16144
G1 X114.222 Y91.825 E5.20591
G1 X118.573 Y96.175 E5.57817
G1 X117.838 Y96.175 E5.62265
G1 X113.487 Y91.825 E5.99491
G1 X112.825 Y91.825 E6.03498
G1 X112.825 Y91.897 E6.03938
G1 X117.103 Y96.175 E6.40543
G1 X116.368 Y96.175 E6.4499
G1 X112.825 Y92.632 E6.75304
G1 X112.825 Y93.368 E6.79752
G1 X115.632 Y96.175 E7.03777
G1 X114.897 Y96.175 E7.08224
G1 X112.825 Y94.103 E7.2596
G1 X112.825 Y94.838 E7.30407
G1 X114.162 Y96.175 E7.41853
G1 X113.427 Y96.175 E7.463
G1 X112.6 Y95.348 E7.53382
M204 S2500
G1 E6.13382 F4800
;WIPE_START
G1 F5760
G1 X113.109 Y95.857 E5.56382
;WIPE_END
G1 E5.53382 F4800
G92 E0
G1 X112.5 Y91.15 F7200
G1 E2 F4800
M204 S2000
;TYPE:Gap fill
;WIDTH:0.760356
G1 F3000
G1 X112.5 Y88.85 E2.18747
M204 S2500
G1 E.78747 F4800
;WIPE_START
G1 F5760
G1 X112.5 Y89.57 E.21747
;WIPE_END
G1 E.18747 F4800
G92 E0
G1 X158.388 Y76.6 F7200
G1 E2 F4800
M204 S2000
;TYPE:Solid infill
;WIDTH:0.560807
G1 F3000
G1 X159.175 Y77.387 E2.0649
G1 X159.175 Y78.095 E2.10618
G1 X157.905 Y76.825 E2.2109
G1 X157.197 Y76.825 E2.25218
G1 X159.175 Y78.803 E2.41528
G1 X159.175 Y79.511 E2.45656
G1 X156.489 Y76.825 E2.67803
G1 X155.78 Y76.825 E2.7193
G1 X159.175 Y80.22 E2.99915
G1 X159.175 Y80.928 E3.04043
G1 X155.072 Y76.825 E3.37864
G1 X154.364 Y76.825 E3.41992
G1 X159.175 Y81.636 E3.81651
G1 X159.175 Y82.344 E3.85779
G1 X153.656 Y76.825 E4.31275
G1 X152.948 Y76.825 E4.35402
G1 X159.175 Y83.052 E4.86736
G1 X159.175 Y83.76 E4.90864
G1 X152.24 Y76.825 E5.48034
G1 X151.532 Y76.825 E5.52162
G1 X159.175 Y84.468 E6.1517
G1 X159.175 Y85.176 E6.19298
G1 X150.824 Y76.825 E6.88143
G1 X150.115 Y76.825 E6.92271
G1 X159.175 Y85.885 E7.66953
G1 X159.175 Y86.593 E7.71081
G1 X149.407 Y76.825 E8.516
G1 X148.699 Y76.825 E8.55728
G1 X159.175 Y87.301 E9.42085
G1 X159.175 Y88.009 E9.46213
G1 X147.991 Y76.825 E10.38407
G1 X147.283 Y76.825 E10.42535
G1 X159.175 Y88.717 E11.40566
G1 X159.175 Y89.425 E11.44694
G1 X146.575 Y76.825 E12.48563
G1 X145.867 Y76.825 E12.5269
G1 X159.175 Y90.133 E13.62396
G1 X159.175 Y90.841 E13.66524
G1 X145.159 Y76.825 E14.82067
G1 X144.45 Y76.825 E14.86195
G1 X159.175 Y91.55 E16.07575
G1 X159.175 Y92.258 E16.11703
G1 X143.742 Y76.825 E17.38921
G1 X143.034 Y76.825 E17.43048
G1 X159.175 Y92.966 E18.76103
G1 X159.175 Y93.674 E18.80231
G1 X142.326 Y76.825 E20.19123
G1 X141.618 Y76.825 E20.23251
G1 X159.175 Y94.382 E21.67981
G1 X159.175 Y95.09 E21.72108
G1 X140.91 Y76.825 E23.22675
G1 X140.202 Y76.825 E23.26803
G1 X159.175 Y95.798 E24.83207
G1 X159.175 Y96.506 E24.87334
G1 X139.494 Y76.825 E26.49576
G1 X138.786 Y76.825 E26.53703
G1 X159.175 Y97.214 E28.21782
G1 X159.175 Y97.923 E28.25909
G1 X138.077 Y76.825 E29.99825
G1 X137.369 Y76.825 E30.03953
G1 X159.175 Y98.631 E31.83706
G1 X159.175 Y99.339 E31.87834
G1 X136.661 Y76.825 E33.73424
G1 X135.953 Y76.825 E33.77551
G1 X159.175 Y100.047 E35.68979
G1 X159.175 Y100.755 E35.73107
G1 X135.245 Y76.825 E37.70372
G1 X134.537 Y76.825 E37.74499
G1 X159.175 Y101.463 E39.77601
G1 X159.175 Y102.171 E39.81729
G1 X133.829 Y76.825 E41.90668
G1 X133.121 Y76.825 E41.94796
G1 X159.175 Y102.879 E44.09572
G1 X159.175 Y103.588 E44.137
G1 X132.412 Y76.825 E46.34314
G1 X131.704 Y76.825 E46.38441
G1 X159.175 Y104.296 E48.64893
G1 X159.175 Y105.004 E48.6902
G1 X130.996 Y76.825 E51.01309
G1 X130.288 Y76.825 E51.05436
G1 X159.175 Y105.712 E53.43562
G1 X159.175 Y106.42 E53.47689
G1 X129.58 Y76.825 E55.91652
G1 X128.872 Y76.825 E55.9578
G1 X159.175 Y107.128 E58.4558
G1 X159.175 Y107.836 E58.49708
G1 X128.164 Y76.825 E61.05345
G1 X127.456 Y76.825 E61.09472
G1 X159.175 Y108.544 E63.70947
G1 X159.175 Y109.253 E63.75075
G1 X126.747 Y76.825 E66.42387
G1 X126.039 Y76.825 E66.46514
G1 X159.175 Y109.961 E69.19663
G1 X159.175 Y110.669 E69.23791
G1 X125.331 Y76.825 E72.02777
G1 X124.623 Y76.825 E72.06905
G1 X159.175 Y111.377 E74.91729
G1 X159.175 Y112.085 E74.95856
G1 X123.915 Y76.825 E77.86517
G1 X123.207 Y76.825 E77.90645
G1 X159.175 Y112.793 E80.87143
G1 X159.175 Y113.501 E80.9127
G1 X122.499 Y76.825 E83.93606
G1 X121.791 Y76.825 E83.97733
G1 X159.175 Y114.209 E87.05906
G1 X159.175 Y114.918 E87.10034
G1 X121.082 Y76.825 E90.24044
G1 X120.374 Y76.825 E90.28171
G1 X131.725 Y88.175 E91.21737
G1 X131.017 Y88.175 E91.25865
G1 X119.666 Y76.825 E92.1943
G1 X118.958 Y76.825 E92.23558
G1 X130.309 Y88.175 E93.17124
G1 X129.601 Y88.175 E93.21251
G1 X118.25 Y76.825 E94.14817
G1 X117.542 Y76.825 E94.18945
G1 X121.892 Y81.175 E94.54807
G1 X121.184 Y81.175 E94.58935
G1 X116.834 Y76.825 E94.94798
G1 X116.126 Y76.825 E94.98925
G1 X120.476 Y81.175 E95.34788
G1 X119.768 Y81.175 E95.38916
G1 X115.417 Y76.825 E95.74779
G1 X114.709 Y76.825 E95.78906
G1 X119.06 Y81.175 E96.14769
G1 X118.352 Y81.175 E96.18896
G1 X114.001 Y76.825 E96.54759
G1 X113.293 Y76.825 E96.58887
G1 X117.644 Y81.175 E96.9475
G1 X116.936 Y81.175 E96.98877
G1 X112.585 Y76.825 E97.3474
G1 X111.877 Y76.825 E97.38868
G1 X116.227 Y81.175 E97.7473
G1 X115.519 Y81.175 E97.78858
G1 X111.169 Y76.825 E98.14721
G1 X110.461 Y76.825 E98.18848
G1 X114.811 Y81.175 E98.54711
G1 X114.103 Y81.175 E98.58839
G1 X109.753 Y76.825 E98.94702
G1 X109.044 Y76.825 E98.98829
G1 X113.395 Y81.175 E99.34692
G1 X112.687 Y81.175 E99.38819
G1 X108.336 Y76.825 E99.74682
G1 X107.628 Y76.825 E99.7881
G1 X112.175 Y81.372 E100.16293
G1 X112.175 Y82.08 E100.20421
G1 X106.92 Y76.825 E100.63741
G1 X106.212 Y76.825 E100.67869
G1 X112.175 Y82.788 E101.17027
G1 X112.175 Y83.496 E101.21154
G1 X105.504 Y76.825 E101.7615
G1 X104.796 Y76.825 E101.80277
G1 X112.175 Y84.204 E102.41109
G1 X112.175 Y84.912 E102.45237
G1 X104.088 Y76.825 E103.11907
G1 X103.379 Y76.825 E103.16034
G1 X112.175 Y85.621 E103.88541
G1 X112.175 Y86.329 E103.92669
G1 X102.671 Y76.825 E104.71013
G1 X101.963 Y76.825 E104.7514
G1 X112.175 Y87.037 E105.59322
G1 X112.175 Y87.745 E105.63449
G1 X101.255 Y76.825 E106.53468
G1 X100.547 Y76.825 E106.57596
G1 X111.897 Y88.175 E107.51161
G1 X111.189 Y88.175 E107.55289
G1 X99.839 Y76.825 E108.48855
G1 X99.131 Y76.825 E108.52982
G1 X110.481 Y88.175 E109.46548
G1 X109.773 Y88.175 E109.50676
G1 X98.423 Y76.825 E110.44241
G1 X97.714 Y76.825 E110.48369
G1 X109.065 Y88.175 E111.41935
G1 X108.357 Y88.175 E111.46062
G1 X97.006 Y76.825 E112.39628
G1 X96.298 Y76.825 E112.43756
G1 X107.649 Y88.175 E113.37321
G1 X106.941 Y88.175 E113.41449
G1 X95.59 Y76.825 E114.35015
G1 X94.882 Y76.825 E114.39142
G1 X106.232 Y88.175 E115.32708
G1 X105.524 Y88.175 E115.36836
G1 X94.174 Y76.825 E116.30401
G1 X93.466 Y76.825 E116.34529
G1 X104.816 Y88.175 E117.28095
G1 X104.108 Y88.175 E117.32222
G1 X92.758 Y76.825 E118.25788
G1 X92.049 Y76.825 E118.29916
G1 X103.4 Y88.175 E119.23482
G1 X102.692 Y88.175 E119.27609
G1 X91.341 Y76.825 E120.21175
G1 X90.633 Y76.825 E120.25302
G1 X102.175 Y88.367 E121.20447
G1 X102.175 Y89.075 E121.24575
G1 X89.925 Y76.825 E122.25556
G1 X89.217 Y76.825 E122.29684
G1 X102.175 Y89.783 E123.36503
G1 X102.175 Y90.491 E123.40631
G1 X88.509 Y76.825 E124.53287
G1 X87.801 Y76.825 E124.57415
G1 X102.175 Y91.199 E125.75908
G1 X102.175 Y91.907 E125.80036
G1 X87.093 Y76.825 E127.04367
G1 X86.384 Y76.825 E127.08494
G1 X102.175 Y92.616 E128.38662
G1 X102.175 Y93.324 E128.4279
G1 X85.676 Y76.825 E129.78795
G1 X84.968 Y76.825 E129.82923
G1 X102.175 Y94.032 E131.24765
G1 X102.175 Y94.74 E131.28893
G1 X84.26 Y76.825 E132.76573
G1 X83.552 Y76.825 E132.807
G1 X102.175 Y95.448 E134.34217
G1 X102.175 Y96.156 E134.38345
G1 X82.844 Y76.825 E135.97699
G1 X82.136 Y76.825 E136.01827
G1 X102.175 Y96.864 E137.67019
G1 X102.175 Y97.572 E137.71146
G1 X81.203 Y76.6 E139.44029
M204 S2500
G1 E138.04029 F4800
;WIPE_START
G1 F5760
G1 X81.712 Y77.109 E137.47029
;WIPE_END
G1 E137.44029 F4800
G92 E0
G1 X122.6 Y81.883 F7200
G1 E2 F4800
M204 S2000
G1 F3000
G1 X128.892 Y88.175 E2.51872
G1 X128.184 Y88.175 E2.55999
G1 X122.825 Y82.816 E3.0018
G1 X122.825 Y83.524 E3.04307
G1 X127.476 Y88.175 E3.4265
G1 X126.768 Y88.175 E3.46778
G1 X122.825 Y84.232 E3.79284
G1 X122.825 Y84.94 E3.83411
G1 X126.06 Y88.175 E4.1008
G1 X125.352 Y88.175 E4.14207
G1 X122.825 Y85.648 E4.35038
G1 X122.825 Y86.356 E4.39166
G1 X124.644 Y88.175 E4.5416
G1 X123.936 Y88.175 E4.58287
G1 X122.825 Y87.064 E4.67444
G1 X122.825 Y87.773 E4.71572
G1 X123.452 Y88.4 E4.76746
M204 S2500
G1 E3.36746 F4800
;WIPE_START
G1 F5760
G1 X122.943 Y87.891 E2.79746
;WIPE_END
G1 E2.76746 F4800
G92 E0
G1 X132.6 Y89.05 F7200
G1 E2 F4800
M204 S2000
G1 F3000
G1 X159.175 Y115.626 E4.19069
G1 X159.175 Y116.334 E4.23197
G1 X132.825 Y89.983 E6.40412
G1 X132.825 Y90.691 E6.4454
G1 X159.175 Y117.042 E8.61755
G1 X159.175 Y117.75 E8.65882
G1 X132.825 Y91.399 E10.83097
G1 X132.825 Y92.108 E10.87225
G1 X159.175 Y118.458 E13.0444
G1 X159.175 Y119.166 E13.08568
G1 X132.825 Y92.816 E15.25783
G1 X132.825 Y93.524 E15.2991
G1 X159.175 Y119.874 E17.47125
G1 X159.175 Y120.583 E17.51253
G1 X132.825 Y94.232 E19.68468
G1 X132.825 Y94.94 E19.72595
G1 X159.175 Y121.291 E21.8981
G1 X159.175 Y121.999 E21.93938
G1 X132.825 Y95.648 E24.11153
G1 X132.825 Y96.356 E24.15281
G1 X159.175 Y122.707 E26.32496
G1 X159.175 Y123.415 E26.36623
G1 X152.825 Y117.064 E26.88973
G1 X152.825 Y117.773 E26.931
G1 X159.175 Y124.123 E27.4545
G1 X159.175 Y124.831 E27.49577
G1 X152.825 Y118.481 E28.01927
G1 X152.825 Y119.189 E28.06054
G1 X159.175 Y125.539 E28.58403
