; generated by PrusaSlicer 2.5.2+win64 on 2024-05-13 at 12:47:58 UTC
; Postprocessed by [ArcWelder](https://github.com/FormerLurker/ArcWelderLib)
; Copyright(C) 2021 - Brad Hochgesang
; Version: 1.2.0, Branch: HEAD, BuildDate: 2021-11-21T20:25:43Z
; resolution=0.05mm
; path_tolerance=5.0%
; max_radius=9999.00mm
; default_xyz_precision=3
; default_e_precision=5
; extrusion_rate_variance_percent=5.0%


; 

; external perimeters extrusion width = 0.45mm
; perimeters extrusion width = 0.40mm
; infill extrusion width = 0.45mm
; solid infill extrusion width = 0.50mm
; top infill extrusion width = 0.45mm
; support material extrusion width = 0.42mm
; first layer extrusion width = 0.56mm

M201 X2500 Y2500 Z800 E2500 ; sets maximum accelerations, mm/sec^2
M203 X300 Y250 Z8 E80 ; sets maximum feedrates, mm / sec
M204 P2500 R2500 T2500 ; sets acceleration (P, T) and retract acceleration (R), mm/sec^2
M205 X15.00 Y10.00 Z2.00 E10.00 ; sets the jerk limits, mm/sec
M205 S0 T0 ; sets the minimum extruding and travel feed rate, mm/sec
M107
;TYPE:Custom
G90 ; use absolute coordinates
M83 ; extruder relative mode
M104 S215 ; set extruder temp
M140 S60 ; set bed temp
M190 S60 ; wait for bed temp
M109 S215 ; wait for extruder temp
G28                                        ; move X/Y/Z to min endstops
G1 Z0.28                                   ; lift nozzle a bit 
G92 E0 
G1 Y3 F1800                                    ; zero the extruded length 
G1 X60  E25 F500                       ; Extrude 25mm of filament in a 5cm line. 
G92 E0                                     ; zero the extruded length again 
G1 E-2 F500                                ; Retract a little 
G1 X70 F4000                              ; Quickly wipe away from the filament line
M117
G21 ; set units to millimeters
G90 ; use absolute coordinates
M82 ; use absolute distances for extrusion
G92 E0
M107
;LAYER_CHANGE
;Z:0.28
;HEIGHT:0.28
; BEFORE_LAYER_CHANGE 0 @ 0.28mm
G1 E-2 F4800
G92 E0
G1 Z.28 F7200
; AFTER_LAYER_CHANGE 0 @ 0.28mm
G1 X94.116 Y114.052
G1 E2 F4800
M204 S2000
;TYPE:Support material
;WIDTH:0.56
G1 F3000
G1 X94.3 Y114.104 E2.01115
G1 X94.471 Y114.191 E2.02231
G1 X94.621 Y114.311 E2.03347
G1 X94.744 Y114.458 E2.04462
G1 X94.836 Y114.626 E2.05577
G1 X94.892 Y114.809 E2.06694
G1 X94.912 Y115.003 E2.07828
G1 X94.902 Y115.138 E2.08613
G1 X94.853 Y115.329 E2.09762
G1 X94.77 Y115.502 E2.10878
G1 X94.654 Y115.655 E2.11993
G1 X94.511 Y115.782 E2.13109
G1 X94.345 Y115.877 E2.14224
G1 X94.163 Y115.938 E2.1534
G1 X93.973 Y115.962 E2.16455
G1 X93.781 Y115.948 E2.17571
G1 X93.597 Y115.896 E2.18686
G1 X93.426 Y115.809 E2.19802
G1 X93.276 Y115.689 E2.20917
G1 X93.153 Y115.542 E2.22033
G1 X93.062 Y115.374 E2.23148
G1 X93.005 Y115.191 E2.24264
G1 X92.986 Y115 E2.25381
G1 X93.005 Y114.806 E2.26514
G1 X93.042 Y114.676 E2.273
G1 X93.127 Y114.498 E2.28449
G1 X93.243 Y114.345 E2.29564
G1 X93.387 Y114.218 E2.3068
G1 X93.553 Y114.123 E2.31795
G1 X93.734 Y114.062 E2.32911
G1 X93.925 Y114.038 E2.34026
G1 X94.041 Y114.046 E2.34705
M204 S2500
G1 X94.448 Y115.537 F7200
M204 S2000
G1 F3000
G1 X94.448 Y114.896 E2.38432
G1 X94.419 Y114.802 E2.39007
G1 X94.305 Y114.635 E2.40184
G1 X94.226 Y114.571 E2.40776
G1 X94.037 Y114.497 E2.41953
G1 X93.893 Y114.495 E2.42795
G1 X93.893 Y115.731 E2.49985
M204 S2500
G1 E1.09985 F4800
;WIPE_START
G1 F5760
G1 X93.893 Y115.011 E.52985
;WIPE_END
G1 E.49985 F4800
G92 E0
G1 X105.384 Y118.047 F7200
G1 E2 F4800
M204 S2000
;TYPE:Support material interface
;WIDTH:0.42
G1 F3000
G1 X105.384 Y117.751 E2.01241
G1 X105.762 Y117.561 E2.03009
G1 X105.762 Y117.877 E2.04334
G1 X106.139 Y117.877 E2.05914
G1 X106.139 Y117.372 E2.08032
G1 X106.516 Y117.182 E2.098
G1 X106.516 Y117.877 E2.12712
G1 X106.893 Y117.877 E2.14292
G1 X106.893 Y116.993 E2.17997
G1 X107.27 Y116.803 E2.19766
G1 X107.27 Y117.877 E2.24265
G1 X107.647 Y117.877 E2.25845
G1 X107.647 Y116.406 E2.32008
G1 X108.024 Y115.969 E2.34426
G1 X108.024 Y117.877 E2.4242
G1 X108.401 Y117.877 E2.43999
G1 X108.401 Y112.123 E2.68108
G1 X108.778 Y112.123 E2.69688
G1 X108.778 Y117.877 E2.93797
G1 X109.155 Y117.877 E2.95377
G1 X109.155 Y112.123 E3.19485
G1 X109.532 Y112.123 E3.21065
G1 X109.532 Y117.877 E3.45174
G1 X109.909 Y117.877 E3.46754
G1 X109.909 Y112.123 E3.70862
G1 X110.286 Y112.123 E3.72442
G1 X110.286 Y117.877 E3.96551
G1 X110.664 Y117.877 E3.98131
G1 X110.664 Y112.123 E4.22239
G1 X111.041 Y112.123 E4.23819
G1 X111.041 Y117.877 E4.47928
G1 X111.418 Y117.877 E4.49508
G1 X111.418 Y112.123 E4.73616
G1 X111.795 Y112.123 E4.75196
G1 X111.795 Y117.877 E4.99305
G1 X112.172 Y117.877 E5.00885
G1 X112.172 Y112.123 E5.24994
G1 X112.549 Y112.123 E5.26573
G1 X112.549 Y117.877 E5.50682
G1 X112.926 Y117.877 E5.52262
G1 X112.926 Y112.123 E5.76371
G1 X113.303 Y112.123 E5.77951
G1 X113.303 Y117.877 E6.02059
G1 X113.68 Y117.877 E6.03639
G1 X113.68 Y112.123 E6.27748
G1 X114.057 Y112.123 E6.29328
G1 X114.057 Y117.877 E6.53436
G1 X114.434 Y117.877 E6.55016
G1 X114.434 Y112.123 E6.79125
G1 X114.811 Y112.123 E6.80705
G1 X114.811 Y118.047 E7.05524
M204 S2500
G1 E5.65524 F4800
;WIPE_START
G1 F5760
G1 X114.811 Y117.327 E5.08524
;WIPE_END
G1 E5.05524 F4800
G92 E0
G1 X108.024 Y114.249 F7200
G1 E2 F4800
M204 S2000
G1 F3000
G1 X108.024 Y112.123 E2.0891
G1 X107.647 Y112.123 E2.1049
G1 X107.647 Y113.573 E2.16567
G1 X107.27 Y113.311 E2.18492
G1 X107.27 Y112.123 E2.23469
G1 X106.893 Y112.123 E2.25049
G1 X106.893 Y113.048 E2.28927
G1 X106.516 Y112.786 E2.30852
G1 X106.516 Y112.123 E2.33629
G1 X106.139 Y112.123 E2.35209
G1 X106.139 Y112.558 E2.37031
G1 X105.762 Y112.411 E2.38726
G1 X105.762 Y112.123 E2.39933
G1 X105.384 Y112.123 E2.41513
G1 X105.384 Y112.446 E2.42868
M204 S2500
G1 E1.02868 F4800
;WIPE_START
G1 F5760
G1 X105.384 Y112.123 E.77261
G1 X105.762 Y112.123 E.47409
G1 X105.762 Y112.142 E.45868
;WIPE_END
G1 E.42868 F4800
G92 E0
G1 X201.344 Y120.786 F7200
G1 E2 F4800
M204 S2000
;TYPE:Support material
;WIDTH:0.56
G1 F3000
G1 X112.469 Y120.786 E7.17208
G1 X112.469 Y118.346 E7.31406
G1 X115.469 Y118.346 E7.48865
G1 X115.469 Y111.654 E7.87806
G1 X112.469 Y111.654 E8.05264
G1 X112.469 Y109.214 E8.19463
G1 X201.344 Y109.214 E13.36671
G1 X201.344 Y120.711 E14.03572
M204 S2500
G1 X200.54 Y120.561 F7200
M204 S2000
G1 F3000
G1 X200.54 Y109.664 E14.66982
G1 X199.985 Y109.664 E14.70214
G1 X199.985 Y120.336 E15.32316
G1 X199.429 Y120.336 E15.35548
G1 X199.429 Y109.664 E15.97649
G1 X198.874 Y109.664 E16.00881
G1 X198.874 Y120.336 E16.62982
G1 X198.319 Y120.336 E16.66215
G1 X198.319 Y109.664 E17.28316
G1 X197.763 Y109.664 E17.31548
G1 X197.763 Y120.336 E17.93649
G1 X197.208 Y120.336 E17.96882
G1 X197.208 Y109.664 E18.58983
G1 X196.652 Y109.664 E18.62215
G1 X196.652 Y120.336 E19.24316
G1 X196.097 Y120.336 E19.27549
G1 X196.097 Y109.664 E19.8965
G1 X195.541 Y109.664 E19.92882
G1 X195.541 Y120.336 E20.54983
G1 X194.986 Y120.336 E20.58216
G1 X194.986 Y109.664 E21.20317
G1 X194.43 Y109.664 E21.23549
G1 X194.43 Y120.336 E21.8565
G1 X193.875 Y120.336 E21.88883
G1 X193.875 Y109.664 E22.50984
G1 X193.319 Y109.664 E22.54216
G1 X193.319 Y120.336 E23.16317
G1 X192.764 Y120.336 E23.1955
G1 X192.764 Y109.664 E23.81651
G1 X192.209 Y109.664 E23.84883
G1 X192.209 Y120.336 E24.46984
G1 X191.653 Y120.336 E24.50217
G1 X191.653 Y109.664 E25.12318
G1 X191.098 Y109.664 E25.1555
G1 X191.098 Y120.336 E25.77651
G1 X190.542 Y120.336 E25.80884
G1 X190.542 Y109.664 E26.42985
G1 X189.987 Y109.664 E26.46217
G1 X189.987 Y120.336 E27.08318
G1 X189.431 Y120.336 E27.11551
G1 X189.431 Y109.664 E27.73652
G1 X188.876 Y109.664 E27.76884
G1 X188.876 Y120.336 E28.38985
G1 X188.32 Y120.336 E28.42218
G1 X188.32 Y109.664 E29.04319
G1 X187.765 Y109.664 E29.07551
G1 X187.765 Y120.336 E29.69652
G1 X187.209 Y120.336 E29.72885
G1 X187.209 Y109.664 E30.34986
G1 X186.654 Y109.664 E30.38218
G1 X186.654 Y120.336 E31.00319
G1 X186.098 Y120.336 E31.03552
G1 X186.098 Y109.664 E31.65653
G1 X185.543 Y109.664 E31.68885
G1 X185.543 Y120.336 E32.30986
G1 X184.988 Y120.336 E32.34219
G1 X184.988 Y109.664 E32.9632
G1 X184.432 Y109.664 E32.99552
G1 X184.432 Y120.336 E33.61653
G1 X183.877 Y120.336 E33.64886
G1 X183.877 Y109.664 E34.26987
G1 X183.321 Y109.664 E34.30219
G1 X183.321 Y120.336 E34.9232
G1 X182.766 Y120.336 E34.95553
G1 X182.766 Y109.664 E35.57654
G1 X182.21 Y109.664 E35.60886
G1 X182.21 Y120.336 E36.22987
G1 X181.655 Y120.336 E36.2622
G1 X181.655 Y109.664 E36.88321
G1 X181.099 Y109.664 E36.91553
G1 X181.099 Y120.336 E37.53654
G1 X180.544 Y120.336 E37.56887
G1 X180.544 Y109.664 E38.18988
G1 X179.988 Y109.664 E38.2222
G1 X179.988 Y120.336 E38.84321
G1 X179.433 Y120.336 E38.87554
G1 X179.433 Y109.664 E39.49655
G1 X178.878 Y109.664 E39.52887
G1 X178.878 Y120.336 E40.14988
G1 X178.322 Y120.336 E40.18221
G1 X178.322 Y109.664 E40.80322
G1 X177.767 Y109.664 E40.83554
G1 X177.767 Y120.336 E41.45655
G1 X177.211 Y120.336 E41.48888
G1 X177.211 Y109.664 E42.10989
G1 X176.656 Y109.664 E42.14221
G1 X176.656 Y120.336 E42.76322
G1 X176.1 Y120.336 E42.79555
G1 X176.1 Y109.664 E43.41656
G1 X175.545 Y109.664 E43.44888
G1 X175.545 Y120.336 E44.06989
G1 X174.989 Y120.336 E44.10222
G1 X174.989 Y109.664 E44.72323
G1 X174.434 Y109.664 E44.75555
G1 X174.434 Y120.336 E45.37656
G1 X173.878 Y120.336 E45.40889
G1 X173.878 Y109.664 E46.0299
G1 X173.323 Y109.664 E46.06222
G1 X173.323 Y120.336 E46.68323
G1 X172.768 Y120.336 E46.71556
G1 X172.768 Y109.664 E47.33657
G1 X172.212 Y109.664 E47.36889
G1 X172.212 Y120.336 E47.9899
G1 X171.657 Y120.336 E48.02223
G1 X171.657 Y109.664 E48.64324
G1 X171.101 Y109.664 E48.67556
G1 X171.101 Y120.336 E49.29657
G1 X170.546 Y120.336 E49.3289
G1 X170.546 Y109.664 E49.94991
G1 X169.99 Y109.664 E49.98223
G1 X169.99 Y120.336 E50.60324
G1 X169.435 Y120.336 E50.63557
G1 X169.435 Y109.664 E51.25658
G1 X168.879 Y109.664 E51.2889
G1 X168.879 Y120.336 E51.90991
G1 X168.324 Y120.336 E51.94223
G1 X168.324 Y109.664 E52.56325
G1 X167.768 Y109.664 E52.59557
G1 X167.768 Y120.336 E53.21658
G1 X167.213 Y120.336 E53.2489
G1 X167.213 Y109.664 E53.86991
G1 X166.658 Y109.664 E53.90224
G1 X166.658 Y120.336 E54.52325
G1 X166.102 Y120.336 E54.55557
G1 X166.102 Y109.664 E55.17658
G1 X165.547 Y109.664 E55.20891
G1 X165.547 Y120.336 E55.82992
G1 X164.991 Y120.336 E55.86224
G1 X164.991 Y109.664 E56.48325
G1 X164.436 Y109.664 E56.51558
G1 X164.436 Y120.336 E57.13659
G1 X163.88 Y120.336 E57.16891
G1 X163.88 Y109.664 E57.78992
G1 X163.325 Y109.664 E57.82225
G1 X163.325 Y120.336 E58.44326
G1 X162.769 Y120.336 E58.47558
G1 X162.769 Y109.664 E59.09659
G1 X162.214 Y109.664 E59.12892
G1 X162.214 Y120.336 E59.74993
G1 X161.658 Y120.336 E59.78225
G1 X161.658 Y109.664 E60.40326
G1 X161.103 Y109.664 E60.43559
G1 X161.103 Y120.336 E61.0566
G1 X160.547 Y120.336 E61.08892
G1 X160.547 Y109.664 E61.70993
G1 X159.992 Y109.664 E61.74226
G1 X159.992 Y120.336 E62.36327
G1 X159.437 Y120.336 E62.39559
G1 X159.437 Y109.664 E63.0166
G1 X158.881 Y109.664 E63.04893
G1 X158.881 Y120.336 E63.66994
G1 X158.326 Y120.336 E63.70226
G1 X158.326 Y109.664 E64.32327
G1 X157.77 Y109.664 E64.3556
G1 X157.77 Y120.336 E64.97661
G1 X157.215 Y120.336 E65.00893
G1 X157.215 Y109.664 E65.62994
G1 X156.659 Y109.664 E65.66227
G1 X156.659 Y120.336 E66.28328
G1 X156.104 Y120.336 E66.3156
G1 X156.104 Y109.664 E66.93661
G1 X155.548 Y109.664 E66.96894
G1 X155.548 Y120.336 E67.58995
G1 X154.993 Y120.336 E67.62227
G1 X154.993 Y109.664 E68.24328
G1 X154.437 Y109.664 E68.27561
G1 X154.437 Y120.336 E68.89662
G1 X153.882 Y120.336 E68.92894
G1 X153.882 Y109.664 E69.54995
G1 X153.327 Y109.664 E69.58228
G1 X153.327 Y120.336 E70.20329
G1 X152.771 Y120.336 E70.23561
G1 X152.771 Y109.664 E70.85662
G1 X152.216 Y109.664 E70.88895
G1 X152.216 Y120.336 E71.50996
G1 X151.66 Y120.336 E71.54228
G1 X151.66 Y109.664 E72.16329
G1 X151.105 Y109.664 E72.19562
G1 X151.105 Y120.336 E72.81663
G1 X150.549 Y120.336 E72.84895
G1 X150.549 Y109.664 E73.46996
G1 X149.994 Y109.664 E73.50229
G1 X149.994 Y120.336 E74.1233
G1 X149.438 Y120.336 E74.15562
G1 X149.438 Y109.664 E74.77663
G1 X148.883 Y109.664 E74.80896
G1 X148.883 Y120.336 E75.42997
G1 X148.327 Y120.336 E75.46229
G1 X148.327 Y109.664 E76.0833
G1 X147.772 Y109.664 E76.11563
G1 X147.772 Y120.336 E76.73664
G1 X147.217 Y120.336 E76.76896
G1 X147.217 Y109.664 E77.38997
G1 X146.661 Y109.664 E77.4223
G1 X146.661 Y120.336 E78.04331
G1 X146.106 Y120.336 E78.07563
G1 X146.106 Y109.664 E78.69664
G1 X145.55 Y109.664 E78.72897
G1 X145.55 Y120.336 E79.34998
G1 X144.995 Y120.336 E79.3823
G1 X144.995 Y109.664 E80.00331
G1 X144.439 Y109.664 E80.03564
G1 X144.439 Y120.336 E80.65665
G1 X143.884 Y120.336 E80.68897
G1 X143.884 Y109.664 E81.30998
G1 X143.328 Y109.664 E81.34231
G1 X143.328 Y120.336 E81.96332
G1 X142.773 Y120.336 E81.99564
G1 X142.773 Y109.664 E82.61665
G1 X142.217 Y109.664 E82.64898
G1 X142.217 Y120.336 E83.26999
G1 X141.662 Y120.336 E83.30231
G1 X141.662 Y109.664 E83.92332
G1 X141.106 Y109.664 E83.95565
G1 X141.106 Y120.336 E84.57666
G1 X140.551 Y120.336 E84.60898
G1 X140.551 Y109.664 E85.22999
G1 X139.996 Y109.664 E85.26232
G1 X139.996 Y120.336 E85.88333
G1 X139.44 Y120.336 E85.91565
G1 X139.44 Y109.664 E86.53666
G1 X138.885 Y109.664 E86.56899
G1 X138.885 Y120.336 E87.19
G1 X138.329 Y120.336 E87.22232
G1 X138.329 Y109.664 E87.84333
G1 X137.774 Y109.664 E87.87566
G1 X137.774 Y120.336 E88.49667
G1 X137.218 Y120.336 E88.52899
G1 X137.218 Y109.664 E89.15
G1 X136.663 Y109.664 E89.18232
G1 X136.663 Y120.336 E89.80334
G1 X136.107 Y120.336 E89.83566
G1 X136.107 Y109.664 E90.45667
G1 X135.552 Y109.664 E90.48899
G1 X135.552 Y120.336 E91.11
G1 X134.996 Y120.336 E91.14233
G1 X134.996 Y109.664 E91.76334
G1 X134.441 Y109.664 E91.79566
G1 X134.441 Y120.336 E92.41667
G1 X133.886 Y120.336 E92.449
G1 X133.886 Y109.664 E93.07001
G1 X133.33 Y109.664 E93.10233
G1 X133.33 Y120.336 E93.72334
G1 X132.775 Y120.336 E93.75567
G1 X132.775 Y109.664 E94.37668
G1 X132.219 Y109.664 E94.409
G1 X132.219 Y120.336 E95.03001
G1 X131.664 Y120.336 E95.06234
G1 X131.664 Y109.664 E95.68335
G1 X131.108 Y109.664 E95.71567
G1 X131.108 Y120.336 E96.33668
G1 X130.553 Y120.336 E96.36901
G1 X130.553 Y109.664 E96.99002
G1 X129.997 Y109.664 E97.02234
G1 X129.997 Y120.336 E97.64335
G1 X129.442 Y120.336 E97.67568
G1 X129.442 Y109.664 E98.29669
G1 X128.886 Y109.664 E98.32901
G1 X128.886 Y120.336 E98.95002
G1 X128.331 Y120.336 E98.98235
G1 X128.331 Y109.664 E99.60336
G1 X127.776 Y109.664 E99.63568
G1 X127.776 Y120.336 E100.25669
G1 X127.22 Y120.336 E100.28902
G1 X127.22 Y109.664 E100.91003
G1 X126.665 Y109.664 E100.94235
G1 X126.665 Y120.336 E101.56336
G1 X126.109 Y120.336 E101.59569
G1 X126.109 Y109.664 E102.2167
G1 X125.554 Y109.664 E102.24902
G1 X125.554 Y120.336 E102.87003
G1 X124.998 Y120.336 E102.90236
G1 X124.998 Y109.664 E103.52337
G1 X124.443 Y109.664 E103.55569
G1 X124.443 Y120.336 E104.1767
G1 X123.887 Y120.336 E104.20903
G1 X123.887 Y109.664 E104.83004
G1 X123.332 Y109.664 E104.86236
G1 X123.332 Y120.336 E105.48337
G1 X122.776 Y120.336 E105.5157
G1 X122.776 Y109.664 E106.13671
G1 X122.221 Y109.664 E106.16903
G1 X122.221 Y120.336 E106.79004
G1 X121.665 Y120.336 E106.82237
G1 X121.665 Y109.664 E107.44338
G1 X121.11 Y109.664 E107.4757
G1 X121.11 Y120.336 E108.09671
G1 X120.555 Y120.336 E108.12904
G1 X120.555 Y109.664 E108.75005
G1 X119.999 Y109.664 E108.78237
G1 X119.999 Y120.336 E109.40338
G1 X119.444 Y120.336 E109.43571
G1 X119.444 Y109.664 E110.05672
G1 X118.888 Y109.664 E110.08904
G1 X118.888 Y120.336 E110.71005
G1 X118.333 Y120.336 E110.74238
G1 X118.333 Y109.664 E111.36339
G1 X117.777 Y109.664 E111.39571
G1 X117.777 Y120.336 E112.01672
G1 X117.222 Y120.336 E112.04905
G1 X117.222 Y109.664 E112.67006
G1 X116.666 Y109.664 E112.70238
G1 X116.666 Y120.336 E113.32339
G1 X116.111 Y120.336 E113.35572
G1 X116.111 Y109.664 E113.97673
G1 X115.555 Y109.664 E114.00905
G1 X115.555 Y111.204 E114.09867
G1 X115 Y111.204 E114.13099
G1 X115 Y109.664 E114.22061
G1 X114.445 Y109.664 E114.25294
G1 X114.445 Y111.204 E114.34255
G1 X113.889 Y111.204 E114.37488
G1 X113.889 Y109.664 E114.4645
G1 X113.334 Y109.664 E114.49682
G1 X113.334 Y111.429 E114.59953
M204 S2500
G1 E113.19953 F4800
;WIPE_START
G1 F5760
