; generated by PrusaSlicer 2.5.2+win64 on 2024-05-04 at 16:19:03 UTC
; Postprocessed by [ArcWelder](https://github.com/FormerLurker/ArcWelderLib)
; Copyright(C) 2021 - Brad Hochgesang
; Version: 1.2.0, Branch: HEAD, BuildDate: 2021-11-21T20:25:43Z
; resolution=0.05mm
; path_tolerance=5.0%
; max_radius=9999.00mm
; default_xyz_precision=3
; default_e_precision=5
; extrusion_rate_variance_percent=5.0%


; 

; external perimeters extrusion width = 0.45mm
; perimeters extrusion width = 0.40mm
; infill extrusion width = 0.45mm
; solid infill extrusion width = 0.50mm
; top infill extrusion width = 0.45mm
; support material extrusion width = 0.42mm
; first layer extrusion width = 0.56mm

M201 X2500 Y2500 Z800 E2500 ; sets maximum accelerations, mm/sec^2
M203 X300 Y250 Z8 E80 ; sets maximum feedrates, mm / sec
M204 P2500 R2500 T2500 ; sets acceleration (P, T) and retract acceleration (R), mm/sec^2
M205 X15.00 Y10.00 Z2.00 E10.00 ; sets the jerk limits, mm/sec
M205 S0 T0 ; sets the minimum extruding and travel feed rate, mm/sec
M107
;TYPE:Custom
G90 ; use absolute coordinates
M83 ; extruder relative mode
M104 S215 ; set extruder temp
M140 S60 ; set bed temp
M190 S60 ; wait for bed temp
M109 S215 ; wait for extruder temp
G28                                        ; move X/Y/Z to min endstops
G1 Z0.28                                   ; lift nozzle a bit 
G92 E0 
G1 Y3 F1800                                    ; zero the extruded length 
G1 X60  E25 F500                       ; Extrude 25mm of filament in a 5cm line. 
G92 E0                                     ; zero the extruded length again 
G1 E-2 F500                                ; Retract a little 
G1 X70 F4000                              ; Quickly wipe away from the filament line
M117
G21 ; set units to millimeters
G90 ; use absolute coordinates
M82 ; use absolute distances for extrusion
G92 E0
M107
;LAYER_CHANGE
;Z:0.28
;HEIGHT:0.28
; BEFORE_LAYER_CHANGE 0 @ 0.28mm
G1 E-2 F4800
G92 E0
G1 Z.28 F7200
; AFTER_LAYER_CHANGE 0 @ 0.28mm
G1 X103.803 Y104.343
G1 E2 F4800
M204 S2000
;TYPE:Skirt/Brim
;WIDTH:0.56
G1 F3000
G1 X104.781 Y103.459 E2.0767
G1 X105.15 Y103.201 E2.10292
G1 X106.752 Y102.534 E2.20392
G1 X107.765 Y101.473 E2.28927
G1 X108.499 Y100.985 E2.34057
G1 X110.024 Y100.4 E2.43561
G1 X110.497 Y100.289 E2.46388
G1 X112.099 Y100.287 E2.5571
G1 X113.309 Y99.758 E2.63395
G1 X113.817 Y99.62 E2.66462
G1 X116.062 Y99.608 E2.79525
G1 X116.708 Y99.761 E2.83389
G1 X117.901 Y100.287 E2.90975
G1 X119.495 Y100.289 E3.00254
G1 X119.968 Y100.4 E3.03081
G1 X121.498 Y100.987 E3.12616
G1 X122.232 Y101.475 E3.17746
G1 X123.243 Y102.534 E3.26266
G1 X124.839 Y103.199 E3.3633
G1 X125.209 Y103.457 E3.38952
G1 X126.194 Y104.348 E3.46681
G1 X126.719 Y105.111 E3.52074
G1 X127.327 Y106.676 E3.61844
G1 X128.687 Y108.035 E3.73028
G1 X128.918 Y108.384 E3.75466
G1 X129.352 Y109.245 E3.81076
G1 X129.567 Y110.187 E3.86699
G1 X129.534 Y112.074 E3.97686
G1 X130.285 Y113.814 E4.08715
G1 X130.458 Y115.249 E4.17126
G1 X130.278 Y116.202 E4.22769
G1 X129.534 Y117.926 E4.33695
G1 X129.567 Y119.813 E4.44683
G1 X129.352 Y120.755 E4.50306
G3 X128.687 Y121.965 I-5.445 J-2.205 E4.58353
G1 X127.327 Y123.324 E4.69537
G1 X126.719 Y124.889 E4.79307
G1 X126.194 Y125.652 E4.847
G1 X125.209 Y126.543 E4.9243
G1 X124.839 Y126.801 E4.95052
G1 X123.243 Y127.466 E5.05115
G1 X122.232 Y128.525 E5.13635
G1 X121.498 Y129.013 E5.18765
G1 X119.968 Y129.6 E5.283
G1 X119.495 Y129.711 E5.31127
G1 X117.897 Y129.713 E5.40431
G1 X116.688 Y130.242 E5.48109
G1 X116.184 Y130.379 E5.5115
G1 X114.136 Y130.416 E5.63067
G1 X113.32 Y130.247 E5.67917
G1 X112.098 Y129.713 E5.75677
G1 X110.551 Y129.717 E5.84681
G1 X110.056 Y129.61 E5.87631
G1 X108.499 Y129.015 E5.97328
G1 X107.765 Y128.527 E6.02457
G1 X106.752 Y127.466 E6.10993
G1 X105.15 Y126.799 E6.21093
G1 X104.781 Y126.541 E6.23715
G1 X103.803 Y125.657 E6.31384
G1 X103.278 Y124.893 E6.36778
G1 X102.668 Y123.324 E6.46576
G1 X101.302 Y121.959 E6.57811
G3 X100.428 Y119.820 I3.937 J-2.857 E6.71401
G1 X100.462 Y117.926 E6.82426
G1 X99.706 Y116.176 E6.93514
G1 X99.534 Y114.749 E7.01883
G1 X99.713 Y113.807 E7.07461
G1 X100.462 Y112.075 E7.18443
G1 X100.428 Y110.18 E7.29468
G1 X100.643 Y109.238 E7.35093
G3 X101.302 Y108.041 I5.409 J2.198 E7.43058
G1 X102.668 Y106.676 E7.54293
G1 X103.278 Y105.107 E7.64091
G1 X103.769 Y104.393 E7.69136
M204 S2500
G1 X104.16 Y104.695 F7200
M204 S2000
G1 F3000
G1 X105.103 Y103.841 E7.76538
G1 X105.412 Y103.628 E7.78717
G1 X107.04 Y102.956 E7.88972
G1 X108.108 Y101.839 E7.97964
G1 X108.704 Y101.442 E8.02133
G1 X110.186 Y100.873 E8.1137
G1 X110.58 Y100.783 E8.13721
G1 X112.202 Y100.788 E8.23163
G1 X113.491 Y100.224 E8.31348
G1 X113.914 Y100.112 E8.33896
G1 X115.979 Y100.101 E8.4591
G1 X116.529 Y100.229 E8.49196
G1 X117.797 Y100.787 E8.5726
G1 X119.413 Y100.783 E8.66664
G1 X119.806 Y100.873 E8.69015
G1 X121.293 Y101.444 E8.78283
G1 X121.89 Y101.841 E8.82452
G1 X122.955 Y102.956 E8.91428
G1 X124.578 Y103.626 E9.01646
G1 X124.886 Y103.839 E9.03826
G1 X125.837 Y104.699 E9.11288
G1 X126.264 Y105.319 E9.1567
G1 X126.9 Y106.956 E9.25889
G1 X128.285 Y108.334 E9.37258
G3 X129.067 Y110.208 I-3.506 J2.563 E9.49195
G1 X129.032 Y112.174 E9.60635
G1 X129.812 Y113.98 E9.72083
G1 X129.959 Y115.198 E9.79223
G1 X129.808 Y116.031 E9.84151
G1 X129.032 Y117.826 E9.95535
G1 X129.067 Y119.792 E10.06975
G1 X128.892 Y120.557 E10.11544
G3 X128.285 Y121.666 I-4.730 J-1.868 E10.18911
G1 X126.9 Y123.044 E10.3028
G1 X126.264 Y124.681 E10.405
G1 X125.837 Y125.301 E10.44882
G1 X124.886 Y126.161 E10.52344
G1 X124.578 Y126.374 E10.54523
G1 X122.955 Y127.044 E10.64741
G1 X121.89 Y128.159 E10.73718
G1 X121.293 Y128.556 E10.77886
G1 X119.806 Y129.127 E10.87155
G1 X119.413 Y129.217 E10.89506
G1 X117.793 Y129.212 E10.98929
G1 X116.505 Y129.776 E11.07109
G1 X116.086 Y129.888 E11.09638
G1 X114.157 Y129.915 E11.20863
G1 X113.496 Y129.779 E11.24788
G1 X112.202 Y129.212 E11.33009
G1 X110.58 Y129.217 E11.42451
G1 X110.186 Y129.127 E11.44802
G1 X108.704 Y128.558 E11.54039
G1 X108.108 Y128.161 E11.58208
G1 X107.04 Y127.044 E11.672
G1 X105.412 Y126.372 E11.77454
G1 X105.103 Y126.159 E11.79633
G1 X104.16 Y125.305 E11.87036
G1 X103.733 Y124.685 E11.91419
G1 X103.095 Y123.044 E12.01666
G1 X101.704 Y121.66 E12.13086
G3 X100.928 Y119.798 I3.520 J-2.560 E12.24942
G1 X100.963 Y117.826 E12.36419
G1 X100.179 Y116.011 E12.47927
G1 X100.033 Y114.801 E12.55022
G1 X100.184 Y113.978 E12.59887
G1 X100.963 Y112.174 E12.71328
G1 X100.928 Y110.202 E12.82805
G1 X101.103 Y109.436 E12.87375
G3 X101.704 Y108.340 I4.819 J1.929 E12.94661
G1 X103.095 Y106.956 E13.06081
G1 X103.733 Y105.315 E13.16329
G1 X104.126 Y104.744 E13.20362
M204 S2500
G1 X104.517 Y105.046 F7200
M204 S2000
G1 F3000
G1 X105.426 Y104.224 E13.27492
G1 X105.671 Y104.056 E13.29219
G1 X107.328 Y103.379 E13.39638
G1 X108.45 Y102.204 E13.49092
G1 X108.909 Y101.898 E13.523
G1 X110.347 Y101.347 E13.61264
G1 X110.66 Y101.277 E13.63127
G1 X112.305 Y101.288 E13.72701
G1 X113.672 Y100.69 E13.81387
G1 X114.008 Y100.604 E13.83406
G1 X115.898 Y100.595 E13.94404
G1 X116.35 Y100.696 E13.97101
G1 X117.693 Y101.288 E14.05643
G1 X119.333 Y101.277 E14.15183
G1 X119.645 Y101.347 E14.17046
G1 X121.088 Y101.9 E14.26042
G1 X121.547 Y102.206 E14.29249
G1 X122.667 Y103.379 E14.38687
G1 X124.319 Y104.054 E14.4907
G1 X124.564 Y104.221 E14.50797
G1 X125.48 Y105.05 E14.57987
G1 X125.808 Y105.528 E14.61358
G1 X126.473 Y107.237 E14.72031
G1 X127.885 Y108.634 E14.83595
G3 X128.566 Y110.230 I-3.103 J2.267 E14.93784
G1 X128.53 Y112.273 E15.05676
G1 X129.339 Y114.145 E15.17544
G1 X129.461 Y115.149 E15.2343
G1 X129.337 Y115.86 E15.27632
G1 X128.53 Y117.727 E15.39468
G1 X128.566 Y119.77 E15.51359
G1 X128.432 Y120.359 E15.54875
G3 X127.885 Y121.366 I-4.176 J-1.617 E15.61549
G1 X126.473 Y122.763 E15.73112
G1 X125.808 Y124.472 E15.83785
G1 X125.48 Y124.95 E15.87157
G1 X124.564 Y125.779 E15.94346
G1 X124.319 Y125.946 E15.96073
G1 X122.667 Y126.621 E16.06456
G1 X121.547 Y127.794 E16.15894
G1 X121.088 Y128.1 E16.19101
G1 X119.645 Y128.653 E16.28097
G1 X119.333 Y128.723 E16.2996
G1 X117.691 Y128.712 E16.39516
G1 X116.324 Y129.309 E16.48197
G1 X115.991 Y129.396 E16.50201
G1 X114.179 Y129.415 E16.60745
G1 X113.673 Y129.31 E16.63751
G1 X112.305 Y128.712 E16.72444
G1 X110.66 Y128.723 E16.82017
G1 X110.347 Y128.653 E16.8388
G1 X108.909 Y128.102 E16.92845
G1 X108.45 Y127.796 E16.96053
G1 X107.328 Y126.621 E17.05506
G1 X105.671 Y125.944 E17.15926
G1 X105.426 Y125.776 E17.17652
G1 X104.517 Y124.954 E17.24782
G1 X104.189 Y124.477 E17.28154
G1 X103.523 Y122.763 E17.38856
G1 X102.104 Y121.359 E17.50471
G3 X101.429 Y119.777 I3.035 J-2.230 E17.60579
G1 X101.465 Y117.727 E17.72507
G1 X100.652 Y115.846 E17.84436
G1 X100.531 Y114.85 E17.90273
G1 X100.655 Y114.149 E17.94415
G1 X101.465 Y112.273 E18.06309
G1 X101.429 Y110.223 E18.18237
G1 X101.563 Y109.634 E18.21754
G3 X102.104 Y108.641 I4.075 J1.576 E18.28346
G1 X103.523 Y107.237 E18.39961
G1 X104.189 Y105.523 E18.50662
G1 X104.483 Y105.095 E18.53685
M204 S2500
G1 X104.874 Y105.397 F7200
M204 S2000
G1 F3000
G1 X105.747 Y104.607 E18.60535
G1 X105.927 Y104.486 E18.61796
G1 X107.615 Y103.802 E18.72397
G1 X108.792 Y102.569 E18.82317
G1 X109.114 Y102.355 E18.84562
G1 X110.507 Y101.821 E18.93247
G1 X110.736 Y101.772 E18.94608
G1 X112.406 Y101.79 E19.04329
G1 X113.852 Y101.157 E19.13514
G1 X114.098 Y101.096 E19.14991
G1 X115.821 Y101.09 E19.25019
G1 X116.173 Y101.165 E19.27113
G1 X117.591 Y101.79 E19.36129
G1 X119.256 Y101.772 E19.45821
G1 X119.485 Y101.821 E19.47181
G1 X120.884 Y102.357 E19.55898
G1 X121.205 Y102.571 E19.58144
G1 X122.38 Y103.802 E19.68047
G1 X124.063 Y104.484 E19.78612
G1 X124.242 Y104.605 E19.79873
G1 X125.123 Y105.402 E19.86783
G1 X125.353 Y105.736 E19.89144
G1 X126.046 Y107.518 E20.00273
G1 X127.487 Y108.938 E20.12047
G3 X128.066 Y110.251 I-2.694 J1.972 E20.20471
G1 X128.028 Y112.372 E20.32814
G1 X128.866 Y114.31 E20.45101
G1 X128.962 Y115.104 E20.49755
G1 X128.865 Y115.691 E20.53219
G1 X128.028 Y117.628 E20.65498
G1 X128.066 Y119.749 E20.77841
G1 X127.972 Y120.161 E20.80303
G3 X127.487 Y121.062 I-3.576 J-1.344 E20.86265
G1 X126.046 Y122.482 E20.98039
G1 X125.353 Y124.264 E21.09168
G1 X125.123 Y124.598 E21.11529
G1 X124.242 Y125.395 E21.18439
G1 X124.063 Y125.516 E21.197
G1 X122.38 Y126.198 E21.30265
G1 X121.205 Y127.429 E21.40168
G1 X120.884 Y127.643 E21.42414
G1 X119.485 Y128.179 E21.51131
G1 X119.257 Y128.228 E21.52491
G1 X117.589 Y128.21 E21.62195
G1 X116.144 Y128.843 E21.71375
G1 X115.9 Y128.904 E21.72839
G1 X114.203 Y128.915 E21.82716
G1 X113.85 Y128.842 E21.84813
G1 X112.406 Y128.21 E21.93983
G1 X110.736 Y128.228 E22.03705
G1 X110.507 Y128.179 E22.05066
G1 X109.114 Y127.645 E22.13751
G1 X108.792 Y127.431 E22.15997
G1 X107.615 Y126.198 E22.25916
G1 X105.927 Y125.514 E22.36517
G1 X105.747 Y125.393 E22.37778
G1 X104.874 Y124.603 E22.44629
G1 X104.644 Y124.269 E22.4699
G1 X103.95 Y122.482 E22.58148
G1 X102.502 Y121.056 E22.69973
G3 X101.929 Y119.755 I2.657 J-1.947 E22.78315
G1 X101.967 Y117.628 E22.90696
G1 X101.125 Y115.68 E23.03043
G1 X101.03 Y114.895 E23.07646
G1 X101.126 Y114.318 E23.1105
G1 X101.967 Y112.372 E23.23388
G1 X101.929 Y110.245 E23.35769
G1 X102.024 Y109.832 E23.38231
G3 X102.502 Y108.944 I3.513 J1.318 E23.44111
G1 X103.95 Y107.518 E23.55937
G1 X104.644 Y105.731 E23.67095
G1 X104.84 Y105.446 E23.69107
M204 S2500
G1 X105.231 Y105.748 F7200
M204 S2000
G1 F3000
G1 X106.067 Y104.992 E23.75667
G1 X106.179 Y104.919 E23.76443
G1 X107.902 Y104.225 E23.87251
G1 X109.135 Y102.934 E23.97641
G1 X109.318 Y102.812 E23.98925
G1 X110.665 Y102.296 E24.07318
G1 X110.806 Y102.267 E24.08156
G1 X112.507 Y102.291 E24.18054
G1 X114.03 Y101.625 E24.27728
G1 X114.182 Y101.589 E24.28638
G1 X115.795 Y101.59 E24.38022
G1 X115.995 Y101.632 E24.39216
G1 X117.49 Y102.291 E24.48719
G1 X119.186 Y102.267 E24.58592
G1 X119.327 Y102.296 E24.5943
G1 X120.679 Y102.814 E24.67854
G1 X120.862 Y102.936 E24.69139
G1 X122.094 Y104.225 E24.79512
G1 X123.811 Y104.916 E24.90284
G1 X123.923 Y104.99 E24.91061
G1 X124.766 Y105.753 E24.9768
G1 X124.898 Y105.944 E24.9903
G1 X125.619 Y107.8 E25.1062
G1 X127.092 Y109.245 E25.22628
G3 X127.566 Y110.273 I-2.265 J1.668 E25.29259
G1 X127.527 Y112.471 E25.42054
G1 X128.392 Y114.475 E25.54758
G3 X128.393 Y115.524 I-1.887 J0.526 E25.60918
G1 X127.527 Y117.529 E25.73629
G1 X127.566 Y119.727 E25.86424
G1 X127.512 Y119.963 E25.87832
G1 X127.164 Y120.654 E25.92333
G1 X127.092 Y120.755 E25.93055
G1 X125.619 Y122.2 E26.05064
G1 X124.898 Y124.056 E26.16653
G1 X124.766 Y124.247 E26.18003
G1 X123.923 Y125.01 E26.24622
G1 X123.811 Y125.084 E26.25399
G1 X122.094 Y125.775 E26.36171
G1 X120.862 Y127.064 E26.46544
G1 X120.679 Y127.186 E26.47829
G1 X119.327 Y127.704 E26.56253
G1 X119.186 Y127.733 E26.57091
G1 X117.488 Y127.709 E26.66971
G1 X115.966 Y128.375 E26.76642
G1 X115.815 Y128.41 E26.77544
G1 X114.228 Y128.416 E26.86781
G1 X114.027 Y128.373 E26.87977
G1 X112.507 Y127.709 E26.9763
G1 X110.806 Y127.733 E27.07527
G1 X110.665 Y127.704 E27.08365
G1 X109.318 Y127.188 E27.16758
G1 X109.135 Y127.066 E27.18043
G1 X107.902 Y125.775 E27.28433
G1 X106.179 Y125.081 E27.39241
G1 X106.067 Y125.008 E27.40017
G1 X105.231 Y124.252 E27.46577
G1 X105.1 Y124.061 E27.47927
G1 X104.377 Y122.2 E27.59545
G1 X102.897 Y120.749 E27.71605
G1 X102.825 Y120.648 E27.72327
G1 X102.484 Y119.97 E27.76746
G1 X102.43 Y119.734 E27.78154
G1 X102.469 Y117.529 E27.90987
G1 X101.599 Y115.516 E28.03751
G3 X101.598 Y114.486 I1.844 J-0.517 E28.09800
G1 X102.469 Y112.471 E28.22571
G1 X102.43 Y110.266 E28.35403
G1 X102.484 Y110.03 E28.36812
G3 X102.897 Y109.251 I2.864 J1.019 E28.41952
G1 X104.377 Y107.8 E28.54013
G1 X105.1 Y105.939 E28.6563
G1 X105.197 Y105.798 E28.66631
M204 S2500
G1 X105.588 Y106.099 F7200
M204 S2000
G1 F3000
G1 X106.422 Y105.356 E28.73132
G1 X108.188 Y104.649 E28.84202
G1 X109.523 Y103.269 E28.95379
G1 X110.866 Y102.764 E29.03729
G1 X112.607 Y102.793 E29.13861
G1 X114.255 Y102.084 E29.24298
G1 X115.767 Y102.09 E29.33099
G1 X117.389 Y102.793 E29.43387
G1 X119.126 Y102.764 E29.53499
G1 X120.474 Y103.271 E29.6188
G1 X121.807 Y104.649 E29.73042
G1 X123.568 Y105.353 E29.84075
G1 X124.409 Y106.104 E29.90635
G1 X124.442 Y106.152 E29.90974
G1 X125.192 Y108.082 E30.03026
G1 X126.703 Y109.559 E30.1532
G1 X127.052 Y110.235 E30.19747
G1 X127.065 Y110.294 E30.20101
G1 X127.025 Y112.57 E30.33349
G1 X127.919 Y114.639 E30.46463
G3 X127.919 Y115.359 I-1.407 J0.360 E30.50688
G1 X127.025 Y117.43 E30.63814
G1 X127.065 Y119.706 E30.77062
G1 X127.052 Y119.765 E30.77416
G1 X126.703 Y120.441 E30.81842
G1 X125.192 Y121.918 E30.94137
G1 X124.442 Y123.848 E31.06188
G1 X124.409 Y123.896 E31.06528
G1 X123.568 Y124.647 E31.13088
G1 X121.807 Y125.351 E31.24121
G1 X120.474 Y126.729 E31.35283
G1 X119.126 Y127.236 E31.43664
G1 X117.388 Y127.207 E31.53778
G1 X115.741 Y127.916 E31.64211
G1 X114.254 Y127.916 E31.72868
G1 X112.607 Y127.207 E31.83301
G1 X110.866 Y127.236 E31.93434
G1 X109.523 Y126.731 E32.01783
G1 X108.188 Y125.351 E32.12961
G1 X106.422 Y124.644 E32.24031
G1 X105.588 Y123.901 E32.30531
G1 X105.555 Y123.853 E32.30871
G1 X104.803 Y121.918 E32.42951
G1 X103.286 Y120.435 E32.55297
G1 X102.944 Y119.772 E32.59642
G1 X102.93 Y119.712 E32.59996
G1 X102.97 Y117.43 E32.73281
G1 X102.072 Y115.351 E32.86456
G3 X102.072 Y114.650 I1.396 J-0.350 E32.90569
G1 X102.97 Y112.57 E33.03755
G1 X102.93 Y110.288 E33.1704
G1 X102.944 Y110.228 E33.17394
G1 X103.286 Y109.565 E33.21739
G1 X104.803 Y108.082 E33.34086
G1 X105.554 Y106.149 E33.46156
M204 S2500
G1 E32.06156 F4800
;WIPE_START
G1 F5760
G1 X106.086 Y105.663 E31.49156
;WIPE_END
G1 E31.46156 F4800
G92 E0
G1 X127.3 Y115.154 F7200
G1 E2 F4800
M204 S2000
;TYPE:External perimeter
G1 F3000
G1 X126.372 Y117.302 E2.13612
G1 X126.419 Y119.576 E2.26853
G1 X126.193 Y120.031 E2.29809
G1 X124.637 Y121.552 E2.42472
G1 X123.891 Y123.489 E2.54551
G1 X123.249 Y124.074 E2.59608
G1 X121.434 Y124.8 E2.70979
G1 X120.143 Y126.16 E2.81896
G1 X119.046 Y126.585 E2.88738
G1 X117.257 Y126.555 E2.99154
G1 X115.644 Y127.266 E3.09411
G1 X114.351 Y127.266 E3.16935
